P3
400 225
255
180 213 255
180 213 255
180 213 255
180 213 255
180 213 255
180 213 255
180 213 255
180 213 255
180 213 255
180 213 255
180 213 255
180 213 255
180 213 255
180 213 255
180 213 255
180 213 255
180 213 255
180 213 255
180 213 255
180 213 255
180 213 255
180 213 255
180 213 255
180 213 255
180 213 255
180 213 255
180 213 255
180 213 255
180 213 255
180 213 255
180 213 255
180 213 255
180 213 255
180 213 255
180 213 255
180 213 255
180 213 255
180 213 255
180 213 255
180 213 255
180 213 255
180 213 255
180 213 255
180 213 255
180 213 255
180 213 255
180 213 255
180 213 255
180 213 255
180 213 255
180 213 255
180 213 255
180 213 255
180 213 255
180 213 255
180 213 255
180 213 255
180 213 255
180 213 255
180 213 255
180 213 255
180 213 255
180 213 255
180 213 255
180 213 255
180 213 255
180 213 255
180 213 255
180 213 255
180 213 255
180 213 255
180 213 255
180 213 255
180 213 255
180 213 255
180 213 255
180 213 255
180 213 255
180 213 255
180 213 255
180 213 255
180 213 255
180 213 255
180 213 255
180 213 255
180 213 255
180 213 255
180 213 255
180 213 255
180 213 255
180 213 255
180 213 255
180 213 255
180 213 255
180 213 255
180 213 255
180 213 255
180 213 255
180 213 255
180 213 255
180 213 255
180 213 255
180 213 255
180 213 255
180 213 255
180 213 255
180 213 255
180 213 255
180 213 255
180 213 255
180 213 255
180 213 255
180 213 255
180 213 255
180 213 255
180 213 255
180 213 255
180 213 255
180 213 255
180 213 255
180 213 255
180 213 255
180 213 255
180 213 255
180 213 255
180 213 255
180 213 255
180 213 255
180 213 255
180 213 255
180 213 255
180 213 255
180 213 255
180 213 255
180 213 255
180 213 255
180 213 255
180 213 255
180 213 255
180 213 255
180 213 255
180 213 255
180 213 255
180 213 255
180 213 255
180 213 255
180 213 255
180 213 255
180 213 255
180 213 255
180 213 255
180 213 255
180 213 255
180 213 255
180 213 255
180 213 255
180 213 255
180 213 255
180 213 255
180 213 255
180 213 255
180 213 255
180 213 255
180 213 255
180 213 255
180 213 255
180 213 255
180 213 255
180 213 255
180 213 255
180 213 255
180 213 255
180 213 255
180 213 255
180 213 255
180 213 255
180 213 255
180 213 255
180 213 255
180 213 255
180 213 255
180 213 255
180 213 255
180 213 255
180 213 255
180 213 255
180 213 255
180 213 255
180 213 255
180 213 255
180 213 255
180 213 255
180 213 255
180 213 255
180 213 255
180 213 255
180 213 255
180 213 255
180 213 255
180 213 255
180 213 255
180 213 255
180 213 255
180 213 255
180 213 255
180 213 255
180 213 255
180 213 255
180 213 255
180 213 255
180 213 255
180 213 255
180 213 255
180 213 255
180 213 255
180 213 255
180 213 255
180 213 255
180 213 255
180 213 255
180 213 255
180 213 255
180 213 255
180 213 255
180 213 255
180 213 255
180 213 255
180 213 255
180 213 255
180 213 255
180 213 255
180 213 255
180 213 255
180 213 255
180 213 255
180 213 255
180 213 255
180 213 255
180 213 255
180 213 255
180 213 255
180 213 255
180 213 255
180 213 255
180 213 255
180 213 255
180 213 255
180 213 255
180 213 255
180 213 255
180 213 255
180 213 255
180 213 255
180 213 255
180 213 255
180 213 255
180 213 255
180 213 255
180 213 255
180 213 255
180 213 255
180 213 255
180 213 255
180 213 255
180 213 255
180 213 255
180 213 255
180 213 255
180 213 255
180 213 255
180 213 255
180 213 255
180 213 255
180 213 255
180 213 255
180 213 255
180 213 255
180 213 255
180 213 255
180 213 255
180 213 255
180 213 255
180 213 255
180 213 255
180 213 255
180 213 255
180 213 255
180 213 255
180 213 255
180 213 255
180 213 255
180 213 255
180 213 255
180 213 255
180 213 255
180 213 255
180 213 255
180 213 255
180 213 255
180 213 255
180 213 255
180 213 255
180 213 255
180 213 255
180 213 255
180 213 255
180 213 255
180 213 255
180 213 255
180 213 255
180 213 255
180 213 255
180 213 255
180 213 255
180 213 255
180 213 255
180 213 255
180 213 255
180 213 255
180 213 255
180 213 255
180 213 255
180 213 255
180 213 255
180 213 255
180 213 255
180 213 255
180 213 255
180 213 255
180 213 255
180 213 255
180 213 255
180 213 255
180 213 255
180 213 255
180 213 255
180 213 255
180 213 255
180 213 255
180 213 255
180 213 255
180 213 255
180 213 255
180 213 255
180 213 255
180 213 255
180 213 255
180 213 255
180 213 255
180 213 255
180 213 255
180 213 255
180 213 255
180 213 255
180 213 255
180 213 255
180 213 255
180 213 255
180 213 255
180 213 255
180 213 255
180 213 255
180 213 255
180 213 255
180 213 255
180 213 255
180 213 255
180 213 255
180 213 255
180 213 255
180 213 255
180 213 255
180 213 255
180 213 255
180 213 255
180 213 255
180 213 255
180 213 255
180 213 255
180 213 255
180 213 255
180 213 255
180 213 255
180 213 255
180 213 255
180 213 255
180 213 255
180 213 255
180 213 255
180 213 255
180 213 255
180 213 255
180 213 255
180 213 255
180 213 255
180 213 255
180 213 255
180 213 255
180 213 255
180 213 255
181 213 255
181 213 255
181 213 255
181 213 255
181 213 255
181 213 255
181 213 255
181 213 255
181 213 255
181 213 255
180 213 255
181 213 255
181 213 255
181 213 255
180 213 255
181 213 255
181 213 255
180 213 255
180 213 255
180 213 255
181 213 255
181 213 255
181 213 255
181 213 255
181 213 255
181 213 255
181 213 255
181 213 255
181 213 255
181 213 255
181 213 255
181 213 255
181 213 255
181 213 255
180 213 255
180 213 255
181 213 255
181 213 255
181 213 255
181 213 255
181 213 255
181 213 255
181 213 255
181 213 255
180 213 255
181 213 255
180 213 255
181 213 255
181 213 255
181 213 255
181 213 255
181 213 255
181 213 255
181 213 255
181 213 255
181 213 255
181 213 255
181 213 255
180 213 255
181 213 255
181 213 255
181 213 255
181 213 255
180 213 255
180 213 255
181 213 255
181 213 255
181 213 255
181 213 255
181 213 255
181 213 255
181 213 255
181 213 255
181 213 255
181 213 255
181 213 255
181 213 255
181 213 255
180 213 255
181 213 255
181 213 255
181 213 255
181 213 255
181 213 255
180 213 255
181 213 255
180 213 255
180 213 255
181 213 255
180 213 255
181 213 255
181 213 255
181 213 255
181 213 255
181 213 255
180 213 255
181 213 255
181 213 255
181 213 255
181 213 255
181 213 255
181 213 255
181 213 255
181 213 255
181 213 255
181 213 255
181 213 255
181 213 255
181 213 255
181 213 255
181 213 255
181 213 255
181 213 255
181 213 255
181 213 255
181 213 255
181 213 255
181 213 255
181 213 255
181 213 255
181 213 255
181 213 255
181 213 255
181 213 255
181 213 255
181 213 255
181 213 255
181 213 255
181 213 255
181 213 255
181 213 255
181 213 255
181 213 255
181 213 255
181 213 255
181 213 255
181 213 255
180 213 255
181 213 255
180 213 255
181 213 255
181 213 255
181 213 255
181 213 255
181 213 255
181 213 255
181 213 255
181 213 255
180 213 255
181 213 255
180 213 255
180 213 255
181 213 255
181 213 255
181 213 255
181 213 255
181 213 255
180 213 255
181 213 255
180 213 255
181 213 255
180 213 255
180 213 255
181 213 255
181 213 255
181 213 255
181 213 255
181 213 255
181 213 255
181 213 255
180 213 255
181 213 255
180 213 255
181 213 255
181 213 255
181 213 255
180 213 255
181 213 255
181 213 255
181 213 255
181 213 255
181 213 255
180 213 255
181 213 255
180 213 255
181 213 255
181 213 255
181 213 255
181 213 255
181 213 255
181 213 255
181 213 255
181 213 255
181 213 255
181 213 255
181 213 255
181 213 255
181 213 255
181 213 255
181 213 255
181 213 255
181 213 255
180 213 255
181 213 255
180 213 255
181 213 255
181 213 255
181 213 255
181 213 255
181 213 255
181 213 255
181 213 255
181 213 255
181 213 255
181 213 255
181 213 255
181 213 255
181 213 255
181 213 255
180 213 255
181 213 255
180 213 255
181 213 255
181 213 255
181 213 255
181 213 255
181 213 255
181 213 255
180 213 255
181 213 255
181 213 255
181 213 255
180 213 255
181 213 255
181 213 255
181 213 255
181 213 255
181 213 255
181 213 255
181 213 255
181 213 255
181 213 255
181 213 255
181 213 255
181 213 255
181 213 255
181 213 255
181 213 255
181 213 255
180 213 255
180 213 255
181 213 255
181 213 255
180 213 255
181 213 255
181 213 255
181 213 255
181 213 255
181 213 255
181 213 255
181 213 255
180 213 255
181 213 255
181 213 255
181 213 255
181 213 255
181 213 255
181 213 255
180 213 255
180 213 255
181 213 255
181 213 255
181 213 255
181 213 255
181 213 255
181 213 255
181 213 255
181 213 255
181 213 255
181 213 255
181 213 255
181 213 255
181 213 255
181 213 255
181 213 255
180 213 255
181 213 255
181 213 255
181 213 255
181 213 255
181 213 255
181 213 255
181 213 255
181 213 255
181 213 255
181 213 255
181 213 255
181 213 255
181 213 255
181 213 255
181 213 255
181 213 255
181 213 255
181 213 255
181 213 255
181 213 255
181 213 255
181 213 255
181 213 255
181 213 255
181 213 255
181 213 255
180 213 255
181 213 255
181 213 255
181 213 255
181 213 255
181 213 255
181 213 255
181 213 255
181 213 255
181 213 255
181 213 255
181 213 255
181 213 255
181 213 255
181 213 255
181 213 255
180 213 255
181 213 255
181 213 255
181 213 255
180 213 255
181 213 255
180 213 255
181 213 255
181 213 255
181 213 255
181 213 255
180 213 255
181 213 255
181 213 255
181 213 255
181 213 255
181 213 255
181 213 255
181 213 255
181 213 255
181 213 255
180 213 255
181 213 255
181 213 255
181 213 255
181 213 255
181 213 255
181 213 255
181 213 255
181 213 255
181 213 255
181 213 255
181 213 255
181 213 255
181 213 255
181 213 255
181 213 255
181 213 255
181 213 255
180 213 255
181 213 255
180 213 255
181 213 255
181 213 255
181 213 255
181 213 255
181 213 255
181 213 255
181 213 255
181 213 255
181 213 255
181 213 255
181 213 255
180 213 255
181 213 255
181 213 255
181 213 255
181 213 255
181 213 255
181 213 255
180 213 255
181 213 255
181 213 255
180 213 255
181 213 255
181 213 255
181 213 255
180 213 255
181 213 255
181 213 255
181 213 255
180 213 255
181 214 255
181 214 255
181 214 255
181 214 255
181 214 255
181 214 255
181 214 255
181 214 255
181 214 255
181 214 255
181 214 255
181 214 255
181 214 255
181 214 255
181 214 255
181 214 255
181 214 255
181 214 255
181 214 255
181 214 255
181 214 255
181 214 255
181 214 255
181 214 255
181 214 255
181 214 255
181 214 255
181 214 255
181 214 255
181 214 255
181 214 255
181 214 255
181 214 255
181 214 255
181 214 255
181 214 255
181 214 255
181 214 255
181 214 255
181 214 255
181 214 255
181 214 255
181 214 255
181 214 255
181 214 255
181 214 255
181 214 255
181 214 255
181 214 255
181 214 255
181 214 255
181 214 255
181 214 255
181 214 255
181 214 255
181 214 255
181 214 255
181 214 255
181 214 255
181 214 255
181 214 255
181 214 255
181 214 255
181 214 255
181 214 255
181 214 255
181 214 255
181 214 255
181 214 255
181 214 255
181 214 255
181 214 255
181 214 255
181 214 255
181 214 255
181 214 255
181 214 255
181 214 255
181 214 255
181 214 255
181 214 255
181 214 255
181 214 255
181 214 255
181 214 255
181 214 255
181 214 255
181 214 255
181 214 255
181 214 255
181 214 255
181 214 255
181 214 255
181 214 255
181 214 255
181 214 255
181 214 255
181 214 255
181 214 255
181 214 255
181 214 255
181 214 255
181 214 255
181 214 255
181 214 255
181 214 255
181 214 255
181 214 255
181 214 255
181 214 255
181 214 255
181 214 255
181 214 255
181 214 255
181 214 255
181 214 255
181 214 255
181 214 255
181 214 255
181 214 255
181 214 255
181 214 255
181 214 255
181 214 255
181 214 255
181 214 255
181 214 255
181 214 255
181 214 255
181 214 255
181 214 255
181 214 255
181 214 255
181 214 255
181 214 255
181 214 255
181 214 255
181 214 255
181 214 255
181 214 255
181 214 255
181 214 255
181 214 255
181 214 255
181 214 255
181 214 255
181 214 255
181 214 255
181 214 255
181 214 255
181 214 255
181 214 255
181 214 255
181 214 255
181 214 255
181 214 255
181 214 255
181 214 255
181 214 255
181 214 255
181 214 255
181 214 255
181 214 255
181 214 255
181 214 255
181 214 255
181 214 255
181 214 255
181 214 255
181 214 255
181 214 255
181 214 255
181 214 255
181 214 255
181 214 255
181 214 255
181 214 255
181 214 255
181 214 255
181 214 255
181 214 255
181 214 255
181 214 255
181 214 255
181 214 255
181 214 255
181 214 255
181 214 255
181 214 255
181 214 255
181 214 255
181 214 255
181 214 255
181 214 255
181 214 255
181 214 255
181 214 255
181 214 255
181 214 255
181 214 255
181 214 255
181 214 255
181 214 255
181 214 255
181 214 255
181 214 255
181 214 255
181 214 255
181 214 255
181 214 255
181 214 255
181 214 255
181 214 255
181 214 255
181 214 255
181 214 255
181 214 255
181 214 255
181 214 255
181 214 255
181 214 255
181 214 255
181 214 255
181 214 255
181 214 255
181 214 255
181 214 255
181 214 255
181 214 255
181 214 255
181 214 255
181 214 255
181 214 255
181 214 255
181 214 255
181 214 255
181 214 255
181 214 255
181 214 255
181 214 255
181 214 255
181 214 255
181 214 255
181 214 255
181 214 255
181 214 255
181 214 255
181 214 255
181 214 255
181 214 255
181 214 255
181 214 255
181 214 255
181 214 255
181 214 255
181 214 255
181 214 255
181 214 255
181 214 255
181 214 255
181 214 255
181 214 255
181 214 255
181 214 255
181 214 255
181 214 255
181 214 255
181 214 255
181 214 255
181 214 255
181 214 255
181 214 255
181 214 255
181 214 255
181 214 255
181 214 255
181 214 255
181 214 255
181 214 255
181 214 255
181 214 255
181 214 255
181 214 255
181 214 255
181 214 255
181 214 255
181 214 255
181 214 255
181 214 255
181 214 255
181 214 255
181 214 255
181 214 255
181 214 255
181 214 255
181 214 255
181 214 255
181 214 255
181 214 255
181 214 255
181 214 255
181 214 255
181 214 255
181 214 255
181 214 255
181 214 255
181 214 255
181 214 255
181 214 255
181 214 255
181 214 255
181 214 255
181 214 255
181 214 255
181 214 255
181 214 255
181 214 255
181 214 255
181 214 255
181 214 255
181 214 255
181 214 255
181 214 255
181 214 255
181 214 255
181 214 255
181 214 255
181 214 255
181 214 255
181 214 255
181 214 255
181 214 255
181 214 255
181 214 255
181 214 255
181 214 255
181 214 255
181 214 255
181 214 255
181 214 255
181 214 255
181 214 255
181 214 255
181 214 255
181 214 255
181 214 255
181 214 255
181 214 255
181 214 255
181 214 255
181 214 255
181 214 255
181 214 255
181 214 255
181 214 255
181 214 255
181 214 255
181 214 255
181 214 255
181 214 255
181 214 255
181 214 255
181 214 255
181 214 255
181 214 255
181 214 255
181 214 255
181 214 255
181 214 255
181 214 255
181 214 255
181 214 255
181 214 255
181 214 255
181 214 255
181 214 255
181 214 255
181 214 255
181 214 255
181 214 255
181 214 255
181 214 255
181 214 255
181 214 255
181 214 255
181 214 255
181 214 255
181 214 255
181 214 255
181 214 255
181 214 255
181 214 255
181 214 255
181 214 255
181 214 255
181 214 255
181 214 255
181 214 255
181 214 255
181 214 255
181 214 255
181 214 255
181 214 255
181 214 255
181 214 255
181 214 255
181 214 255
181 214 255
181 214 255
181 214 255
181 214 255
181 214 255
181 214 255
181 214 255
181 214 255
181 214 255
181 214 255
181 214 255
181 214 255
181 214 255
181 214 255
181 214 255
181 214 255
181 214 255
181 214 255
181 214 255
181 214 255
181 214 255
181 214 255
181 214 255
181 214 255
181 214 255
181 214 255
181 214 255
181 214 255
181 214 255
181 214 255
181 214 255
181 214 255
181 214 255
181 214 255
181 214 255
181 214 255
181 214 255
181 214 255
181 214 255
181 214 255
181 214 255
181 214 255
181 214 255
181 214 255
181 214 255
181 214 255
181 214 255
181 214 255
181 214 255
181 214 255
181 214 255
181 214 255
181 214 255
181 214 255
181 214 255
181 214 255
181 214 255
181 214 255
181 214 255
181 214 255
181 214 255
181 214 255
181 214 255
181 214 255
181 214 255
181 214 255
181 214 255
181 214 255
181 214 255
181 214 255
181 214 255
181 214 255
181 214 255
181 214 255
181 214 255
181 214 255
181 214 255
181 214 255
181 214 255
181 214 255
181 214 255
181 214 255
181 214 255
181 214 255
181 214 255
181 214 255
181 214 255
181 214 255
181 214 255
181 214 255
181 214 255
181 214 255
181 214 255
181 214 255
181 214 255
181 214 255
181 214 255
181 214 255
181 214 255
181 214 255
181 214 255
181 214 255
181 214 255
181 214 255
181 214 255
181 214 255
181 214 255
181 214 255
181 214 255
181 214 255
181 214 255
181 214 255
181 214 255
181 214 255
181 214 255
181 214 255
181 214 255
181 214 255
181 214 255
181 214 255
181 214 255
181 214 255
181 214 255
181 214 255
181 214 255
181 214 255
181 214 255
181 214 255
181 214 255
181 214 255
181 214 255
181 214 255
181 214 255
181 214 255
181 214 255
181 214 255
181 214 255
181 214 255
181 214 255
181 214 255
181 214 255
181 214 255
181 214 255
181 214 255
181 214 255
181 214 255
181 214 255
181 214 255
181 214 255
181 214 255
181 214 255
181 214 255
181 214 255
181 214 255
181 214 255
181 214 255
181 214 255
181 214 255
181 214 255
181 214 255
181 214 255
181 214 255
181 214 255
181 214 255
181 214 255
181 214 255
181 214 255
181 214 255
181 214 255
181 214 255
181 214 255
181 214 255
181 214 255
181 214 255
181 214 255
181 214 255
181 214 255
181 214 255
181 214 255
181 214 255
181 214 255
181 214 255
181 214 255
181 214 255
181 214 255
181 214 255
181 214 255
181 214 255
181 214 255
181 214 255
181 214 255
181 214 255
181 214 255
181 214 255
181 214 255
181 214 255
181 214 255
181 214 255
181 214 255
181 214 255
181 214 255
181 214 255
181 214 255
181 214 255
181 214 255
181 214 255
181 214 255
181 214 255
181 214 255
181 214 255
181 214 255
181 214 255
181 214 255
181 214 255
181 214 255
181 214 255
181 214 255
181 214 255
181 214 255
181 214 255
181 214 255
181 214 255
181 214 255
181 214 255
181 214 255
181 214 255
181 214 255
181 214 255
181 214 255
181 214 255
181 214 255
181 214 255
181 214 255
181 214 255
181 214 255
181 214 255
181 214 255
181 214 255
181 214 255
181 214 255
181 214 255
181 214 255
181 214 255
181 214 255
181 214 255
181 214 255
181 214 255
181 214 255
181 214 255
181 214 255
181 214 255
181 214 255
181 214 255
181 214 255
181 214 255
181 214 255
181 214 255
181 214 255
181 214 255
181 214 255
181 214 255
181 214 255
181 214 255
181 214 255
181 214 255
181 214 255
181 214 255
181 214 255
181 214 255
181 214 255
181 214 255
181 214 255
181 214 255
181 214 255
181 214 255
181 214 255
181 214 255
181 214 255
181 214 255
181 214 255
181 214 255
181 214 255
181 214 255
181 214 255
181 214 255
181 214 255
181 214 255
181 214 255
181 214 255
181 214 255
181 214 255
181 214 255
181 214 255
181 214 255
181 214 255
181 214 255
181 214 255
181 214 255
181 214 255
181 214 255
181 214 255
181 214 255
181 214 255
181 214 255
181 214 255
181 214 255
181 214 255
181 214 255
181 214 255
181 214 255
181 214 255
181 214 255
181 214 255
181 214 255
181 214 255
181 214 255
181 214 255
181 214 255
181 214 255
181 214 255
181 214 255
181 214 255
181 214 255
181 214 255
181 214 255
181 214 255
181 214 255
181 214 255
181 214 255
181 214 255
181 214 255
181 214 255
181 214 255
181 214 255
181 214 255
181 214 255
181 214 255
181 214 255
181 214 255
181 214 255
181 214 255
181 214 255
181 214 255
181 214 255
181 214 255
181 214 255
181 214 255
181 214 255
181 214 255
181 214 255
181 214 255
181 214 255
181 214 255
181 214 255
181 214 255
181 214 255
181 214 255
181 214 255
181 214 255
181 214 255
181 214 255
181 214 255
181 214 255
181 214 255
181 214 255
181 214 255
181 214 255
181 214 255
181 214 255
181 214 255
181 214 255
181 214 255
181 214 255
181 214 255
181 214 255
181 214 255
181 214 255
181 214 255
181 214 255
181 214 255
181 214 255
181 214 255
181 214 255
181 214 255
181 214 255
181 214 255
181 214 255
181 214 255
181 214 255
181 214 255
181 214 255
181 214 255
181 214 255
182 214 255
182 214 255
182 214 255
182 214 255
182 214 255
182 214 255
182 214 255
182 214 255
182 214 255
182 214 255
182 214 255
182 214 255
182 214 255
182 214 255
182 214 255
182 214 255
182 214 255
182 214 255
182 214 255
182 214 255
182 214 255
182 214 255
182 214 255
182 214 255
182 214 255
182 214 255
182 214 255
182 214 255
182 214 255
182 214 255
182 214 255
182 214 255
182 214 255
182 214 255
182 214 255
182 214 255
182 214 255
182 214 255
182 214 255
182 214 255
182 214 255
182 214 255
182 214 255
182 214 255
182 214 255
182 214 255
182 214 255
182 214 255
182 214 255
182 214 255
182 214 255
182 214 255
182 214 255
182 214 255
182 214 255
182 214 255
182 214 255
182 214 255
182 214 255
182 214 255
182 214 255
182 214 255
182 214 255
182 214 255
182 214 255
182 214 255
182 214 255
182 214 255
182 214 255
182 214 255
182 214 255
182 214 255
182 214 255
182 214 255
182 214 255
182 214 255
182 214 255
182 214 255
182 214 255
182 214 255
182 214 255
182 214 255
182 214 255
182 214 255
182 214 255
182 214 255
182 214 255
182 214 255
182 214 255
182 214 255
182 214 255
182 214 255
182 214 255
182 214 255
182 214 255
182 214 255
182 214 255
182 214 255
182 214 255
182 214 255
182 214 255
182 214 255
182 214 255
182 214 255
182 214 255
182 214 255
182 214 255
182 214 255
182 214 255
182 214 255
182 214 255
182 214 255
182 214 255
182 214 255
182 214 255
182 214 255
182 214 255
182 214 255
182 214 255
182 214 255
182 214 255
182 214 255
182 214 255
182 214 255
182 214 255
182 214 255
182 214 255
182 214 255
182 214 255
182 214 255
182 214 255
182 214 255
182 214 255
182 214 255
182 214 255
182 214 255
182 214 255
182 214 255
182 214 255
182 214 255
182 214 255
182 214 255
182 214 255
182 214 255
182 214 255
182 214 255
182 214 255
182 214 255
182 214 255
182 214 255
182 214 255
182 214 255
182 214 255
182 214 255
182 214 255
182 214 255
182 214 255
182 214 255
182 214 255
182 214 255
182 214 255
182 214 255
182 214 255
182 214 255
182 214 255
182 214 255
182 214 255
182 214 255
182 214 255
182 214 255
182 214 255
182 214 255
182 214 255
182 214 255
182 214 255
182 214 255
182 214 255
182 214 255
182 214 255
182 214 255
182 214 255
182 214 255
182 214 255
182 214 255
182 214 255
182 214 255
182 214 255
182 214 255
182 214 255
182 214 255
182 214 255
182 214 255
182 214 255
182 214 255
182 214 255
182 214 255
182 214 255
182 214 255
182 214 255
182 214 255
182 214 255
182 214 255
182 214 255
182 214 255
182 214 255
182 214 255
182 214 255
182 214 255
182 214 255
182 214 255
182 214 255
182 214 255
182 214 255
182 214 255
182 214 255
182 214 255
182 214 255
182 214 255
182 214 255
182 214 255
182 214 255
182 214 255
182 214 255
182 214 255
182 214 255
182 214 255
182 214 255
182 214 255
182 214 255
182 214 255
182 214 255
182 214 255
182 214 255
182 214 255
182 214 255
182 214 255
182 214 255
182 214 255
182 214 255
182 214 255
182 214 255
182 214 255
182 214 255
182 214 255
182 214 255
182 214 255
182 214 255
182 214 255
182 214 255
182 214 255
182 214 255
182 214 255
182 214 255
182 214 255
182 214 255
182 214 255
182 214 255
182 214 255
182 214 255
182 214 255
182 214 255
182 214 255
182 214 255
182 214 255
182 214 255
182 214 255
182 214 255
182 214 255
182 214 255
182 214 255
182 214 255
182 214 255
182 214 255
182 214 255
182 214 255
182 214 255
182 214 255
182 214 255
182 214 255
182 214 255
182 214 255
182 214 255
182 214 255
182 214 255
182 214 255
182 214 255
182 214 255
182 214 255
182 214 255
182 214 255
182 214 255
182 214 255
182 214 255
182 214 255
182 214 255
182 214 255
182 214 255
182 214 255
182 214 255
182 214 255
182 214 255
182 214 255
182 214 255
182 214 255
182 214 255
182 214 255
182 214 255
182 214 255
182 214 255
182 214 255
182 214 255
182 214 255
182 214 255
182 214 255
182 214 255
182 214 255
182 214 255
182 214 255
182 214 255
182 214 255
182 214 255
182 214 255
182 214 255
182 214 255
182 214 255
182 214 255
182 214 255
182 214 255
182 214 255
182 214 255
182 214 255
182 214 255
182 214 255
182 214 255
182 214 255
182 214 255
182 214 255
182 214 255
182 214 255
182 214 255
182 214 255
182 214 255
182 214 255
182 214 255
182 214 255
182 214 255
182 214 255
182 214 255
182 214 255
182 214 255
182 214 255
182 214 255
182 214 255
182 214 255
182 214 255
182 214 255
182 214 255
182 214 255
182 214 255
182 214 255
182 214 255
182 214 255
182 214 255
182 214 255
182 214 255
182 214 255
182 214 255
182 214 255
182 214 255
182 214 255
182 214 255
182 214 255
182 214 255
182 214 255
182 214 255
182 214 255
182 214 255
182 214 255
182 214 255
182 214 255
182 214 255
182 214 255
182 214 255
182 214 255
182 214 255
182 214 255
182 214 255
182 214 255
182 214 255
182 214 255
182 214 255
182 214 255
182 214 255
182 214 255
182 214 255
182 214 255
182 214 255
182 214 255
182 214 255
182 214 255
182 214 255
182 214 255
182 214 255
182 214 255
182 214 255
182 214 255
182 214 255
182 214 255
182 214 255
182 214 255
182 214 255
182 214 255
182 214 255
182 214 255
182 214 255
182 214 255
182 214 255
182 214 255
182 214 255
182 214 255
182 214 255
182 214 255
182 214 255
182 214 255
182 214 255
182 214 255
182 214 255
182 214 255
182 214 255
182 214 255
182 214 255
182 214 255
182 214 255
182 214 255
182 214 255
182 214 255
182 214 255
182 214 255
182 214 255
182 214 255
182 214 255
182 214 255
182 214 255
182 214 255
182 214 255
182 214 255
182 214 255
182 214 255
182 214 255
182 214 255
182 214 255
182 214 255
182 214 255
182 214 255
182 214 255
182 214 255
182 214 255
182 214 255
182 214 255
182 214 255
182 214 255
182 214 255
182 214 255
182 214 255
182 214 255
182 214 255
182 214 255
182 214 255
182 214 255
182 214 255
182 214 255
182 214 255
182 214 255
182 214 255
182 214 255
182 214 255
182 214 255
182 214 255
182 214 255
182 214 255
182 214 255
182 214 255
182 214 255
182 214 255
182 214 255
182 214 255
182 214 255
182 214 255
182 214 255
182 214 255
182 214 255
182 214 255
182 214 255
182 214 255
182 214 255
182 214 255
182 214 255
182 214 255
182 214 255
182 214 255
182 214 255
182 214 255
182 214 255
182 214 255
182 214 255
182 214 255
182 214 255
182 214 255
182 214 255
182 214 255
182 214 255
182 214 255
182 214 255
182 214 255
182 214 255
182 214 255
182 214 255
182 214 255
182 214 255
182 214 255
182 214 255
182 214 255
182 214 255
182 214 255
182 214 255
182 214 255
182 214 255
182 214 255
182 214 255
182 214 255
182 214 255
182 214 255
182 214 255
182 214 255
182 214 255
182 214 255
182 214 255
182 214 255
182 214 255
182 214 255
182 214 255
182 214 255
182 214 255
182 214 255
182 214 255
182 214 255
182 214 255
182 214 255
182 214 255
182 214 255
182 214 255
182 214 255
182 214 255
182 214 255
182 214 255
182 214 255
182 214 255
182 214 255
182 214 255
182 214 255
182 214 255
182 214 255
182 214 255
182 214 255
182 214 255
182 214 255
182 214 255
182 214 255
182 214 255
182 214 255
182 214 255
182 214 255
182 214 255
182 214 255
182 214 255
182 214 255
182 214 255
182 214 255
182 214 255
182 214 255
182 214 255
182 214 255
182 214 255
182 214 255
182 214 255
182 214 255
182 214 255
182 214 255
182 214 255
182 214 255
182 214 255
182 214 255
182 214 255
182 214 255
182 214 255
182 214 255
182 214 255
182 214 255
182 214 255
182 214 255
182 214 255
182 214 255
182 214 255
182 214 255
182 214 255
182 214 255
182 214 255
182 214 255
182 214 255
182 214 255
182 214 255
182 214 255
182 214 255
182 214 255
182 214 255
182 214 255
182 214 255
182 214 255
182 214 255
182 214 255
182 214 255
182 214 255
182 214 255
182 214 255
182 214 255
182 214 255
182 214 255
182 214 255
182 214 255
182 214 255
182 214 255
182 214 255
182 214 255
182 214 255
182 214 255
182 214 255
182 214 255
182 214 255
182 214 255
182 214 255
182 214 255
182 214 255
182 214 255
182 214 255
182 214 255
182 214 255
182 214 255
182 214 255
182 214 255
182 214 255
182 214 255
182 214 255
182 214 255
182 214 255
182 214 255
182 214 255
182 214 255
182 214 255
182 214 255
182 214 255
182 214 255
182 214 255
182 214 255
182 214 255
182 214 255
182 214 255
182 214 255
182 214 255
182 214 255
182 214 255
182 214 255
182 214 255
182 214 255
182 214 255
182 214 255
182 214 255
182 214 255
182 214 255
182 214 255
182 214 255
182 214 255
182 214 255
182 214 255
182 214 255
182 214 255
182 214 255
182 214 255
182 214 255
182 214 255
182 214 255
182 214 255
182 214 255
182 214 255
182 214 255
182 214 255
182 214 255
182 214 255
182 214 255
182 214 255
182 214 255
182 214 255
182 214 255
182 214 255
182 214 255
182 214 255
182 214 255
182 214 255
182 214 255
182 214 255
182 214 255
182 214 255
182 214 255
182 214 255
182 214 255
182 214 255
182 214 255
182 214 255
182 214 255
182 214 255
182 214 255
182 214 255
182 214 255
182 214 255
182 214 255
182 214 255
182 214 255
182 214 255
182 214 255
182 214 255
182 214 255
182 214 255
182 214 255
182 214 255
182 214 255
182 214 255
182 214 255
182 214 255
182 214 255
182 214 255
182 214 255
182 214 255
182 214 255
182 214 255
182 214 255
182 214 255
182 214 255
182 214 255
182 214 255
182 214 255
182 214 255
182 214 255
182 214 255
182 214 255
182 214 255
182 214 255
182 214 255
182 214 255
182 214 255
182 214 255
182 214 255
182 214 255
182 214 255
182 214 255
182 214 255
182 214 255
182 214 255
182 214 255
182 214 255
182 214 255
182 214 255
182 214 255
182 214 255
182 214 255
182 214 255
182 214 255
182 214 255
182 214 255
182 214 255
182 214 255
182 214 255
182 214 255
182 214 255
182 214 255
182 214 255
182 214 255
182 214 255
182 214 255
182 214 255
182 214 255
182 214 255
182 214 255
182 214 255
182 214 255
182 214 255
182 214 255
182 214 255
182 214 255
182 214 255
182 214 255
182 214 255
182 214 255
183 214 255
183 214 255
183 214 255
183 214 255
183 214 255
182 214 255
183 214 255
182 214 255
182 214 255
183 214 255
183 214 255
183 214 255
183 214 255
183 214 255
183 214 255
183 214 255
183 214 255
183 214 255
183 214 255
183 214 255
183 214 255
183 214 255
183 214 255
183 214 255
183 214 255
183 214 255
183 214 255
183 214 255
183 214 255
183 214 255
182 214 255
183 214 255
183 214 255
183 214 255
183 214 255
182 214 255
183 214 255
183 214 255
183 214 255
183 214 255
183 214 255
182 214 255
183 214 255
182 214 255
183 214 255
183 214 255
183 214 255
183 214 255
183 214 255
183 214 255
183 214 255
183 214 255
183 214 255
183 214 255
183 214 255
183 214 255
183 214 255
183 214 255
183 214 255
183 214 255
183 214 255
183 214 255
183 214 255
183 214 255
183 214 255
183 214 255
183 214 255
182 214 255
182 214 255
183 214 255
182 214 255
182 214 255
183 214 255
183 214 255
183 214 255
182 214 255
182 214 255
183 214 255
183 214 255
182 214 255
183 214 255
183 214 255
182 214 255
183 214 255
183 214 255
183 214 255
183 214 255
183 214 255
183 214 255
183 214 255
183 214 255
183 214 255
183 214 255
183 214 255
182 214 255
183 214 255
183 214 255
183 214 255
183 214 255
183 214 255
183 214 255
183 214 255
182 214 255
183 214 255
183 214 255
183 214 255
183 214 255
183 214 255
183 214 255
182 214 255
183 214 255
183 214 255
183 214 255
182 214 255
183 214 255
182 214 255
183 214 255
183 214 255
183 214 255
182 214 255
183 214 255
183 214 255
182 214 255
183 214 255
182 214 255
183 214 255
182 214 255
183 214 255
183 214 255
183 214 255
183 214 255
182 214 255
183 214 255
183 214 255
183 214 255
182 214 255
183 214 255
183 214 255
183 214 255
183 214 255
183 214 255
183 214 255
183 214 255
183 214 255
183 214 255
183 214 255
183 214 255
182 214 255
183 214 255
183 214 255
183 214 255
183 214 255
183 214 255
183 214 255
183 214 255
182 214 255
183 214 255
183 214 255
183 214 255
183 214 255
183 214 255
183 214 255
183 214 255
183 214 255
183 214 255
183 214 255
183 214 255
183 214 255
183 214 255
182 214 255
183 214 255
183 214 255
182 214 255
183 214 255
183 214 255
183 214 255
183 214 255
183 214 255
182 214 255
183 214 255
183 214 255
183 214 255
183 214 255
183 214 255
183 214 255
183 214 255
183 214 255
182 214 255
183 214 255
183 214 255
182 214 255
183 214 255
183 214 255
182 214 255
182 214 255
183 214 255
183 214 255
182 214 255
183 214 255
183 214 255
183 214 255
182 214 255
183 214 255
183 214 255
183 214 255
183 214 255
183 214 255
182 214 255
183 214 255
183 214 255
183 214 255
183 214 255
183 214 255
183 214 255
183 214 255
183 214 255
183 214 255
183 214 255
183 214 255
183 214 255
183 214 255
183 214 255
183 214 255
183 214 255
183 214 255
183 214 255
183 214 255
182 214 255
183 214 255
182 214 255
183 214 255
183 214 255
183 214 255
183 214 255
183 214 255
183 214 255
183 214 255
183 214 255
183 214 255
183 214 255
183 214 255
183 214 255
183 214 255
182 214 255
183 214 255
183 214 255
183 214 255
183 214 255
183 214 255
183 214 255
183 214 255
183 214 255
183 214 255
183 214 255
183 214 255
183 214 255
183 214 255
183 214 255
183 214 255
183 214 255
183 214 255
183 214 255
183 214 255
183 214 255
183 214 255
183 214 255
182 214 255
183 214 255
183 214 255
183 214 255
183 214 255
182 214 255
183 214 255
183 214 255
183 214 255
183 214 255
183 214 255
183 214 255
183 214 255
183 214 255
183 214 255
183 214 255
183 214 255
182 214 255
183 214 255
183 214 255
183 214 255
182 214 255
183 214 255
183 214 255
183 214 255
183 214 255
183 214 255
183 214 255
183 214 255
182 214 255
183 214 255
183 214 255
183 214 255
183 214 255
183 214 255
183 214 255
183 214 255
183 214 255
183 214 255
183 214 255
182 214 255
182 214 255
182 214 255
183 214 255
183 214 255
183 214 255
183 214 255
183 214 255
183 214 255
183 214 255
182 214 255
183 214 255
183 214 255
183 214 255
182 214 255
183 214 255
183 214 255
182 214 255
182 214 255
183 214 255
182 214 255
183 214 255
183 214 255
183 214 255
183 214 255
183 214 255
183 214 255
183 214 255
183 214 255
182 214 255
183 214 255
183 214 255
183 214 255
183 214 255
183 214 255
183 214 255
183 214 255
183 214 255
183 214 255
182 214 255
183 214 255
183 214 255
183 214 255
183 214 255
183 214 255
183 214 255
183 214 255
182 214 255
183 214 255
183 214 255
183 214 255
183 214 255
183 214 255
183 214 255
183 214 255
183 214 255
183 214 255
182 214 255
183 214 255
183 214 255
183 214 255
183 214 255
183 214 255
183 214 255
183 214 255
183 214 255
182 214 255
182 214 255
183 214 255
182 214 255
182 214 255
183 214 255
183 214 255
182 214 255
183 214 255
182 214 255
183 214 255
183 214 255
183 214 255
183 214 255
183 214 255
183 214 255
183 214 255
183 214 255
183 214 255
183 214 255
183 214 255
183 214 255
183 214 255
183 214 255
183 214 255
183 214 255
183 214 255
183 215 255
183 215 255
183 215 255
183 215 255
183 215 255
183 215 255
183 215 255
183 215 255
183 215 255
183 215 255
183 215 255
183 215 255
183 215 255
183 215 255
183 215 255
183 215 255
183 215 255
183 215 255
183 215 255
183 215 255
183 215 255
183 215 255
183 215 255
183 215 255
183 215 255
183 215 255
183 215 255
183 215 255
183 215 255
183 215 255
183 215 255
183 215 255
183 215 255
183 215 255
183 215 255
183 215 255
183 215 255
183 215 255
183 215 255
183 215 255
183 215 255
183 215 255
183 215 255
183 215 255
183 215 255
183 215 255
183 215 255
183 215 255
183 215 255
183 215 255
183 215 255
183 215 255
183 215 255
183 215 255
183 215 255
183 215 255
183 215 255
183 215 255
183 215 255
183 215 255
183 215 255
183 215 255
183 215 255
183 215 255
183 215 255
183 215 255
183 215 255
183 215 255
183 215 255
183 215 255
183 215 255
183 215 255
183 215 255
183 215 255
183 215 255
183 215 255
183 215 255
183 215 255
183 215 255
183 215 255
183 215 255
183 215 255
183 215 255
183 215 255
183 215 255
183 215 255
183 215 255
183 215 255
183 215 255
183 215 255
183 215 255
183 215 255
183 215 255
183 215 255
183 215 255
183 215 255
183 215 255
183 215 255
183 215 255
183 215 255
183 215 255
183 215 255
183 215 255
183 215 255
183 215 255
183 215 255
183 215 255
183 215 255
183 215 255
183 215 255
183 215 255
183 215 255
183 215 255
183 215 255
183 215 255
183 215 255
183 215 255
183 215 255
183 215 255
183 215 255
183 215 255
183 215 255
183 215 255
183 215 255
183 215 255
183 215 255
183 215 255
183 215 255
183 215 255
183 215 255
183 215 255
183 215 255
183 215 255
183 215 255
183 215 255
183 215 255
183 215 255
183 215 255
183 215 255
183 215 255
183 215 255
183 215 255
183 215 255
183 215 255
183 215 255
183 215 255
183 215 255
183 215 255
183 215 255
183 215 255
183 215 255
183 215 255
183 215 255
183 215 255
183 215 255
183 215 255
183 215 255
183 215 255
183 215 255
183 215 255
183 215 255
183 215 255
183 215 255
183 215 255
183 215 255
183 215 255
183 215 255
183 215 255
183 215 255
183 215 255
183 215 255
183 215 255
183 215 255
183 215 255
183 215 255
183 215 255
183 215 255
183 215 255
183 215 255
183 215 255
183 215 255
183 215 255
183 215 255
183 215 255
183 215 255
183 215 255
183 215 255
183 215 255
183 215 255
183 215 255
183 215 255
183 215 255
183 215 255
183 215 255
183 215 255
183 215 255
183 215 255
183 215 255
183 215 255
183 215 255
183 215 255
183 215 255
183 215 255
183 215 255
183 215 255
183 215 255
183 215 255
183 215 255
183 215 255
183 215 255
183 215 255
183 215 255
183 215 255
183 215 255
183 215 255
183 215 255
183 215 255
183 215 255
183 215 255
183 215 255
183 215 255
183 215 255
183 215 255
183 215 255
183 215 255
183 215 255
183 215 255
183 215 255
183 215 255
183 215 255
183 215 255
183 215 255
183 215 255
183 215 255
183 215 255
183 215 255
183 215 255
183 215 255
183 215 255
183 215 255
183 215 255
183 215 255
183 215 255
183 215 255
183 215 255
183 215 255
183 215 255
183 215 255
183 215 255
183 215 255
183 215 255
183 215 255
183 215 255
183 215 255
183 215 255
183 215 255
183 215 255
183 215 255
183 215 255
183 215 255
183 215 255
183 215 255
183 215 255
183 215 255
183 215 255
183 215 255
183 215 255
183 215 255
183 215 255
183 215 255
183 215 255
183 215 255
183 215 255
183 215 255
183 215 255
183 215 255
183 215 255
183 215 255
183 215 255
183 215 255
183 215 255
183 215 255
183 215 255
183 215 255
183 215 255
183 215 255
183 215 255
183 215 255
183 215 255
183 215 255
183 215 255
183 215 255
183 215 255
183 215 255
183 215 255
183 215 255
183 215 255
183 215 255
183 215 255
183 215 255
183 215 255
183 215 255
183 215 255
183 215 255
183 215 255
183 215 255
183 215 255
183 215 255
183 215 255
183 215 255
183 215 255
183 215 255
183 215 255
183 215 255
183 215 255
183 215 255
183 215 255
183 215 255
183 215 255
183 215 255
183 215 255
183 215 255
183 215 255
183 215 255
183 215 255
183 215 255
183 215 255
183 215 255
183 215 255
183 215 255
183 215 255
183 215 255
183 215 255
183 215 255
183 215 255
183 215 255
183 215 255
183 215 255
183 215 255
183 215 255
183 215 255
183 215 255
183 215 255
183 215 255
183 215 255
183 215 255
183 215 255
183 215 255
183 215 255
183 215 255
183 215 255
183 215 255
183 215 255
183 215 255
183 215 255
183 215 255
183 215 255
183 215 255
183 215 255
183 215 255
183 215 255
183 215 255
183 215 255
183 215 255
183 215 255
183 215 255
183 215 255
183 215 255
183 215 255
183 215 255
183 215 255
183 215 255
183 215 255
183 215 255
183 215 255
183 215 255
183 215 255
183 215 255
183 215 255
183 215 255
183 215 255
183 215 255
183 215 255
183 215 255
183 215 255
183 215 255
183 215 255
183 215 255
183 215 255
183 215 255
183 215 255
183 215 255
183 215 255
183 215 255
183 215 255
183 215 255
183 215 255
183 215 255
183 215 255
183 215 255
183 215 255
183 215 255
183 215 255
183 215 255
183 215 255
183 215 255
183 215 255
183 215 255
183 215 255
183 215 255
183 215 255
183 215 255
183 215 255
183 215 255
183 215 255
183 215 255
183 215 255
183 215 255
183 215 255
183 215 255
183 215 255
183 215 255
183 215 255
183 215 255
183 215 255
183 215 255
183 215 255
183 215 255
183 215 255
183 215 255
183 215 255
183 215 255
183 215 255
183 215 255
183 215 255
183 215 255
183 215 255
183 215 255
183 215 255
183 215 255
183 215 255
183 215 255
183 215 255
183 215 255
183 215 255
183 215 255
183 215 255
183 215 255
183 215 255
183 215 255
183 215 255
183 215 255
183 215 255
183 215 255
183 215 255
183 215 255
183 215 255
183 215 255
183 215 255
183 215 255
183 215 255
183 215 255
183 215 255
183 215 255
183 215 255
183 215 255
183 215 255
183 215 255
183 215 255
183 215 255
183 215 255
183 215 255
183 215 255
183 215 255
183 215 255
183 215 255
183 215 255
183 215 255
183 215 255
183 215 255
183 215 255
183 215 255
183 215 255
183 215 255
183 215 255
183 215 255
183 215 255
183 215 255
183 215 255
183 215 255
183 215 255
183 215 255
183 215 255
183 215 255
183 215 255
183 215 255
183 215 255
183 215 255
183 215 255
183 215 255
183 215 255
183 215 255
183 215 255
183 215 255
183 215 255
183 215 255
183 215 255
183 215 255
183 215 255
183 215 255
183 215 255
183 215 255
183 215 255
183 215 255
183 215 255
183 215 255
183 215 255
183 215 255
183 215 255
183 215 255
183 215 255
183 215 255
183 215 255
183 215 255
183 215 255
183 215 255
183 215 255
183 215 255
183 215 255
183 215 255
183 215 255
183 215 255
183 215 255
183 215 255
183 215 255
183 215 255
183 215 255
183 215 255
183 215 255
183 215 255
183 215 255
183 215 255
183 215 255
183 215 255
183 215 255
183 215 255
183 215 255
183 215 255
183 215 255
183 215 255
183 215 255
183 215 255
183 215 255
183 215 255
183 215 255
183 215 255
183 215 255
183 215 255
183 215 255
183 215 255
183 215 255
183 215 255
183 215 255
183 215 255
183 215 255
183 215 255
183 215 255
183 215 255
183 215 255
183 215 255
183 215 255
183 215 255
183 215 255
183 215 255
183 215 255
183 215 255
183 215 255
183 215 255
183 215 255
183 215 255
183 215 255
183 215 255
183 215 255
183 215 255
183 215 255
183 215 255
183 215 255
183 215 255
183 215 255
183 215 255
183 215 255
183 215 255
183 215 255
183 215 255
183 215 255
183 215 255
183 215 255
183 215 255
183 215 255
183 215 255
183 215 255
183 215 255
183 215 255
183 215 255
183 215 255
183 215 255
183 215 255
183 215 255
183 215 255
183 215 255
183 215 255
183 215 255
183 215 255
183 215 255
183 215 255
183 215 255
183 215 255
183 215 255
183 215 255
183 215 255
183 215 255
183 215 255
183 215 255
183 215 255
183 215 255
183 215 255
183 215 255
183 215 255
183 215 255
183 215 255
183 215 255
183 215 255
183 215 255
183 215 255
183 215 255
183 215 255
183 215 255
183 215 255
183 215 255
183 215 255
183 215 255
183 215 255
183 215 255
183 215 255
183 215 255
183 215 255
183 215 255
183 215 255
183 215 255
183 215 255
183 215 255
183 215 255
183 215 255
183 215 255
183 215 255
183 215 255
183 215 255
183 215 255
183 215 255
183 215 255
183 215 255
183 215 255
183 215 255
183 215 255
183 215 255
183 215 255
183 215 255
183 215 255
183 215 255
183 215 255
183 215 255
183 215 255
183 215 255
183 215 255
183 215 255
183 215 255
183 215 255
183 215 255
183 215 255
183 215 255
183 215 255
183 215 255
183 215 255
183 215 255
183 215 255
183 215 255
183 215 255
183 215 255
183 215 255
183 215 255
183 215 255
183 215 255
183 215 255
183 215 255
183 215 255
183 215 255
183 215 255
183 215 255
183 215 255
183 215 255
183 215 255
183 215 255
183 215 255
183 215 255
183 215 255
183 215 255
183 215 255
183 215 255
183 215 255
183 215 255
183 215 255
183 215 255
183 215 255
183 215 255
183 215 255
183 215 255
183 215 255
183 215 255
183 215 255
183 215 255
183 215 255
183 215 255
183 215 255
183 215 255
183 215 255
183 215 255
183 215 255
183 215 255
183 215 255
183 215 255
183 215 255
183 215 255
183 215 255
183 215 255
183 215 255
183 215 255
183 215 255
183 215 255
183 215 255
183 215 255
183 215 255
183 215 255
183 215 255
183 215 255
183 215 255
183 215 255
183 215 255
183 215 255
183 215 255
183 215 255
183 215 255
183 215 255
183 215 255
183 215 255
183 215 255
183 215 255
183 215 255
183 215 255
183 215 255
183 215 255
183 215 255
183 215 255
183 215 255
183 215 255
183 215 255
183 215 255
183 215 255
183 215 255
183 215 255
183 215 255
183 215 255
183 215 255
183 215 255
183 215 255
183 215 255
183 215 255
183 215 255
183 215 255
183 215 255
183 215 255
183 215 255
183 215 255
183 215 255
183 215 255
183 215 255
183 215 255
183 215 255
183 215 255
183 215 255
183 215 255
183 215 255
183 215 255
183 215 255
183 215 255
183 215 255
183 215 255
183 215 255
183 215 255
183 215 255
183 215 255
184 215 255
184 215 255
184 215 255
184 215 255
184 215 255
184 215 255
184 215 255
184 215 255
184 215 255
184 215 255
184 215 255
184 215 255
184 215 255
184 215 255
184 215 255
184 215 255
184 215 255
184 215 255
184 215 255
184 215 255
184 215 255
184 215 255
184 215 255
184 215 255
184 215 255
184 215 255
184 215 255
184 215 255
184 215 255
184 215 255
184 215 255
184 215 255
184 215 255
184 215 255
184 215 255
184 215 255
184 215 255
184 215 255
184 215 255
184 215 255
184 215 255
184 215 255
184 215 255
184 215 255
184 215 255
184 215 255
184 215 255
184 215 255
184 215 255
184 215 255
184 215 255
184 215 255
184 215 255
184 215 255
184 215 255
184 215 255
184 215 255
184 215 255
184 215 255
184 215 255
184 215 255
184 215 255
184 215 255
184 215 255
184 215 255
184 215 255
184 215 255
184 215 255
184 215 255
184 215 255
184 215 255
184 215 255
184 215 255
184 215 255
184 215 255
184 215 255
184 215 255
184 215 255
184 215 255
184 215 255
184 215 255
184 215 255
184 215 255
184 215 255
184 215 255
184 215 255
184 215 255
184 215 255
184 215 255
184 215 255
184 215 255
184 215 255
184 215 255
184 215 255
184 215 255
184 215 255
184 215 255
184 215 255
184 215 255
184 215 255
184 215 255
184 215 255
184 215 255
184 215 255
184 215 255
184 215 255
184 215 255
184 215 255
184 215 255
184 215 255
184 215 255
184 215 255
184 215 255
184 215 255
184 215 255
184 215 255
184 215 255
184 215 255
184 215 255
184 215 255
184 215 255
184 215 255
184 215 255
184 215 255
184 215 255
184 215 255
184 215 255
184 215 255
184 215 255
184 215 255
184 215 255
184 215 255
184 215 255
184 215 255
184 215 255
184 215 255
184 215 255
184 215 255
184 215 255
184 215 255
184 215 255
184 215 255
184 215 255
184 215 255
184 215 255
184 215 255
184 215 255
184 215 255
184 215 255
184 215 255
184 215 255
184 215 255
184 215 255
184 215 255
184 215 255
184 215 255
184 215 255
184 215 255
184 215 255
184 215 255
184 215 255
184 215 255
184 215 255
184 215 255
184 215 255
184 215 255
184 215 255
184 215 255
184 215 255
184 215 255
184 215 255
184 215 255
184 215 255
184 215 255
184 215 255
184 215 255
184 215 255
184 215 255
184 215 255
184 215 255
184 215 255
184 215 255
184 215 255
184 215 255
184 215 255
184 215 255
184 215 255
184 215 255
184 215 255
184 215 255
184 215 255
184 215 255
184 215 255
184 215 255
184 215 255
184 215 255
184 215 255
184 215 255
184 215 255
184 215 255
184 215 255
184 215 255
184 215 255
184 215 255
184 215 255
184 215 255
184 215 255
184 215 255
184 215 255
184 215 255
184 215 255
184 215 255
184 215 255
184 215 255
184 215 255
184 215 255
184 215 255
184 215 255
184 215 255
184 215 255
184 215 255
184 215 255
184 215 255
184 215 255
184 215 255
184 215 255
184 215 255
184 215 255
184 215 255
184 215 255
184 215 255
184 215 255
184 215 255
184 215 255
184 215 255
184 215 255
184 215 255
184 215 255
184 215 255
184 215 255
184 215 255
184 215 255
184 215 255
184 215 255
184 215 255
184 215 255
184 215 255
184 215 255
184 215 255
184 215 255
184 215 255
184 215 255
184 215 255
184 215 255
184 215 255
184 215 255
184 215 255
184 215 255
184 215 255
184 215 255
184 215 255
184 215 255
184 215 255
184 215 255
184 215 255
184 215 255
184 215 255
184 215 255
184 215 255
184 215 255
184 215 255
184 215 255
184 215 255
184 215 255
184 215 255
184 215 255
184 215 255
184 215 255
184 215 255
184 215 255
184 215 255
184 215 255
184 215 255
184 215 255
184 215 255
184 215 255
184 215 255
184 215 255
184 215 255
184 215 255
184 215 255
184 215 255
184 215 255
184 215 255
184 215 255
184 215 255
184 215 255
184 215 255
184 215 255
184 215 255
184 215 255
184 215 255
184 215 255
184 215 255
184 215 255
184 215 255
184 215 255
184 215 255
184 215 255
184 215 255
184 215 255
184 215 255
184 215 255
184 215 255
184 215 255
184 215 255
184 215 255
184 215 255
184 215 255
184 215 255
184 215 255
184 215 255
184 215 255
184 215 255
184 215 255
184 215 255
184 215 255
184 215 255
184 215 255
184 215 255
184 215 255
184 215 255
184 215 255
184 215 255
184 215 255
184 215 255
184 215 255
184 215 255
184 215 255
184 215 255
184 215 255
184 215 255
184 215 255
184 215 255
184 215 255
184 215 255
184 215 255
184 215 255
184 215 255
184 215 255
184 215 255
184 215 255
184 215 255
184 215 255
184 215 255
184 215 255
184 215 255
184 215 255
184 215 255
184 215 255
184 215 255
184 215 255
184 215 255
184 215 255
184 215 255
184 215 255
184 215 255
184 215 255
184 215 255
184 215 255
184 215 255
184 215 255
184 215 255
184 215 255
184 215 255
184 215 255
184 215 255
184 215 255
184 215 255
184 215 255
184 215 255
184 215 255
184 215 255
184 215 255
184 215 255
184 215 255
184 215 255
184 215 255
184 215 255
184 215 255
184 215 255
184 215 255
184 215 255
184 215 255
184 215 255
184 215 255
184 215 255
184 215 255
184 215 255
184 215 255
184 215 255
184 215 255
184 215 255
184 215 255
184 215 255
184 215 255
184 215 255
184 215 255
184 215 255
184 215 255
184 215 255
184 215 255
184 215 255
184 215 255
184 215 255
184 215 255
184 215 255
184 215 255
184 215 255
184 215 255
184 215 255
184 215 255
184 215 255
184 215 255
184 215 255
184 215 255
184 215 255
184 215 255
184 215 255
184 215 255
184 215 255
184 215 255
184 215 255
184 215 255
184 215 255
184 215 255
184 215 255
184 215 255
184 215 255
184 215 255
184 215 255
184 215 255
184 215 255
184 215 255
184 215 255
184 215 255
184 215 255
184 215 255
184 215 255
184 215 255
184 215 255
184 215 255
184 215 255
184 215 255
184 215 255
184 215 255
184 215 255
184 215 255
184 215 255
184 215 255
184 215 255
184 215 255
184 215 255
184 215 255
184 215 255
184 215 255
184 215 255
184 215 255
184 215 255
184 215 255
184 215 255
184 215 255
184 215 255
184 215 255
184 215 255
184 215 255
184 215 255
184 215 255
184 215 255
184 215 255
184 215 255
184 215 255
184 215 255
184 215 255
184 215 255
184 215 255
184 215 255
184 215 255
184 215 255
184 215 255
184 215 255
184 215 255
184 215 255
184 215 255
184 215 255
184 215 255
184 215 255
184 215 255
184 215 255
184 215 255
184 215 255
184 215 255
184 215 255
184 215 255
184 215 255
184 215 255
184 215 255
184 215 255
184 215 255
184 215 255
184 215 255
184 215 255
184 215 255
184 215 255
184 215 255
184 215 255
184 215 255
184 215 255
184 215 255
184 215 255
184 215 255
184 215 255
184 215 255
184 215 255
184 215 255
184 215 255
184 215 255
184 215 255
184 215 255
184 215 255
184 215 255
184 215 255
184 215 255
184 215 255
184 215 255
184 215 255
184 215 255
184 215 255
184 215 255
184 215 255
184 215 255
184 215 255
184 215 255
184 215 255
184 215 255
184 215 255
184 215 255
184 215 255
184 215 255
184 215 255
184 215 255
184 215 255
184 215 255
184 215 255
184 215 255
184 215 255
184 215 255
184 215 255
184 215 255
184 215 255
184 215 255
184 215 255
184 215 255
184 215 255
184 215 255
184 215 255
184 215 255
184 215 255
184 215 255
184 215 255
184 215 255
184 215 255
184 215 255
184 215 255
184 215 255
184 215 255
184 215 255
184 215 255
184 215 255
184 215 255
184 215 255
184 215 255
184 215 255
184 215 255
184 215 255
184 215 255
184 215 255
184 215 255
184 215 255
184 215 255
184 215 255
184 215 255
184 215 255
184 215 255
184 215 255
184 215 255
184 215 255
184 215 255
184 215 255
184 215 255
184 215 255
184 215 255
184 215 255
184 215 255
184 215 255
184 215 255
184 215 255
184 215 255
184 215 255
184 215 255
184 215 255
184 215 255
184 215 255
184 215 255
184 215 255
184 215 255
184 215 255
184 215 255
184 215 255
184 215 255
184 215 255
184 215 255
184 215 255
184 215 255
184 215 255
184 215 255
184 215 255
184 215 255
184 215 255
184 215 255
184 215 255
184 215 255
184 215 255
184 215 255
184 215 255
184 215 255
184 215 255
184 215 255
184 215 255
184 215 255
184 215 255
184 215 255
184 215 255
184 215 255
184 215 255
184 215 255
184 215 255
184 215 255
184 215 255
184 215 255
184 215 255
184 215 255
184 215 255
184 215 255
184 215 255
184 215 255
184 215 255
184 215 255
184 215 255
184 215 255
184 215 255
184 215 255
184 215 255
184 215 255
184 215 255
184 215 255
184 215 255
184 215 255
184 215 255
184 215 255
184 215 255
184 215 255
184 215 255
184 215 255
184 215 255
184 215 255
184 215 255
184 215 255
184 215 255
184 215 255
184 215 255
184 215 255
184 215 255
184 215 255
184 215 255
184 215 255
184 215 255
184 215 255
184 215 255
184 215 255
184 215 255
184 215 255
184 215 255
184 215 255
184 215 255
184 215 255
184 215 255
184 215 255
184 215 255
184 215 255
184 215 255
184 215 255
184 215 255
184 215 255
184 215 255
184 215 255
184 215 255
184 215 255
184 215 255
184 215 255
184 215 255
184 215 255
184 215 255
184 215 255
184 215 255
184 215 255
184 215 255
184 215 255
184 215 255
184 215 255
184 215 255
184 215 255
184 215 255
184 215 255
184 215 255
184 215 255
184 215 255
184 215 255
184 215 255
184 215 255
184 215 255
184 215 255
184 215 255
184 215 255
184 215 255
184 215 255
184 215 255
184 215 255
184 215 255
184 215 255
184 215 255
184 215 255
184 215 255
184 215 255
184 215 255
184 215 255
184 215 255
184 215 255
184 215 255
184 215 255
184 215 255
184 215 255
184 215 255
184 215 255
184 215 255
184 215 255
184 215 255
184 215 255
184 215 255
184 215 255
184 215 255
184 215 255
184 215 255
184 215 255
184 215 255
184 215 255
184 215 255
184 215 255
184 215 255
184 215 255
184 215 255
184 215 255
184 215 255
184 215 255
184 215 255
184 215 255
184 215 255
184 215 255
184 215 255
184 215 255
184 215 255
184 215 255
184 215 255
184 215 255
184 215 255
184 215 255
184 215 255
184 215 255
184 215 255
184 215 255
184 215 255
184 215 255
184 215 255
184 215 255
184 215 255
184 215 255
184 215 255
184 215 255
184 215 255
184 215 255
184 215 255
184 215 255
184 215 255
184 215 255
184 215 255
184 215 255
185 215 255
184 215 255
184 215 255
184 215 255
184 215 255
184 215 255
184 215 255
185 215 255
184 215 255
185 215 255
184 215 255
184 215 255
184 215 255
184 215 255
184 215 255
184 215 255
184 215 255
185 215 255
184 215 255
184 215 255
185 215 255
185 215 255
185 215 255
185 215 255
184 215 255
184 215 255
184 215 255
184 215 255
184 215 255
184 215 255
184 215 255
184 215 255
184 215 255
184 215 255
185 215 255
184 215 255
184 215 255
184 215 255
184 215 255
185 215 255
184 215 255
184 215 255
184 215 255
184 215 255
184 215 255
184 215 255
184 215 255
184 215 255
184 215 255
184 215 255
184 215 255
184 215 255
184 215 255
184 215 255
184 215 255
185 215 255
184 215 255
184 215 255
184 215 255
185 215 255
184 215 255
184 215 255
184 215 255
184 215 255
184 215 255
184 215 255
184 215 255
184 215 255
184 215 255
185 215 255
184 215 255
184 215 255
184 215 255
184 215 255
184 215 255
184 215 255
185 215 255
185 215 255
184 215 255
184 215 255
184 215 255
185 215 255
184 215 255
184 215 255
185 215 255
185 215 255
184 215 255
184 215 255
184 215 255
184 215 255
185 215 255
184 215 255
184 215 255
184 215 255
185 215 255
184 215 255
184 215 255
184 215 255
185 215 255
184 215 255
184 215 255
184 215 255
185 215 255
184 215 255
184 215 255
184 215 255
184 215 255
184 215 255
185 215 255
184 215 255
184 215 255
184 215 255
184 215 255
184 215 255
184 215 255
184 215 255
184 215 255
184 215 255
185 215 255
185 215 255
184 215 255
184 215 255
184 215 255
185 215 255
185 215 255
184 215 255
184 215 255
184 215 255
185 215 255
184 215 255
184 215 255
184 215 255
184 215 255
184 215 255
184 215 255
184 215 255
184 215 255
184 215 255
184 215 255
184 215 255
185 215 255
184 215 255
185 215 255
185 215 255
184 215 255
184 215 255
184 215 255
184 215 255
184 215 255
184 215 255
184 215 255
185 215 255
184 215 255
184 215 255
184 215 255
184 215 255
185 215 255
184 215 255
185 215 255
184 215 255
184 215 255
184 215 255
184 215 255
184 215 255
184 215 255
184 215 255
184 215 255
184 215 255
184 215 255
184 215 255
184 215 255
184 215 255
184 215 255
185 215 255
184 215 255
184 215 255
184 215 255
184 215 255
185 215 255
184 215 255
185 215 255
185 215 255
184 215 255
185 215 255
184 215 255
184 215 255
184 215 255
184 215 255
184 215 255
184 215 255
184 215 255
184 215 255
184 215 255
184 215 255
185 215 255
184 215 255
184 215 255
185 215 255
184 215 255
184 215 255
184 215 255
184 215 255
184 215 255
184 215 255
184 215 255
184 215 255
184 215 255
185 215 255
184 215 255
185 215 255
185 215 255
184 215 255
184 215 255
184 215 255
184 215 255
184 215 255
184 215 255
184 215 255
184 215 255
184 215 255
185 215 255
185 215 255
184 215 255
184 215 255
185 215 255
185 215 255
185 215 255
184 215 255
184 215 255
184 215 255
184 215 255
184 215 255
184 215 255
185 215 255
184 215 255
185 215 255
185 215 255
184 215 255
184 215 255
184 215 255
184 215 255
184 215 255
185 215 255
184 215 255
184 215 255
184 215 255
184 215 255
184 215 255
184 215 255
185 215 255
184 215 255
184 215 255
184 215 255
184 215 255
184 215 255
184 215 255
185 215 255
185 215 255
184 215 255
184 215 255
184 215 255
184 215 255
184 215 255
184 215 255
184 215 255
184 215 255
184 215 255
184 215 255
184 215 255
184 215 255
184 215 255
184 215 255
185 215 255
185 215 255
184 215 255
185 215 255
184 215 255
184 215 255
184 215 255
185 215 255
184 215 255
184 215 255
184 215 255
184 215 255
184 215 255
185 215 255
184 215 255
184 215 255
184 215 255
184 215 255
185 215 255
184 215 255
184 215 255
184 215 255
184 215 255
184 215 255
184 215 255
184 215 255
185 215 255
184 215 255
184 215 255
184 215 255
185 215 255
185 215 255
185 215 255
184 215 255
185 215 255
185 215 255
184 215 255
184 215 255
184 215 255
184 215 255
184 215 255
185 215 255
185 215 255
185 215 255
184 215 255
185 215 255
184 215 255
184 215 255
184 215 255
185 215 255
184 215 255
184 215 255
184 215 255
184 215 255
185 215 255
184 215 255
184 215 255
184 215 255
185 215 255
184 215 255
184 215 255
184 215 255
184 215 255
184 215 255
185 215 255
184 215 255
184 215 255
184 215 255
184 215 255
184 215 255
184 215 255
184 215 255
184 215 255
184 215 255
184 215 255
184 215 255
184 215 255
184 215 255
184 215 255
184 215 255
185 215 255
184 215 255
184 215 255
185 215 255
184 215 255
184 215 255
185 215 255
184 215 255
184 215 255
184 215 255
185 215 255
184 215 255
184 215 255
184 215 255
184 215 255
184 215 255
184 215 255
184 215 255
184 215 255
184 215 255
184 215 255
184 215 255
184 215 255
184 215 255
185 215 255
184 215 255
184 215 255
184 215 255
185 215 255
184 215 255
184 215 255
184 215 255
184 215 255
184 215 255
184 215 255
184 215 255
184 215 255
184 215 255
185 215 255
184 215 255
184 215 255
185 215 255
185 216 255
185 216 255
185 216 255
185 216 255
185 216 255
185 216 255
185 216 255
185 216 255
185 216 255
185 216 255
185 216 255
185 216 255
185 216 255
185 216 255
185 216 255
185 216 255
185 216 255
185 216 255
185 216 255
185 216 255
185 216 255
185 216 255
185 216 255
185 216 255
185 216 255
185 216 255
185 216 255
185 216 255
185 216 255
185 216 255
185 216 255
185 216 255
185 216 255
185 216 255
185 216 255
185 216 255
185 216 255
185 216 255
185 216 255
185 216 255
185 216 255
185 216 255
185 216 255
185 216 255
185 216 255
185 216 255
185 216 255
185 216 255
185 216 255
185 216 255
185 216 255
185 216 255
185 216 255
185 216 255
185 216 255
185 216 255
185 216 255
185 216 255
185 216 255
185 216 255
185 216 255
185 216 255
185 216 255
185 216 255
185 216 255
185 216 255
185 216 255
185 216 255
185 216 255
185 216 255
185 216 255
185 216 255
185 216 255
185 216 255
185 216 255
185 216 255
185 216 255
185 216 255
185 216 255
185 216 255
185 216 255
185 216 255
185 216 255
185 216 255
185 216 255
185 216 255
185 216 255
185 216 255
185 216 255
185 216 255
185 216 255
185 216 255
185 216 255
185 216 255
185 216 255
185 216 255
185 216 255
185 216 255
185 216 255
185 216 255
185 216 255
185 216 255
185 216 255
185 216 255
185 216 255
185 216 255
185 216 255
185 216 255
185 216 255
185 216 255
185 216 255
185 216 255
185 216 255
185 216 255
185 216 255
185 216 255
185 216 255
185 216 255
185 216 255
185 216 255
185 216 255
185 216 255
185 216 255
185 216 255
185 216 255
185 216 255
185 216 255
185 216 255
185 216 255
185 216 255
185 216 255
185 216 255
185 216 255
185 216 255
185 216 255
185 216 255
185 216 255
185 216 255
185 216 255
185 216 255
185 216 255
185 216 255
185 216 255
185 216 255
185 216 255
185 216 255
185 216 255
185 216 255
185 216 255
185 216 255
185 216 255
185 216 255
185 216 255
185 216 255
185 216 255
185 216 255
185 216 255
185 216 255
185 216 255
185 216 255
185 216 255
185 216 255
185 216 255
185 216 255
185 216 255
185 216 255
185 216 255
185 216 255
185 216 255
185 216 255
185 216 255
185 216 255
185 216 255
185 216 255
185 216 255
185 216 255
185 216 255
185 216 255
185 216 255
185 216 255
185 216 255
185 216 255
185 216 255
185 216 255
185 216 255
185 216 255
185 216 255
185 216 255
185 216 255
185 216 255
185 216 255
185 216 255
185 216 255
185 216 255
185 216 255
185 216 255
185 216 255
185 216 255
185 216 255
185 216 255
185 216 255
185 216 255
185 216 255
185 216 255
185 216 255
185 216 255
185 216 255
185 216 255
185 216 255
185 216 255
185 216 255
185 216 255
185 216 255
185 216 255
185 216 255
185 216 255
185 216 255
185 216 255
185 216 255
185 216 255
185 216 255
185 216 255
185 216 255
185 216 255
185 216 255
185 216 255
185 216 255
185 216 255
185 216 255
185 216 255
185 216 255
185 216 255
185 216 255
185 216 255
185 216 255
185 216 255
185 216 255
185 216 255
185 216 255
185 216 255
185 216 255
185 216 255
185 216 255
185 216 255
185 216 255
185 216 255
185 216 255
185 216 255
185 216 255
185 216 255
185 216 255
185 216 255
185 216 255
185 216 255
185 216 255
185 216 255
185 216 255
185 216 255
185 216 255
185 216 255
185 216 255
185 216 255
185 216 255
185 216 255
185 216 255
185 216 255
185 216 255
185 216 255
185 216 255
185 216 255
185 216 255
185 216 255
185 216 255
185 216 255
185 216 255
185 216 255
185 216 255
185 216 255
185 216 255
185 216 255
185 216 255
185 216 255
185 216 255
185 216 255
185 216 255
185 216 255
185 216 255
185 216 255
185 216 255
185 216 255
185 216 255
185 216 255
185 216 255
185 216 255
185 216 255
185 216 255
185 216 255
185 216 255
185 216 255
185 216 255
185 216 255
185 216 255
185 216 255
185 216 255
185 216 255
185 216 255
185 216 255
185 216 255
185 216 255
185 216 255
185 216 255
185 216 255
185 216 255
185 216 255
185 216 255
185 216 255
185 216 255
185 216 255
185 216 255
185 216 255
185 216 255
185 216 255
185 216 255
185 216 255
185 216 255
185 216 255
185 216 255
185 216 255
185 216 255
185 216 255
185 216 255
185 216 255
185 216 255
185 216 255
185 216 255
185 216 255
185 216 255
185 216 255
185 216 255
185 216 255
185 216 255
185 216 255
185 216 255
185 216 255
185 216 255
185 216 255
185 216 255
185 216 255
185 216 255
185 216 255
185 216 255
185 216 255
185 216 255
185 216 255
185 216 255
185 216 255
185 216 255
185 216 255
185 216 255
185 216 255
185 216 255
185 216 255
185 216 255
185 216 255
185 216 255
185 216 255
185 216 255
185 216 255
185 216 255
185 216 255
185 216 255
185 216 255
185 216 255
185 216 255
185 216 255
185 216 255
185 216 255
185 216 255
185 216 255
185 216 255
185 216 255
185 216 255
185 216 255
185 216 255
185 216 255
185 216 255
185 216 255
185 216 255
185 216 255
185 216 255
185 216 255
185 216 255
185 216 255
185 216 255
185 216 255
185 216 255
185 216 255
185 216 255
185 216 255
185 216 255
185 216 255
185 216 255
185 216 255
185 216 255
185 216 255
185 216 255
185 216 255
185 216 255
185 216 255
185 216 255
185 216 255
185 216 255
185 216 255
185 216 255
185 216 255
185 216 255
185 216 255
185 216 255
185 216 255
185 216 255
185 216 255
185 216 255
185 216 255
185 216 255
185 216 255
185 216 255
185 216 255
185 216 255
185 216 255
185 216 255
185 216 255
185 216 255
185 216 255
185 216 255
185 216 255
185 216 255
185 216 255
185 216 255
185 216 255
185 216 255
185 216 255
185 216 255
185 216 255
185 216 255
185 216 255
185 216 255
185 216 255
185 216 255
185 216 255
185 216 255
185 216 255
185 216 255
185 216 255
185 216 255
185 216 255
185 216 255
185 216 255
185 216 255
185 216 255
185 216 255
185 216 255
185 216 255
185 216 255
185 216 255
185 216 255
185 216 255
185 216 255
185 216 255
185 216 255
185 216 255
185 216 255
185 216 255
185 216 255
185 216 255
185 216 255
185 216 255
185 216 255
185 216 255
185 216 255
185 216 255
185 216 255
185 216 255
185 216 255
185 216 255
185 216 255
185 216 255
185 216 255
185 216 255
185 216 255
185 216 255
185 216 255
185 216 255
185 216 255
185 216 255
185 216 255
185 216 255
185 216 255
185 216 255
185 216 255
185 216 255
185 216 255
185 216 255
185 216 255
185 216 255
185 216 255
185 216 255
185 216 255
185 216 255
185 216 255
185 216 255
185 216 255
185 216 255
185 216 255
185 216 255
185 216 255
185 216 255
185 216 255
185 216 255
185 216 255
185 216 255
185 216 255
185 216 255
185 216 255
185 216 255
185 216 255
185 216 255
185 216 255
185 216 255
185 216 255
185 216 255
185 216 255
185 216 255
185 216 255
185 216 255
185 216 255
185 216 255
185 216 255
185 216 255
185 216 255
185 216 255
185 216 255
185 216 255
185 216 255
185 216 255
185 216 255
185 216 255
185 216 255
185 216 255
185 216 255
185 216 255
185 216 255
185 216 255
185 216 255
185 216 255
185 216 255
185 216 255
185 216 255
185 216 255
185 216 255
185 216 255
185 216 255
185 216 255
185 216 255
185 216 255
185 216 255
185 216 255
185 216 255
185 216 255
185 216 255
185 216 255
185 216 255
185 216 255
185 216 255
185 216 255
185 216 255
185 216 255
185 216 255
185 216 255
185 216 255
185 216 255
185 216 255
185 216 255
185 216 255
185 216 255
185 216 255
185 216 255
185 216 255
185 216 255
185 216 255
185 216 255
185 216 255
185 216 255
185 216 255
185 216 255
185 216 255
185 216 255
185 216 255
185 216 255
185 216 255
185 216 255
185 216 255
185 216 255
185 216 255
185 216 255
185 216 255
185 216 255
185 216 255
185 216 255
185 216 255
185 216 255
185 216 255
185 216 255
185 216 255
185 216 255
185 216 255
185 216 255
185 216 255
185 216 255
185 216 255
185 216 255
185 216 255
185 216 255
185 216 255
185 216 255
185 216 255
185 216 255
185 216 255
185 216 255
185 216 255
185 216 255
185 216 255
185 216 255
185 216 255
185 216 255
185 216 255
185 216 255
185 216 255
185 216 255
185 216 255
185 216 255
185 216 255
185 216 255
185 216 255
185 216 255
185 216 255
185 216 255
185 216 255
185 216 255
185 216 255
185 216 255
185 216 255
185 216 255
185 216 255
185 216 255
185 216 255
185 216 255
185 216 255
185 216 255
185 216 255
185 216 255
185 216 255
185 216 255
185 216 255
185 216 255
185 216 255
185 216 255
185 216 255
185 216 255
185 216 255
185 216 255
185 216 255
185 216 255
185 216 255
185 216 255
185 216 255
185 216 255
185 216 255
185 216 255
185 216 255
185 216 255
185 216 255
185 216 255
185 216 255
185 216 255
185 216 255
185 216 255
185 216 255
185 216 255
185 216 255
185 216 255
185 216 255
185 216 255
185 216 255
185 216 255
185 216 255
185 216 255
185 216 255
185 216 255
185 216 255
185 216 255
185 216 255
185 216 255
185 216 255
185 216 255
185 216 255
185 216 255
185 216 255
185 216 255
185 216 255
185 216 255
185 216 255
185 216 255
185 216 255
185 216 255
185 216 255
185 216 255
185 216 255
185 216 255
185 216 255
185 216 255
185 216 255
185 216 255
185 216 255
185 216 255
185 216 255
185 216 255
185 216 255
185 216 255
185 216 255
185 216 255
185 216 255
185 216 255
185 216 255
185 216 255
185 216 255
185 216 255
185 216 255
185 216 255
185 216 255
185 216 255
185 216 255
185 216 255
185 216 255
185 216 255
185 216 255
185 216 255
185 216 255
185 216 255
185 216 255
185 216 255
185 216 255
185 216 255
185 216 255
185 216 255
185 216 255
185 216 255
185 216 255
185 216 255
185 216 255
185 216 255
185 216 255
185 216 255
185 216 255
185 216 255
185 216 255
185 216 255
185 216 255
185 216 255
185 216 255
185 216 255
185 216 255
185 216 255
185 216 255
185 216 255
185 216 255
185 216 255
185 216 255
185 216 255
185 216 255
185 216 255
185 216 255
185 216 255
185 216 255
185 216 255
185 216 255
185 216 255
185 216 255
185 216 255
185 216 255
185 216 255
185 216 255
185 216 255
185 216 255
185 216 255
185 216 255
185 216 255
185 216 255
185 216 255
185 216 255
185 216 255
186 216 255
186 216 255
186 216 255
186 216 255
186 216 255
186 216 255
186 216 255
186 216 255
186 216 255
186 216 255
186 216 255
186 216 255
186 216 255
186 216 255
186 216 255
186 216 255
186 216 255
186 216 255
186 216 255
186 216 255
186 216 255
186 216 255
186 216 255
186 216 255
186 216 255
186 216 255
186 216 255
186 216 255
186 216 255
186 216 255
186 216 255
186 216 255
186 216 255
186 216 255
186 216 255
186 216 255
186 216 255
186 216 255
186 216 255
186 216 255
186 216 255
186 216 255
186 216 255
186 216 255
186 216 255
186 216 255
186 216 255
186 216 255
186 216 255
186 216 255
186 216 255
186 216 255
186 216 255
186 216 255
186 216 255
186 216 255
186 216 255
186 216 255
186 216 255
186 216 255
186 216 255
186 216 255
186 216 255
186 216 255
186 216 255
186 216 255
186 216 255
186 216 255
186 216 255
186 216 255
186 216 255
186 216 255
186 216 255
186 216 255
186 216 255
186 216 255
186 216 255
186 216 255
186 216 255
186 216 255
186 216 255
186 216 255
186 216 255
186 216 255
186 216 255
186 216 255
186 216 255
186 216 255
186 216 255
186 216 255
186 216 255
186 216 255
186 216 255
186 216 255
186 216 255
186 216 255
186 216 255
186 216 255
186 216 255
186 216 255
186 216 255
186 216 255
186 216 255
186 216 255
186 216 255
186 216 255
186 216 255
186 216 255
186 216 255
186 216 255
186 216 255
186 216 255
186 216 255
186 216 255
186 216 255
186 216 255
186 216 255
186 216 255
186 216 255
186 216 255
186 216 255
186 216 255
186 216 255
186 216 255
186 216 255
186 216 255
186 216 255
186 216 255
186 216 255
186 216 255
186 216 255
186 216 255
186 216 255
186 216 255
186 216 255
186 216 255
186 216 255
186 216 255
186 216 255
186 216 255
186 216 255
186 216 255
186 216 255
186 216 255
186 216 255
186 216 255
186 216 255
186 216 255
186 216 255
186 216 255
186 216 255
186 216 255
186 216 255
186 216 255
186 216 255
186 216 255
186 216 255
186 216 255
186 216 255
186 216 255
186 216 255
186 216 255
186 216 255
186 216 255
186 216 255
186 216 255
186 216 255
186 216 255
186 216 255
186 216 255
186 216 255
186 216 255
186 216 255
186 216 255
186 216 255
186 216 255
186 216 255
186 216 255
186 216 255
186 216 255
186 216 255
186 216 255
186 216 255
186 216 255
186 216 255
186 216 255
186 216 255
186 216 255
186 216 255
186 216 255
186 216 255
186 216 255
186 216 255
186 216 255
186 216 255
186 216 255
186 216 255
186 216 255
186 216 255
186 216 255
186 216 255
186 216 255
186 216 255
186 216 255
186 216 255
186 216 255
186 216 255
186 216 255
186 216 255
186 216 255
186 216 255
186 216 255
186 216 255
186 216 255
186 216 255
186 216 255
186 216 255
186 216 255
186 216 255
186 216 255
186 216 255
186 216 255
186 216 255
186 216 255
186 216 255
186 216 255
186 216 255
186 216 255
186 216 255
186 216 255
186 216 255
186 216 255
186 216 255
186 216 255
186 216 255
186 216 255
186 216 255
186 216 255
186 216 255
186 216 255
186 216 255
186 216 255
186 216 255
186 216 255
186 216 255
186 216 255
186 216 255
186 216 255
186 216 255
186 216 255
186 216 255
186 216 255
186 216 255
186 216 255
186 216 255
186 216 255
186 216 255
186 216 255
186 216 255
186 216 255
186 216 255
186 216 255
186 216 255
186 216 255
186 216 255
186 216 255
186 216 255
186 216 255
186 216 255
186 216 255
186 216 255
186 216 255
186 216 255
186 216 255
186 216 255
186 216 255
186 216 255
186 216 255
186 216 255
186 216 255
186 216 255
186 216 255
186 216 255
186 216 255
186 216 255
186 216 255
186 216 255
186 216 255
186 216 255
186 216 255
186 216 255
186 216 255
186 216 255
186 216 255
186 216 255
186 216 255
186 216 255
186 216 255
186 216 255
186 216 255
186 216 255
186 216 255
186 216 255
186 216 255
186 216 255
186 216 255
186 216 255
186 216 255
186 216 255
186 216 255
186 216 255
186 216 255
186 216 255
186 216 255
186 216 255
186 216 255
186 216 255
186 216 255
186 216 255
186 216 255
186 216 255
186 216 255
186 216 255
186 216 255
186 216 255
186 216 255
186 216 255
186 216 255
186 216 255
186 216 255
186 216 255
186 216 255
186 216 255
186 216 255
186 216 255
186 216 255
186 216 255
186 216 255
186 216 255
186 216 255
186 216 255
186 216 255
186 216 255
186 216 255
186 216 255
186 216 255
186 216 255
186 216 255
186 216 255
186 216 255
186 216 255
186 216 255
186 216 255
186 216 255
186 216 255
186 216 255
186 216 255
186 216 255
186 216 255
186 216 255
186 216 255
186 216 255
186 216 255
186 216 255
186 216 255
186 216 255
186 216 255
186 216 255
186 216 255
186 216 255
186 216 255
186 216 255
186 216 255
186 216 255
186 216 255
186 216 255
186 216 255
186 216 255
186 216 255
186 216 255
186 216 255
186 216 255
186 216 255
186 216 255
186 216 255
186 216 255
186 216 255
186 216 255
186 216 255
186 216 255
186 216 255
186 216 255
186 216 255
186 216 255
186 216 255
186 216 255
186 216 255
186 216 255
186 216 255
186 216 255
186 216 255
186 216 255
186 216 255
186 216 255
186 216 255
186 216 255
186 216 255
186 216 255
186 216 255
186 216 255
186 216 255
186 216 255
186 216 255
186 216 255
186 216 255
186 216 255
186 216 255
186 216 255
186 216 255
186 216 255
186 216 255
186 216 255
186 216 255
186 216 255
186 216 255
186 216 255
186 216 255
186 216 255
186 216 255
186 216 255
186 216 255
186 216 255
186 216 255
186 216 255
186 216 255
186 216 255
186 216 255
186 216 255
186 216 255
186 216 255
186 216 255
186 216 255
186 216 255
186 216 255
186 216 255
186 216 255
186 216 255
186 216 255
186 216 255
186 216 255
186 216 255
186 216 255
186 216 255
186 216 255
186 216 255
186 216 255
186 216 255
186 216 255
186 216 255
186 216 255
186 216 255
186 216 255
186 216 255
186 216 255
186 216 255
186 216 255
186 216 255
186 216 255
186 216 255
186 216 255
186 216 255
186 216 255
186 216 255
186 216 255
186 216 255
186 216 255
186 216 255
186 216 255
186 216 255
186 216 255
186 216 255
186 216 255
186 216 255
186 216 255
186 216 255
186 216 255
186 216 255
186 216 255
186 216 255
186 216 255
186 216 255
186 216 255
186 216 255
186 216 255
186 216 255
186 216 255
186 216 255
186 216 255
186 216 255
186 216 255
186 216 255
186 216 255
186 216 255
186 216 255
186 216 255
186 216 255
186 216 255
186 216 255
186 216 255
186 216 255
186 216 255
186 216 255
186 216 255
186 216 255
186 216 255
186 216 255
186 216 255
186 216 255
186 216 255
186 216 255
186 216 255
186 216 255
186 216 255
186 216 255
186 216 255
186 216 255
186 216 255
186 216 255
186 216 255
186 216 255
186 216 255
186 216 255
186 216 255
186 216 255
186 216 255
186 216 255
186 216 255
186 216 255
186 216 255
186 216 255
186 216 255
186 216 255
186 216 255
186 216 255
186 216 255
186 216 255
186 216 255
186 216 255
186 216 255
186 216 255
186 216 255
186 216 255
186 216 255
186 216 255
186 216 255
186 216 255
186 216 255
186 216 255
186 216 255
186 216 255
186 216 255
186 216 255
186 216 255
186 216 255
186 216 255
186 216 255
186 216 255
186 216 255
186 216 255
186 216 255
186 216 255
186 216 255
186 216 255
186 216 255
186 216 255
186 216 255
186 216 255
186 216 255
186 216 255
186 216 255
186 216 255
186 216 255
186 216 255
186 216 255
186 216 255
186 216 255
186 216 255
186 216 255
186 216 255
186 216 255
186 216 255
186 216 255
186 216 255
186 216 255
186 216 255
186 216 255
186 216 255
186 216 255
186 216 255
186 216 255
186 216 255
186 216 255
186 216 255
186 216 255
186 216 255
186 216 255
186 216 255
186 216 255
186 216 255
186 216 255
186 216 255
186 216 255
186 216 255
186 216 255
186 216 255
186 216 255
186 216 255
186 216 255
186 216 255
186 216 255
186 216 255
186 216 255
186 216 255
186 216 255
186 216 255
186 216 255
186 216 255
186 216 255
186 216 255
186 216 255
186 216 255
186 216 255
186 216 255
186 216 255
186 216 255
186 216 255
186 216 255
186 216 255
186 216 255
186 216 255
186 216 255
186 216 255
186 216 255
186 216 255
186 216 255
186 216 255
186 216 255
186 216 255
186 216 255
186 216 255
186 216 255
186 216 255
186 216 255
186 216 255
186 216 255
186 216 255
186 216 255
186 216 255
186 216 255
186 216 255
186 216 255
186 216 255
186 216 255
186 216 255
186 216 255
186 216 255
186 216 255
186 216 255
186 216 255
186 216 255
186 216 255
186 216 255
186 216 255
186 216 255
186 216 255
186 216 255
186 216 255
186 216 255
186 216 255
186 216 255
186 216 255
186 216 255
186 216 255
186 216 255
186 216 255
186 216 255
186 216 255
186 216 255
186 216 255
186 216 255
186 216 255
186 216 255
186 216 255
186 216 255
186 216 255
186 216 255
186 216 255
186 216 255
186 216 255
186 216 255
186 216 255
186 216 255
186 216 255
186 216 255
186 216 255
186 216 255
186 216 255
186 216 255
186 216 255
186 216 255
186 216 255
186 216 255
186 216 255
186 216 255
186 216 255
186 216 255
186 216 255
186 216 255
186 216 255
186 216 255
186 216 255
186 216 255
186 216 255
186 216 255
186 216 255
186 216 255
186 216 255
186 216 255
186 216 255
186 216 255
186 216 255
186 216 255
186 216 255
186 216 255
186 216 255
186 216 255
186 216 255
186 216 255
186 216 255
186 216 255
186 216 255
186 216 255
186 216 255
186 216 255
186 216 255
186 216 255
186 216 255
186 216 255
186 216 255
186 216 255
186 216 255
186 216 255
186 216 255
186 216 255
186 216 255
186 216 255
186 216 255
186 216 255
186 216 255
186 216 255
186 216 255
186 216 255
186 216 255
186 216 255
186 216 255
186 216 255
186 216 255
186 216 255
186 216 255
186 216 255
186 216 255
186 216 255
186 216 255
186 216 255
186 216 255
186 216 255
186 216 255
186 216 255
186 216 255
186 216 255
186 216 255
186 216 255
186 216 255
186 216 255
186 216 255
186 216 255
186 216 255
186 216 255
186 216 255
186 216 255
186 216 255
186 216 255
186 216 255
186 216 255
186 216 255
186 216 255
186 216 255
186 216 255
186 216 255
186 216 255
186 216 255
186 216 255
186 216 255
186 216 255
186 216 255
186 216 255
186 216 255
186 216 255
186 216 255
186 216 255
186 216 255
186 216 255
186 216 255
186 216 255
186 216 255
186 216 255
186 216 255
186 216 255
186 216 255
186 216 255
186 216 255
186 216 255
186 216 255
186 216 255
186 216 255
186 216 255
186 216 255
186 216 255
186 216 255
186 217 255
186 216 255
186 216 255
186 216 255
186 216 255
186 216 255
186 216 255
186 216 255
186 216 255
186 216 255
186 216 255
186 216 255
186 216 255
186 216 255
186 216 255
186 216 255
186 216 255
186 216 255
186 216 255
186 216 255
186 216 255
186 216 255
186 216 255
186 216 255
186 216 255
186 216 255
186 216 255
186 216 255
186 216 255
186 216 255
186 216 255
186 216 255
186 216 255
186 216 255
186 216 255
186 216 255
186 216 255
186 216 255
186 216 255
186 216 255
186 216 255
186 216 255
186 216 255
186 216 255
186 216 255
186 216 255
186 216 255
186 216 255
186 216 255
186 216 255
186 216 255
186 216 255
186 216 255
186 216 255
186 216 255
186 216 255
186 216 255
186 216 255
186 216 255
186 216 255
186 216 255
186 216 255
186 216 255
186 216 255
186 216 255
186 216 255
186 216 255
186 216 255
186 217 255
186 216 255
186 216 255
186 216 255
186 217 255
186 216 255
186 216 255
186 216 255
186 216 255
186 216 255
186 216 255
186 216 255
186 216 255
186 216 255
186 216 255
186 216 255
186 216 255
186 216 255
186 216 255
186 216 255
186 216 255
186 216 255
186 216 255
186 216 255
186 216 255
186 216 255
186 216 255
186 216 255
186 216 255
186 216 255
186 216 255
186 216 255
186 216 255
186 216 255
186 216 255
186 216 255
186 216 255
186 216 255
186 216 255
186 216 255
186 216 255
186 216 255
186 216 255
186 216 255
186 216 255
186 216 255
186 216 255
186 216 255
186 216 255
186 216 255
186 216 255
186 216 255
186 216 255
186 216 255
186 216 255
186 216 255
186 216 255
186 217 255
186 216 255
186 216 255
186 216 255
186 216 255
186 216 255
186 216 255
186 216 255
186 216 255
186 216 255
186 216 255
186 216 255
186 216 255
186 216 255
186 216 255
186 216 255
186 217 255
186 216 255
186 216 255
186 217 255
186 216 255
186 216 255
186 216 255
186 217 255
186 216 255
186 216 255
186 216 255
186 216 255
186 216 255
186 216 255
186 216 255
186 216 255
186 216 255
186 216 255
186 216 255
186 216 255
186 216 255
186 216 255
186 216 255
186 216 255
186 216 255
186 216 255
186 216 255
186 216 255
186 216 255
186 216 255
186 216 255
186 216 255
186 216 255
186 216 255
186 216 255
186 216 255
186 216 255
186 216 255
186 216 255
186 216 255
186 216 255
186 216 255
186 216 255
186 216 255
186 216 255
186 216 255
186 216 255
186 216 255
186 217 255
186 216 255
186 216 255
186 216 255
186 216 255
186 216 255
186 216 255
186 216 255
186 216 255
186 216 255
186 216 255
186 216 255
186 216 255
186 216 255
186 216 255
186 216 255
186 216 255
186 216 255
186 216 255
186 216 255
186 216 255
186 216 255
186 216 255
186 216 255
186 216 255
186 216 255
186 216 255
186 216 255
186 216 255
186 216 255
186 216 255
186 216 255
186 216 255
186 216 255
186 216 255
186 216 255
186 216 255
186 216 255
186 216 255
186 216 255
186 216 255
186 216 255
186 216 255
186 216 255
186 216 255
186 216 255
186 216 255
186 216 255
186 217 255
186 216 255
186 216 255
186 216 255
186 216 255
186 217 255
186 216 255
186 216 255
186 216 255
186 216 255
186 216 255
186 216 255
186 216 255
186 216 255
186 216 255
186 216 255
186 216 255
186 216 255
186 216 255
186 216 255
186 216 255
186 216 255
186 216 255
186 216 255
186 216 255
186 216 255
186 216 255
186 216 255
186 216 255
186 216 255
186 216 255
186 216 255
186 216 255
186 216 255
186 216 255
186 217 255
186 216 255
186 216 255
186 216 255
186 216 255
186 216 255
186 216 255
186 216 255
186 216 255
186 216 255
186 216 255
186 216 255
186 216 255
186 216 255
186 216 255
186 216 255
186 216 255
186 216 255
186 216 255
186 216 255
186 216 255
186 216 255
186 216 255
186 216 255
186 216 255
186 216 255
186 216 255
186 216 255
186 216 255
186 216 255
186 216 255
186 216 255
186 216 255
186 216 255
186 216 255
186 216 255
186 216 255
186 216 255
186 216 255
186 216 255
186 216 255
186 216 255
186 216 255
186 216 255
186 216 255
186 216 255
186 216 255
186 216 255
186 216 255
186 216 255
186 216 255
186 216 255
186 216 255
186 216 255
186 216 255
186 216 255
186 216 255
186 216 255
186 216 255
186 216 255
186 216 255
186 216 255
186 216 255
186 216 255
186 216 255
186 216 255
186 216 255
186 216 255
186 216 255
186 216 255
186 216 255
186 216 255
186 216 255
186 216 255
186 216 255
186 216 255
186 216 255
186 216 255
186 216 255
186 216 255
186 216 255
186 216 255
186 216 255
186 216 255
186 216 255
186 216 255
186 216 255
186 216 255
186 216 255
186 216 255
186 216 255
186 216 255
186 216 255
186 216 255
186 216 255
186 216 255
186 216 255
186 216 255
186 216 255
187 217 255
187 217 255
187 217 255
187 217 255
187 217 255
187 217 255
187 217 255
187 217 255
187 217 255
187 217 255
187 217 255
187 217 255
187 217 255
187 217 255
187 217 255
187 217 255
187 217 255
187 217 255
187 217 255
187 217 255
187 217 255
187 217 255
187 217 255
187 217 255
187 217 255
187 217 255
187 217 255
187 217 255
187 217 255
187 217 255
187 217 255
187 217 255
187 217 255
187 217 255
187 217 255
187 217 255
187 217 255
187 217 255
187 217 255
187 217 255
187 217 255
187 217 255
187 217 255
187 217 255
187 217 255
187 217 255
187 217 255
187 217 255
187 217 255
187 217 255
187 217 255
187 217 255
187 217 255
187 217 255
187 217 255
187 217 255
187 217 255
187 217 255
187 217 255
187 217 255
187 217 255
187 217 255
187 217 255
187 217 255
187 217 255
187 217 255
187 217 255
187 217 255
187 217 255
187 217 255
187 217 255
187 217 255
187 217 255
187 217 255
187 217 255
187 217 255
187 217 255
187 217 255
187 217 255
187 217 255
187 217 255
187 217 255
187 217 255
187 217 255
187 217 255
187 217 255
187 217 255
187 217 255
187 217 255
187 217 255
187 217 255
187 217 255
187 217 255
187 217 255
187 217 255
187 217 255
187 217 255
187 217 255
187 217 255
187 217 255
187 217 255
187 217 255
187 217 255
187 217 255
187 217 255
187 217 255
187 217 255
187 217 255
187 217 255
187 217 255
187 217 255
187 217 255
187 217 255
187 217 255
187 217 255
187 217 255
187 217 255
187 217 255
187 217 255
187 217 255
187 217 255
187 217 255
187 217 255
187 217 255
187 217 255
187 217 255
187 217 255
187 217 255
187 217 255
187 217 255
187 217 255
187 217 255
187 217 255
187 217 255
187 217 255
187 217 255
187 217 255
187 217 255
187 217 255
187 217 255
187 217 255
187 217 255
187 217 255
187 217 255
187 217 255
187 217 255
187 217 255
187 217 255
187 217 255
187 217 255
187 217 255
187 217 255
187 217 255
187 217 255
187 217 255
187 217 255
187 217 255
187 217 255
187 217 255
187 217 255
187 217 255
187 217 255
187 217 255
187 217 255
187 217 255
187 217 255
187 217 255
187 217 255
187 217 255
187 217 255
187 217 255
187 217 255
187 217 255
187 217 255
187 217 255
187 217 255
187 217 255
187 217 255
187 217 255
187 217 255
187 217 255
187 217 255
187 217 255
187 217 255
187 217 255
187 217 255
187 217 255
187 217 255
187 217 255
187 217 255
187 217 255
187 217 255
187 217 255
187 217 255
187 217 255
187 217 255
187 217 255
187 217 255
187 217 255
187 217 255
187 217 255
187 217 255
187 217 255
187 217 255
187 217 255
187 217 255
187 217 255
187 217 255
187 217 255
187 217 255
187 217 255
187 217 255
187 217 255
187 217 255
187 217 255
187 217 255
187 217 255
187 217 255
187 217 255
187 217 255
187 217 255
187 217 255
187 217 255
187 217 255
187 217 255
187 217 255
187 217 255
187 217 255
187 217 255
187 217 255
187 217 255
187 217 255
187 217 255
187 217 255
187 217 255
187 217 255
187 217 255
187 217 255
187 217 255
187 217 255
187 217 255
187 217 255
187 217 255
187 217 255
187 217 255
187 217 255
187 217 255
187 217 255
187 217 255
187 217 255
187 217 255
187 217 255
187 217 255
187 217 255
187 217 255
187 217 255
187 217 255
187 217 255
187 217 255
187 217 255
187 217 255
187 217 255
187 217 255
187 217 255
187 217 255
187 217 255
187 217 255
187 217 255
187 217 255
187 217 255
187 217 255
187 217 255
187 217 255
187 217 255
187 217 255
187 217 255
187 217 255
187 217 255
187 217 255
187 217 255
187 217 255
187 217 255
187 217 255
187 217 255
187 217 255
187 217 255
187 217 255
187 217 255
187 217 255
187 217 255
187 217 255
187 217 255
187 217 255
187 217 255
187 217 255
187 217 255
187 217 255
187 217 255
187 217 255
187 217 255
187 217 255
187 217 255
187 217 255
187 217 255
187 217 255
187 217 255
187 217 255
187 217 255
187 217 255
187 217 255
187 217 255
187 217 255
187 217 255
187 217 255
187 217 255
187 217 255
187 217 255
187 217 255
187 217 255
187 217 255
187 217 255
187 217 255
187 217 255
187 217 255
187 217 255
187 217 255
187 217 255
187 217 255
187 217 255
187 217 255
187 217 255
187 217 255
187 217 255
187 217 255
187 217 255
187 217 255
187 217 255
187 217 255
187 217 255
187 217 255
187 217 255
187 217 255
187 217 255
187 217 255
187 217 255
187 217 255
187 217 255
187 217 255
187 217 255
187 217 255
187 217 255
187 217 255
187 217 255
187 217 255
187 217 255
187 217 255
187 217 255
187 217 255
187 217 255
187 217 255
187 217 255
187 217 255
187 217 255
187 217 255
187 217 255
187 217 255
187 217 255
187 217 255
187 217 255
187 217 255
187 217 255
187 217 255
187 217 255
187 217 255
187 217 255
187 217 255
187 217 255
187 217 255
187 217 255
187 217 255
187 217 255
187 217 255
187 217 255
187 217 255
187 217 255
187 217 255
187 217 255
187 217 255
187 217 255
187 217 255
187 217 255
187 217 255
187 217 255
187 217 255
187 217 255
187 217 255
187 217 255
187 217 255
187 217 255
187 217 255
187 217 255
187 217 255
187 217 255
187 217 255
187 217 255
187 217 255
187 217 255
187 217 255
187 217 255
187 217 255
187 217 255
187 217 255
187 217 255
187 217 255
187 217 255
187 217 255
187 217 255
187 217 255
187 217 255
187 217 255
187 217 255
187 217 255
187 217 255
187 217 255
187 217 255
187 217 255
187 217 255
187 217 255
187 217 255
187 217 255
187 217 255
187 217 255
187 217 255
187 217 255
187 217 255
187 217 255
187 217 255
187 217 255
187 217 255
187 217 255
187 217 255
187 217 255
187 217 255
187 217 255
187 217 255
187 217 255
187 217 255
187 217 255
187 217 255
187 217 255
187 217 255
187 217 255
187 217 255
187 217 255
187 217 255
187 217 255
187 217 255
187 217 255
187 217 255
187 217 255
187 217 255
187 217 255
187 217 255
187 217 255
187 217 255
187 217 255
187 217 255
187 217 255
187 217 255
187 217 255
187 217 255
187 217 255
187 217 255
187 217 255
187 217 255
187 217 255
187 217 255
187 217 255
187 217 255
187 217 255
187 217 255
187 217 255
187 217 255
187 217 255
187 217 255
187 217 255
187 217 255
187 217 255
187 217 255
187 217 255
187 217 255
187 217 255
187 217 255
187 217 255
187 217 255
187 217 255
187 217 255
187 217 255
187 217 255
187 217 255
187 217 255
187 217 255
187 217 255
187 217 255
187 217 255
187 217 255
187 217 255
187 217 255
187 217 255
187 217 255
187 217 255
187 217 255
187 217 255
187 217 255
187 217 255
187 217 255
187 217 255
187 217 255
187 217 255
187 217 255
187 217 255
187 217 255
187 217 255
187 217 255
187 217 255
187 217 255
187 217 255
187 217 255
187 217 255
187 217 255
187 217 255
187 217 255
187 217 255
187 217 255
187 217 255
187 217 255
187 217 255
187 217 255
187 217 255
187 217 255
187 217 255
187 217 255
187 217 255
187 217 255
187 217 255
187 217 255
187 217 255
187 217 255
187 217 255
187 217 255
187 217 255
187 217 255
187 217 255
187 217 255
187 217 255
187 217 255
187 217 255
187 217 255
187 217 255
187 217 255
187 217 255
187 217 255
187 217 255
187 217 255
187 217 255
187 217 255
187 217 255
187 217 255
187 217 255
187 217 255
187 217 255
187 217 255
187 217 255
187 217 255
187 217 255
187 217 255
187 217 255
187 217 255
187 217 255
187 217 255
187 217 255
187 217 255
187 217 255
187 217 255
187 217 255
187 217 255
187 217 255
187 217 255
187 217 255
187 217 255
187 217 255
187 217 255
187 217 255
187 217 255
187 217 255
187 217 255
187 217 255
187 217 255
187 217 255
187 217 255
187 217 255
187 217 255
187 217 255
187 217 255
187 217 255
187 217 255
187 217 255
187 217 255
187 217 255
187 217 255
187 217 255
187 217 255
187 217 255
187 217 255
187 217 255
187 217 255
187 217 255
187 217 255
187 217 255
187 217 255
187 217 255
187 217 255
187 217 255
187 217 255
187 217 255
187 217 255
187 217 255
187 217 255
187 217 255
187 217 255
187 217 255
187 217 255
187 217 255
187 217 255
187 217 255
187 217 255
187 217 255
187 217 255
187 217 255
187 217 255
187 217 255
187 217 255
187 217 255
187 217 255
187 217 255
187 217 255
187 217 255
187 217 255
187 217 255
187 217 255
187 217 255
187 217 255
187 217 255
187 217 255
187 217 255
187 217 255
187 217 255
187 217 255
187 217 255
187 217 255
187 217 255
187 217 255
187 217 255
187 217 255
187 217 255
187 217 255
187 217 255
187 217 255
187 217 255
187 217 255
187 217 255
187 217 255
187 217 255
187 217 255
187 217 255
187 217 255
187 217 255
187 217 255
187 217 255
187 217 255
187 217 255
187 217 255
187 217 255
187 217 255
187 217 255
187 217 255
187 217 255
187 217 255
187 217 255
187 217 255
187 217 255
187 217 255
187 217 255
187 217 255
187 217 255
187 217 255
187 217 255
187 217 255
187 217 255
187 217 255
187 217 255
187 217 255
187 217 255
187 217 255
187 217 255
187 217 255
187 217 255
187 217 255
187 217 255
187 217 255
187 217 255
187 217 255
187 217 255
187 217 255
187 217 255
187 217 255
187 217 255
187 217 255
187 217 255
187 217 255
187 217 255
187 217 255
187 217 255
187 217 255
187 217 255
187 217 255
187 217 255
187 217 255
187 217 255
187 217 255
187 217 255
187 217 255
187 217 255
187 217 255
187 217 255
187 217 255
187 217 255
187 217 255
187 217 255
187 217 255
187 217 255
187 217 255
187 217 255
187 217 255
187 217 255
187 217 255
187 217 255
187 217 255
187 217 255
187 217 255
187 217 255
187 217 255
187 217 255
187 217 255
187 217 255
187 217 255
187 217 255
187 217 255
187 217 255
187 217 255
187 217 255
187 217 255
187 217 255
187 217 255
187 217 255
187 217 255
187 217 255
187 217 255
187 217 255
187 217 255
187 217 255
187 217 255
187 217 255
187 217 255
187 217 255
187 217 255
187 217 255
187 217 255
187 217 255
187 217 255
187 217 255
187 217 255
187 217 255
187 217 255
187 217 255
187 217 255
187 217 255
187 217 255
187 217 255
187 217 255
187 217 255
187 217 255
187 217 255
187 217 255
187 217 255
187 217 255
187 217 255
187 217 255
187 217 255
187 217 255
188 217 255
188 217 255
188 217 255
188 217 255
188 217 255
188 217 255
188 217 255
188 217 255
188 217 255
188 217 255
188 217 255
188 217 255
188 217 255
188 217 255
188 217 255
188 217 255
188 217 255
188 217 255
188 217 255
188 217 255
188 217 255
188 217 255
188 217 255
188 217 255
188 217 255
188 217 255
188 217 255
188 217 255
188 217 255
188 217 255
188 217 255
188 217 255
188 217 255
188 217 255
188 217 255
188 217 255
188 217 255
188 217 255
188 217 255
188 217 255
188 217 255
188 217 255
188 217 255
188 217 255
188 217 255
188 217 255
188 217 255
188 217 255
188 217 255
188 217 255
188 217 255
188 217 255
188 217 255
188 217 255
188 217 255
188 217 255
188 217 255
188 217 255
188 217 255
188 217 255
188 217 255
188 217 255
188 217 255
188 217 255
188 217 255
188 217 255
188 217 255
188 217 255
188 217 255
188 217 255
188 217 255
188 217 255
188 217 255
188 217 255
188 217 255
188 217 255
188 217 255
188 217 255
188 217 255
188 217 255
188 217 255
188 217 255
188 217 255
188 217 255
188 217 255
188 217 255
188 217 255
188 217 255
188 217 255
188 217 255
188 217 255
188 217 255
188 217 255
188 217 255
188 217 255
188 217 255
188 217 255
188 217 255
188 217 255
188 217 255
188 217 255
188 217 255
188 217 255
188 217 255
188 217 255
188 217 255
188 217 255
188 217 255
188 217 255
188 217 255
188 217 255
188 217 255
188 217 255
188 217 255
188 217 255
188 217 255
188 217 255
188 217 255
188 217 255
188 217 255
188 217 255
188 217 255
188 217 255
188 217 255
188 217 255
188 217 255
188 217 255
188 217 255
188 217 255
188 217 255
188 217 255
188 217 255
188 217 255
188 217 255
188 217 255
188 217 255
188 217 255
188 217 255
188 217 255
188 217 255
188 217 255
188 217 255
188 217 255
188 217 255
188 217 255
188 217 255
188 217 255
188 217 255
188 217 255
188 217 255
188 217 255
188 217 255
188 217 255
188 217 255
188 217 255
188 217 255
188 217 255
188 217 255
188 217 255
188 217 255
188 217 255
188 217 255
188 217 255
188 217 255
188 217 255
188 217 255
188 217 255
188 217 255
188 217 255
188 217 255
188 217 255
188 217 255
188 217 255
188 217 255
188 217 255
188 217 255
188 217 255
188 217 255
188 217 255
188 217 255
188 217 255
188 217 255
188 217 255
188 217 255
188 217 255
188 217 255
188 217 255
188 217 255
188 217 255
188 217 255
188 217 255
188 217 255
188 217 255
188 217 255
188 217 255
188 217 255
188 217 255
188 217 255
188 217 255
188 217 255
188 217 255
188 217 255
188 217 255
188 217 255
188 217 255
188 217 255
188 217 255
188 217 255
188 217 255
188 217 255
188 217 255
188 217 255
188 217 255
188 217 255
188 217 255
188 217 255
188 217 255
188 217 255
188 217 255
188 217 255
188 217 255
188 217 255
188 217 255
188 217 255
188 217 255
188 217 255
188 217 255
188 217 255
188 217 255
188 217 255
188 217 255
188 217 255
188 217 255
188 217 255
188 217 255
188 217 255
188 217 255
188 217 255
188 217 255
188 217 255
188 217 255
188 217 255
188 217 255
188 217 255
188 217 255
188 217 255
188 217 255
188 217 255
188 217 255
188 217 255
188 217 255
188 217 255
188 217 255
188 217 255
188 217 255
188 217 255
188 217 255
188 217 255
188 217 255
188 217 255
188 217 255
188 217 255
188 217 255
188 217 255
188 217 255
188 217 255
188 217 255
188 217 255
188 217 255
188 217 255
188 217 255
188 217 255
188 217 255
188 217 255
188 217 255
188 217 255
188 217 255
188 217 255
188 217 255
188 217 255
188 217 255
188 217 255
188 217 255
188 217 255
188 217 255
188 217 255
188 217 255
188 217 255
188 217 255
188 217 255
188 217 255
188 217 255
188 217 255
188 217 255
188 217 255
188 217 255
188 217 255
188 217 255
188 217 255
188 217 255
188 217 255
188 217 255
188 217 255
188 217 255
188 217 255
188 217 255
188 217 255
188 217 255
188 217 255
188 217 255
188 217 255
188 217 255
188 217 255
188 217 255
188 217 255
188 217 255
188 217 255
188 217 255
188 217 255
188 217 255
188 217 255
188 217 255
188 217 255
188 217 255
188 217 255
188 217 255
188 217 255
188 217 255
188 217 255
188 217 255
188 217 255
188 217 255
188 217 255
188 217 255
188 217 255
188 217 255
188 217 255
188 217 255
188 217 255
188 217 255
188 217 255
188 217 255
188 217 255
188 217 255
188 217 255
188 217 255
188 217 255
188 217 255
188 217 255
188 217 255
188 217 255
188 217 255
188 217 255
188 217 255
188 217 255
188 217 255
188 217 255
188 217 255
188 217 255
188 217 255
188 217 255
188 217 255
188 217 255
188 217 255
188 217 255
188 217 255
188 217 255
188 217 255
188 217 255
188 217 255
188 217 255
188 217 255
188 217 255
188 217 255
188 217 255
188 217 255
188 217 255
188 217 255
188 217 255
188 217 255
188 217 255
188 217 255
188 217 255
188 217 255
188 217 255
188 217 255
188 217 255
188 217 255
188 217 255
188 217 255
188 217 255
188 217 255
188 217 255
188 217 255
188 217 255
188 217 255
188 217 255
188 217 255
188 217 255
188 217 255
188 217 255
188 217 255
188 217 255
188 217 255
188 217 255
188 217 255
188 217 255
188 217 255
188 217 255
188 217 255
188 217 255
188 217 255
188 217 255
188 217 255
188 217 255
188 217 255
188 217 255
188 217 255
188 217 255
188 217 255
188 217 255
188 217 255
188 217 255
188 217 255
188 217 255
188 217 255
188 217 255
188 217 255
188 217 255
188 217 255
188 217 255
188 217 255
188 217 255
188 217 255
188 217 255
188 217 255
188 217 255
188 217 255
188 217 255
188 217 255
188 217 255
188 217 255
188 217 255
188 217 255
188 217 255
188 217 255
188 217 255
188 217 255
188 217 255
188 217 255
188 217 255
188 217 255
188 217 255
188 217 255
188 217 255
188 217 255
188 217 255
188 217 255
188 217 255
188 217 255
188 217 255
188 217 255
188 217 255
188 217 255
188 217 255
188 217 255
188 217 255
188 217 255
188 217 255
188 217 255
188 217 255
188 217 255
188 217 255
188 217 255
188 217 255
188 217 255
188 217 255
188 217 255
188 217 255
188 217 255
188 217 255
188 217 255
188 217 255
188 217 255
188 217 255
188 217 255
188 217 255
188 217 255
188 217 255
188 217 255
188 217 255
188 217 255
188 217 255
188 217 255
188 217 255
188 217 255
188 217 255
188 217 255
188 217 255
188 217 255
188 217 255
188 217 255
188 217 255
188 217 255
188 217 255
188 217 255
188 217 255
188 217 255
188 217 255
188 217 255
188 217 255
188 217 255
188 217 255
188 217 255
188 217 255
188 217 255
188 217 255
188 217 255
188 217 255
188 217 255
188 217 255
188 217 255
188 217 255
188 217 255
188 217 255
188 217 255
188 217 255
188 217 255
188 217 255
188 217 255
188 217 255
188 217 255
188 217 255
188 217 255
188 217 255
188 217 255
188 217 255
188 217 255
188 217 255
188 217 255
188 217 255
188 217 255
188 217 255
188 217 255
188 217 255
188 217 255
188 217 255
188 217 255
188 217 255
188 217 255
188 217 255
188 217 255
188 217 255
188 217 255
188 217 255
188 217 255
188 217 255
188 217 255
188 217 255
188 217 255
188 217 255
188 217 255
188 217 255
188 217 255
188 217 255
188 217 255
188 217 255
188 217 255
188 217 255
188 217 255
188 217 255
188 217 255
188 217 255
188 217 255
188 217 255
188 217 255
188 217 255
188 217 255
188 217 255
188 217 255
188 217 255
188 217 255
188 217 255
188 217 255
188 217 255
188 217 255
188 217 255
188 217 255
188 217 255
188 217 255
188 217 255
188 217 255
188 217 255
188 217 255
188 217 255
188 217 255
188 217 255
188 217 255
188 217 255
188 217 255
188 217 255
188 217 255
188 217 255
188 217 255
188 217 255
188 217 255
188 217 255
188 217 255
188 217 255
188 217 255
188 217 255
188 217 255
188 217 255
188 217 255
188 217 255
188 217 255
188 217 255
188 217 255
188 217 255
188 217 255
188 217 255
188 217 255
188 217 255
188 217 255
188 217 255
188 217 255
188 217 255
188 217 255
188 217 255
188 217 255
188 217 255
188 217 255
188 217 255
188 217 255
188 217 255
188 217 255
188 217 255
188 217 255
188 217 255
188 217 255
188 217 255
188 217 255
188 217 255
188 217 255
188 217 255
188 217 255
188 217 255
188 217 255
188 217 255
188 217 255
188 217 255
188 217 255
188 217 255
188 217 255
188 217 255
188 217 255
188 217 255
188 217 255
188 217 255
188 217 255
188 217 255
188 217 255
188 217 255
188 217 255
188 217 255
188 217 255
188 217 255
188 217 255
188 217 255
188 217 255
188 217 255
188 217 255
188 217 255
188 217 255
188 217 255
188 217 255
188 217 255
188 217 255
188 217 255
188 217 255
188 217 255
188 217 255
188 217 255
188 217 255
188 217 255
188 217 255
188 217 255
188 217 255
188 217 255
188 217 255
188 217 255
188 217 255
188 217 255
188 217 255
188 217 255
188 217 255
188 217 255
188 217 255
188 217 255
188 217 255
188 217 255
188 217 255
188 217 255
188 217 255
188 217 255
188 217 255
188 217 255
188 217 255
188 217 255
188 217 255
188 217 255
188 217 255
188 217 255
188 217 255
188 217 255
188 217 255
188 217 255
188 217 255
188 217 255
188 217 255
188 217 255
188 217 255
188 217 255
188 217 255
188 217 255
188 217 255
188 217 255
188 217 255
188 217 255
188 217 255
188 217 255
188 217 255
188 217 255
188 217 255
188 217 255
188 217 255
188 217 255
188 217 255
188 217 255
188 217 255
188 217 255
188 217 255
188 217 255
188 217 255
188 217 255
188 217 255
188 217 255
188 217 255
188 217 255
188 217 255
188 217 255
188 217 255
188 217 255
188 217 255
188 217 255
188 217 255
188 217 255
188 217 255
188 217 255
188 217 255
188 217 255
188 217 255
188 217 255
188 217 255
188 217 255
188 217 255
188 217 255
188 217 255
188 217 255
188 217 255
188 217 255
188 217 255
188 217 255
188 217 255
188 217 255
188 217 255
188 217 255
188 217 255
188 217 255
188 217 255
188 217 255
188 217 255
188 217 255
188 217 255
188 217 255
188 217 255
188 217 255
188 217 255
188 217 255
188 217 255
188 217 255
188 217 255
188 217 255
188 217 255
188 217 255
188 217 255
188 217 255
188 217 255
188 217 255
188 217 255
188 218 255
188 217 255
188 217 255
188 217 255
188 217 255
188 217 255
188 217 255
188 218 255
188 218 255
188 217 255
188 217 255
188 217 255
188 217 255
188 217 255
188 217 255
188 217 255
188 217 255
188 217 255
188 217 255
188 217 255
188 217 255
188 217 255
188 217 255
188 217 255
188 217 255
188 217 255
188 218 255
188 217 255
188 217 255
188 217 255
188 218 255
188 217 255
188 217 255
188 217 255
188 218 255
188 217 255
188 217 255
188 217 255
188 218 255
188 217 255
188 217 255
188 217 255
188 217 255
188 217 255
188 217 255
188 217 255
188 217 255
188 217 255
188 217 255
188 217 255
188 217 255
188 218 255
188 217 255
188 217 255
188 217 255
188 217 255
188 218 255
188 217 255
188 217 255
188 217 255
188 217 255
188 217 255
188 217 255
188 217 255
188 218 255
188 217 255
188 217 255
188 218 255
188 217 255
188 218 255
188 217 255
188 217 255
188 218 255
188 217 255
188 217 255
188 217 255
188 217 255
188 217 255
188 217 255
188 218 255
188 217 255
188 217 255
188 217 255
188 217 255
188 217 255
188 217 255
188 217 255
188 218 255
188 217 255
188 217 255
188 217 255
188 217 255
188 217 255
188 218 255
188 217 255
188 217 255
188 217 255
188 217 255
188 217 255
188 217 255
188 217 255
188 217 255
188 217 255
188 217 255
188 217 255
188 217 255
188 217 255
188 217 255
188 217 255
188 217 255
188 217 255
188 217 255
188 217 255
188 217 255
188 217 255
188 217 255
188 217 255
188 217 255
188 217 255
188 217 255
188 217 255
188 217 255
188 217 255
188 217 255
188 217 255
188 217 255
188 217 255
188 217 255
188 217 255
188 217 255
188 217 255
188 217 255
188 217 255
188 217 255
188 217 255
188 217 255
188 217 255
188 217 255
188 217 255
188 217 255
188 217 255
188 217 255
188 217 255
188 217 255
188 217 255
188 217 255
188 217 255
188 217 255
188 217 255
188 217 255
188 217 255
188 217 255
188 217 255
188 217 255
188 217 255
188 217 255
188 217 255
188 217 255
188 218 255
188 217 255
188 217 255
188 217 255
188 217 255
188 217 255
188 217 255
188 217 255
188 217 255
188 217 255
188 217 255
188 217 255
188 217 255
188 218 255
188 217 255
188 217 255
188 218 255
188 217 255
188 217 255
188 217 255
188 217 255
188 217 255
188 217 255
188 217 255
188 217 255
188 218 255
188 217 255
188 218 255
188 217 255
188 217 255
188 217 255
188 217 255
188 217 255
188 217 255
188 217 255
188 217 255
188 217 255
188 217 255
188 217 255
188 217 255
188 217 255
188 217 255
188 217 255
188 217 255
188 217 255
188 218 255
188 217 255
188 217 255
188 217 255
188 217 255
188 217 255
188 217 255
188 217 255
188 217 255
188 218 255
188 217 255
188 217 255
188 217 255
188 217 255
188 217 255
188 218 255
188 218 255
188 217 255
188 217 255
188 217 255
188 218 255
188 218 255
188 217 255
188 218 255
188 217 255
188 217 255
188 217 255
188 218 255
188 217 255
188 217 255
188 217 255
188 217 255
188 217 255
188 217 255
188 217 255
188 217 255
188 217 255
188 217 255
188 217 255
188 217 255
188 217 255
188 217 255
188 217 255
188 217 255
188 217 255
188 217 255
188 217 255
188 217 255
188 218 255
188 217 255
188 218 255
188 217 255
188 218 255
188 217 255
188 217 255
188 217 255
188 217 255
188 217 255
188 217 255
188 217 255
188 217 255
188 217 255
188 217 255
188 217 255
188 217 255
188 217 255
188 218 255
188 217 255
188 217 255
188 217 255
188 217 255
188 217 255
188 217 255
188 217 255
188 217 255
188 218 255
188 217 255
188 218 255
188 217 255
188 218 255
188 217 255
188 217 255
188 217 255
188 217 255
188 217 255
188 217 255
188 217 255
188 217 255
188 218 255
188 217 255
188 217 255
188 217 255
188 217 255
188 217 255
188 217 255
188 217 255
188 217 255
188 218 255
188 217 255
188 217 255
188 217 255
188 217 255
188 217 255
188 217 255
188 217 255
188 217 255
188 217 255
188 217 255
188 217 255
188 217 255
188 218 255
188 218 255
188 217 255
188 217 255
188 217 255
188 217 255
188 217 255
188 217 255
188 217 255
188 217 255
188 217 255
188 217 255
188 217 255
188 217 255
188 217 255
188 217 255
188 217 255
188 217 255
188 217 255
188 217 255
188 217 255
188 217 255
188 217 255
188 217 255
188 218 255
188 217 255
188 217 255
188 218 255
188 218 255
188 217 255
188 217 255
188 217 255
188 218 255
188 217 255
188 217 255
188 217 255
188 217 255
188 217 255
188 217 255
188 217 255
188 217 255
188 217 255
188 217 255
188 217 255
188 217 255
188 217 255
188 217 255
188 217 255
188 217 255
188 217 255
188 217 255
188 217 255
188 218 255
188 217 255
188 217 255
188 217 255
188 217 255
188 217 255
188 217 255
188 217 255
188 217 255
188 217 255
188 217 255
188 217 255
188 217 255
188 218 255
188 217 255
188 217 255
188 217 255
188 217 255
188 217 255
188 217 255
188 217 255
188 217 255
188 217 255
188 217 255
188 217 255
188 217 255
188 217 255
188 217 255
188 217 255
188 217 255
188 217 255
188 217 255
188 217 255
188 217 255
188 217 255
189 218 255
189 218 255
189 218 255
189 218 255
189 218 255
189 218 255
189 218 255
189 218 255
189 218 255
189 218 255
189 218 255
189 218 255
189 218 255
189 218 255
189 218 255
189 218 255
189 218 255
189 218 255
189 218 255
189 218 255
189 218 255
189 218 255
189 218 255
189 218 255
189 218 255
189 218 255
189 218 255
189 218 255
189 218 255
189 218 255
189 218 255
189 218 255
189 218 255
189 218 255
189 218 255
189 218 255
189 218 255
189 218 255
189 218 255
189 218 255
189 218 255
189 218 255
189 218 255
189 218 255
189 218 255
189 218 255
189 218 255
189 218 255
189 218 255
189 218 255
189 218 255
189 218 255
189 218 255
189 218 255
189 218 255
189 218 255
189 218 255
189 218 255
189 218 255
189 218 255
189 218 255
189 218 255
189 218 255
189 218 255
189 218 255
189 218 255
189 218 255
189 218 255
189 218 255
189 218 255
189 218 255
189 218 255
189 218 255
189 218 255
189 218 255
189 218 255
189 218 255
189 218 255
189 218 255
189 218 255
189 218 255
189 218 255
189 218 255
189 218 255
189 218 255
189 218 255
189 218 255
189 218 255
189 218 255
189 218 255
189 218 255
189 218 255
189 218 255
189 218 255
189 218 255
189 218 255
189 218 255
189 218 255
189 218 255
189 218 255
189 218 255
189 218 255
189 218 255
189 218 255
189 218 255
189 218 255
189 218 255
189 218 255
189 218 255
189 218 255
189 218 255
189 218 255
189 218 255
189 218 255
189 218 255
189 218 255
189 218 255
189 218 255
189 218 255
189 218 255
189 218 255
189 218 255
189 218 255
189 218 255
189 218 255
189 218 255
189 218 255
189 218 255
189 218 255
189 218 255
189 218 255
189 218 255
189 218 255
189 218 255
189 218 255
189 218 255
189 218 255
189 218 255
189 218 255
189 218 255
189 218 255
189 218 255
189 218 255
189 218 255
189 218 255
189 218 255
189 218 255
189 218 255
189 218 255
189 218 255
189 218 255
189 218 255
189 218 255
189 218 255
189 218 255
189 218 255
189 218 255
189 218 255
189 218 255
189 218 255
189 218 255
189 218 255
189 218 255
189 218 255
189 218 255
189 218 255
189 218 255
189 218 255
189 218 255
189 218 255
189 218 255
189 218 255
189 218 255
189 218 255
189 218 255
189 218 255
189 218 255
189 218 255
189 218 255
189 218 255
189 218 255
189 218 255
189 218 255
189 218 255
189 218 255
189 218 255
189 218 255
189 218 255
189 218 255
189 218 255
189 218 255
189 218 255
189 218 255
189 218 255
189 218 255
189 218 255
189 218 255
189 218 255
189 218 255
189 218 255
189 218 255
189 218 255
189 218 255
189 218 255
189 218 255
189 218 255
189 218 255
189 218 255
189 218 255
189 218 255
189 218 255
189 218 255
189 218 255
189 218 255
189 218 255
189 218 255
189 218 255
189 218 255
189 218 255
189 218 255
189 218 255
189 218 255
189 218 255
189 218 255
189 218 255
189 218 255
189 218 255
189 218 255
189 218 255
189 218 255
189 218 255
189 218 255
189 218 255
189 218 255
189 218 255
189 218 255
189 218 255
189 218 255
189 218 255
189 218 255
189 218 255
189 218 255
189 218 255
189 218 255
189 218 255
189 218 255
189 218 255
189 218 255
189 218 255
189 218 255
189 218 255
189 218 255
189 218 255
189 218 255
189 218 255
189 218 255
189 218 255
189 218 255
189 218 255
189 218 255
189 218 255
189 218 255
189 218 255
189 218 255
189 218 255
189 218 255
189 218 255
189 218 255
189 218 255
189 218 255
189 218 255
189 218 255
189 218 255
189 218 255
189 218 255
189 218 255
189 218 255
189 218 255
189 218 255
189 218 255
189 218 255
189 218 255
189 218 255
189 218 255
189 218 255
189 218 255
189 218 255
189 218 255
189 218 255
189 218 255
189 218 255
189 218 255
189 218 255
189 218 255
189 218 255
189 218 255
189 218 255
189 218 255
189 218 255
189 218 255
189 218 255
189 218 255
189 218 255
189 218 255
189 218 255
189 218 255
189 218 255
189 218 255
189 218 255
189 218 255
189 218 255
189 218 255
189 218 255
189 218 255
189 218 255
189 218 255
189 218 255
189 218 255
189 218 255
189 218 255
189 218 255
189 218 255
189 218 255
189 218 255
189 218 255
189 218 255
189 218 255
189 218 255
189 218 255
189 218 255
189 218 255
189 218 255
189 218 255
189 218 255
189 218 255
189 218 255
189 218 255
189 218 255
189 218 255
189 218 255
189 218 255
189 218 255
189 218 255
189 218 255
189 218 255
189 218 255
189 218 255
189 218 255
189 218 255
189 218 255
189 218 255
189 218 255
189 218 255
189 218 255
189 218 255
189 218 255
189 218 255
189 218 255
189 218 255
189 218 255
189 218 255
189 218 255
189 218 255
189 218 255
189 218 255
189 218 255
189 218 255
189 218 255
189 218 255
189 218 255
189 218 255
189 218 255
189 218 255
189 218 255
189 218 255
189 218 255
189 218 255
189 218 255
189 218 255
189 218 255
189 218 255
189 218 255
189 218 255
189 218 255
189 218 255
189 218 255
189 218 255
189 218 255
189 218 255
189 218 255
189 218 255
189 218 255
189 218 255
189 218 255
189 218 255
189 218 255
189 218 255
189 218 255
189 218 255
189 218 255
189 218 255
189 218 255
189 218 255
189 218 255
189 218 255
189 218 255
189 218 255
189 218 255
189 218 255
189 218 255
189 218 255
189 218 255
189 218 255
189 218 255
189 218 255
189 218 255
189 218 255
189 218 255
189 218 255
189 218 255
189 218 255
189 218 255
189 218 255
189 218 255
189 218 255
189 218 255
189 218 255
189 218 255
189 218 255
189 218 255
189 218 255
189 218 255
189 218 255
189 218 255
189 218 255
189 218 255
189 218 255
189 218 255
189 218 255
189 218 255
189 218 255
189 218 255
189 218 255
189 218 255
189 218 255
189 218 255
189 218 255
189 218 255
189 218 255
189 218 255
189 218 255
189 218 255
189 218 255
189 218 255
189 218 255
189 218 255
189 218 255
189 218 255
189 218 255
189 218 255
189 218 255
189 218 255
189 218 255
189 218 255
189 218 255
189 218 255
189 218 255
189 218 255
189 218 255
189 218 255
189 218 255
189 218 255
189 218 255
189 218 255
189 218 255
189 218 255
189 218 255
189 218 255
189 218 255
189 218 255
189 218 255
189 218 255
189 218 255
189 218 255
189 218 255
189 218 255
189 218 255
189 218 255
189 218 255
189 218 255
189 218 255
189 218 255
189 218 255
189 218 255
189 218 255
189 218 255
189 218 255
189 218 255
189 218 255
189 218 255
189 218 255
189 218 255
189 218 255
189 218 255
189 218 255
189 218 255
189 218 255
189 218 255
189 218 255
189 218 255
189 218 255
189 218 255
189 218 255
189 218 255
189 218 255
189 218 255
189 218 255
189 218 255
189 218 255
189 218 255
189 218 255
189 218 255
189 218 255
189 218 255
189 218 255
189 218 255
189 218 255
189 218 255
189 218 255
189 218 255
189 218 255
189 218 255
189 218 255
189 218 255
189 218 255
189 218 255
189 218 255
189 218 255
189 218 255
189 218 255
189 218 255
189 218 255
189 218 255
189 218 255
189 218 255
189 218 255
189 218 255
189 218 255
189 218 255
189 218 255
189 218 255
189 218 255
189 218 255
189 218 255
189 218 255
189 218 255
189 218 255
189 218 255
189 218 255
189 218 255
189 218 255
189 218 255
189 218 255
189 218 255
189 218 255
189 218 255
189 218 255
189 218 255
189 218 255
189 218 255
189 218 255
189 218 255
189 218 255
189 218 255
189 218 255
189 218 255
189 218 255
189 218 255
189 218 255
189 218 255
189 218 255
189 218 255
189 218 255
189 218 255
189 218 255
189 218 255
189 218 255
189 218 255
189 218 255
189 218 255
189 218 255
189 218 255
189 218 255
189 218 255
189 218 255
189 218 255
189 218 255
189 218 255
189 218 255
189 218 255
189 218 255
189 218 255
189 218 255
189 218 255
189 218 255
189 218 255
189 218 255
189 218 255
189 218 255
189 218 255
189 218 255
189 218 255
189 218 255
189 218 255
189 218 255
189 218 255
189 218 255
189 218 255
189 218 255
189 218 255
189 218 255
189 218 255
189 218 255
189 218 255
189 218 255
189 218 255
189 218 255
189 218 255
189 218 255
189 218 255
189 218 255
189 218 255
189 218 255
189 218 255
189 218 255
189 218 255
189 218 255
189 218 255
189 218 255
189 218 255
189 218 255
189 218 255
189 218 255
189 218 255
189 218 255
189 218 255
189 218 255
189 218 255
189 218 255
189 218 255
189 218 255
189 218 255
189 218 255
189 218 255
189 218 255
189 218 255
189 218 255
189 218 255
189 218 255
189 218 255
189 218 255
189 218 255
189 218 255
189 218 255
189 218 255
189 218 255
189 218 255
189 218 255
189 218 255
189 218 255
189 218 255
189 218 255
189 218 255
189 218 255
189 218 255
189 218 255
189 218 255
189 218 255
189 218 255
189 218 255
189 218 255
189 218 255
189 218 255
189 218 255
189 218 255
189 218 255
189 218 255
189 218 255
189 218 255
189 218 255
189 218 255
189 218 255
189 218 255
189 218 255
189 218 255
189 218 255
189 218 255
189 218 255
189 218 255
189 218 255
189 218 255
189 218 255
189 218 255
189 218 255
189 218 255
189 218 255
189 218 255
189 218 255
189 218 255
189 218 255
189 218 255
189 218 255
189 218 255
189 218 255
189 218 255
189 218 255
189 218 255
189 218 255
189 218 255
189 218 255
189 218 255
189 218 255
189 218 255
189 218 255
189 218 255
189 218 255
189 218 255
189 218 255
189 218 255
189 218 255
189 218 255
189 218 255
189 218 255
189 218 255
189 218 255
189 218 255
189 218 255
189 218 255
189 218 255
189 218 255
189 218 255
189 218 255
189 218 255
189 218 255
189 218 255
189 218 255
189 218 255
189 218 255
189 218 255
189 218 255
189 218 255
189 218 255
189 218 255
189 218 255
189 218 255
189 218 255
189 218 255
189 218 255
189 218 255
189 218 255
189 218 255
189 218 255
189 218 255
189 218 255
189 218 255
189 218 255
189 218 255
189 218 255
189 218 255
189 218 255
189 218 255
189 218 255
189 218 255
189 218 255
189 218 255
189 218 255
189 218 255
189 218 255
189 218 255
189 218 255
189 218 255
189 218 255
189 218 255
189 218 255
189 218 255
189 218 255
189 218 255
189 218 255
189 218 255
189 218 255
189 218 255
189 218 255
189 218 255
189 218 255
189 218 255
189 218 255
189 218 255
189 218 255
189 218 255
189 218 255
190 218 255
190 218 255
190 218 255
190 218 255
190 218 255
190 218 255
190 218 255
190 218 255
190 218 255
190 218 255
190 218 255
190 218 255
190 218 255
190 218 255
190 218 255
190 218 255
190 218 255
190 218 255
190 218 255
190 218 255
190 218 255
190 218 255
190 218 255
190 218 255
190 218 255
190 218 255
190 218 255
190 218 255
190 218 255
190 218 255
190 218 255
190 218 255
190 218 255
190 218 255
190 218 255
190 218 255
190 218 255
190 218 255
190 218 255
190 218 255
190 218 255
190 218 255
190 218 255
190 218 255
190 218 255
190 218 255
190 218 255
190 218 255
190 218 255
190 218 255
190 218 255
190 218 255
190 218 255
190 218 255
190 218 255
190 218 255
190 218 255
190 218 255
190 218 255
190 218 255
190 218 255
190 218 255
190 218 255
190 218 255
190 218 255
190 218 255
190 218 255
190 218 255
190 218 255
190 218 255
190 218 255
190 218 255
190 218 255
190 218 255
190 218 255
190 218 255
190 218 255
190 218 255
190 218 255
190 218 255
190 218 255
190 218 255
190 218 255
190 218 255
190 218 255
190 218 255
190 218 255
190 218 255
190 218 255
190 218 255
190 218 255
190 218 255
190 218 255
190 218 255
190 218 255
190 218 255
190 218 255
190 218 255
190 218 255
190 218 255
190 218 255
190 218 255
190 218 255
190 218 255
190 218 255
190 218 255
190 218 255
190 218 255
190 218 255
190 218 255
190 218 255
190 218 255
190 218 255
190 218 255
190 218 255
190 218 255
190 218 255
190 218 255
190 218 255
190 218 255
190 218 255
190 218 255
190 218 255
190 218 255
190 218 255
190 218 255
190 218 255
190 218 255
190 218 255
190 218 255
190 218 255
190 218 255
190 218 255
190 218 255
190 218 255
190 218 255
190 218 255
190 218 255
190 218 255
190 218 255
190 218 255
190 218 255
190 218 255
190 218 255
190 218 255
190 218 255
190 218 255
190 218 255
190 218 255
190 218 255
190 218 255
190 218 255
190 218 255
190 218 255
190 218 255
190 218 255
190 218 255
190 218 255
190 218 255
190 218 255
190 218 255
190 218 255
190 218 255
190 218 255
190 218 255
190 218 255
190 218 255
190 218 255
190 218 255
190 218 255
190 218 255
190 218 255
190 218 255
190 218 255
190 218 255
190 218 255
190 218 255
190 218 255
190 218 255
190 218 255
190 218 255
190 218 255
190 218 255
190 218 255
190 218 255
190 218 255
190 218 255
190 218 255
190 218 255
190 218 255
190 218 255
190 218 255
190 218 255
190 218 255
190 218 255
190 218 255
190 218 255
190 218 255
190 218 255
190 218 255
190 218 255
190 218 255
190 218 255
190 218 255
190 218 255
190 218 255
190 218 255
190 218 255
190 218 255
190 218 255
190 218 255
190 218 255
190 218 255
190 218 255
190 218 255
190 218 255
190 218 255
190 218 255
190 218 255
190 218 255
190 218 255
190 218 255
190 218 255
190 218 255
190 218 255
190 218 255
190 218 255
190 218 255
190 218 255
190 218 255
190 218 255
190 218 255
190 218 255
190 218 255
190 218 255
190 218 255
190 218 255
190 218 255
190 218 255
190 218 255
190 218 255
190 218 255
190 218 255
190 218 255
190 218 255
190 218 255
190 218 255
190 218 255
190 218 255
190 218 255
190 218 255
190 218 255
190 218 255
190 218 255
190 218 255
190 218 255
190 218 255
190 218 255
190 218 255
190 218 255
190 218 255
190 218 255
190 218 255
190 218 255
190 218 255
190 218 255
190 218 255
190 218 255
190 218 255
190 218 255
190 218 255
190 218 255
190 218 255
190 218 255
190 218 255
190 218 255
190 218 255
190 218 255
190 218 255
190 218 255
190 218 255
190 218 255
190 218 255
190 218 255
190 218 255
190 218 255
190 218 255
190 218 255
190 218 255
190 218 255
190 218 255
190 218 255
190 218 255
190 218 255
190 218 255
190 218 255
190 218 255
190 218 255
190 218 255
190 218 255
190 218 255
190 218 255
190 218 255
190 218 255
190 218 255
190 218 255
190 218 255
190 218 255
190 218 255
190 218 255
190 218 255
190 218 255
190 218 255
190 218 255
190 218 255
190 218 255
190 218 255
190 218 255
190 218 255
190 218 255
190 218 255
190 218 255
190 218 255
190 218 255
190 218 255
190 218 255
190 218 255
190 218 255
190 218 255
190 218 255
190 218 255
190 218 255
190 218 255
190 218 255
190 218 255
190 218 255
190 218 255
190 218 255
190 218 255
190 218 255
190 218 255
190 218 255
190 218 255
190 218 255
190 218 255
190 218 255
190 218 255
190 218 255
190 218 255
190 218 255
190 218 255
190 218 255
190 218 255
190 218 255
190 218 255
190 218 255
190 218 255
190 218 255
190 218 255
190 218 255
190 218 255
190 218 255
190 218 255
190 218 255
190 218 255
190 218 255
190 218 255
190 218 255
190 218 255
190 218 255
190 218 255
190 218 255
190 218 255
190 218 255
190 218 255
190 218 255
190 218 255
190 218 255
190 218 255
190 218 255
190 218 255
190 218 255
190 218 255
190 218 255
190 218 255
190 218 255
190 218 255
190 218 255
190 218 255
190 218 255
190 218 255
190 218 255
190 218 255
190 218 255
190 218 255
190 218 255
190 218 255
190 218 255
190 218 255
190 218 255
190 218 255
190 218 255
190 218 255
190 218 255
190 218 255
190 218 255
190 218 255
190 218 255
190 218 255
190 218 255
190 218 255
190 218 255
190 218 255
190 218 255
190 218 255
190 218 255
190 218 255
190 218 255
190 218 255
190 218 255
190 218 255
190 218 255
190 218 255
190 218 255
190 218 255
190 218 255
190 218 255
190 218 255
190 218 255
190 218 255
190 218 255
190 218 255
190 218 255
190 218 255
190 218 255
190 218 255
190 218 255
190 218 255
190 218 255
190 218 255
190 218 255
190 218 255
190 218 255
190 218 255
190 218 255
190 218 255
190 218 255
190 218 255
190 218 255
190 218 255
190 218 255
190 218 255
190 218 255
190 218 255
190 218 255
190 218 255
190 218 255
190 218 255
190 218 255
190 218 255
190 218 255
190 218 255
190 218 255
190 218 255
190 218 255
190 218 255
190 218 255
190 218 255
190 218 255
190 218 255
190 218 255
190 218 255
190 218 255
190 218 255
190 218 255
190 218 255
190 218 255
190 218 255
190 218 255
190 218 255
190 218 255
190 218 255
190 218 255
190 218 255
190 218 255
190 218 255
190 218 255
190 218 255
190 218 255
190 218 255
190 218 255
190 218 255
190 218 255
190 218 255
190 218 255
190 218 255
190 218 255
190 218 255
190 218 255
190 218 255
190 218 255
190 218 255
190 218 255
190 218 255
190 218 255
190 218 255
190 218 255
190 218 255
190 218 255
190 218 255
190 218 255
190 218 255
190 218 255
190 218 255
190 218 255
190 218 255
190 218 255
190 218 255
190 218 255
190 218 255
190 218 255
190 218 255
190 218 255
190 218 255
190 218 255
190 218 255
190 218 255
190 218 255
190 218 255
190 218 255
190 218 255
190 218 255
190 218 255
190 218 255
190 218 255
190 218 255
190 218 255
190 218 255
190 218 255
190 218 255
190 218 255
190 218 255
190 218 255
190 218 255
190 218 255
190 218 255
190 218 255
190 218 255
190 218 255
190 218 255
190 218 255
190 218 255
190 218 255
190 218 255
190 218 255
190 218 255
190 218 255
190 218 255
190 218 255
190 218 255
190 218 255
190 218 255
190 218 255
190 218 255
190 218 255
190 218 255
190 218 255
190 218 255
190 218 255
190 218 255
190 218 255
190 218 255
190 218 255
190 218 255
190 218 255
190 218 255
190 218 255
190 218 255
190 218 255
190 218 255
190 218 255
190 218 255
190 218 255
190 218 255
190 218 255
190 218 255
190 218 255
190 218 255
190 218 255
190 218 255
190 218 255
190 218 255
190 218 255
190 218 255
190 218 255
190 218 255
190 218 255
190 218 255
190 218 255
190 218 255
190 218 255
190 218 255
190 218 255
190 218 255
190 218 255
190 218 255
190 218 255
190 218 255
190 218 255
190 218 255
190 218 255
190 218 255
190 218 255
190 218 255
190 218 255
190 218 255
190 218 255
190 218 255
190 218 255
190 218 255
190 218 255
190 218 255
190 218 255
190 218 255
190 218 255
190 218 255
190 218 255
190 218 255
190 218 255
190 218 255
190 218 255
190 218 255
190 218 255
190 218 255
190 218 255
190 218 255
190 218 255
190 218 255
190 218 255
190 218 255
190 218 255
190 218 255
190 218 255
190 218 255
190 218 255
190 218 255
190 218 255
190 218 255
190 218 255
190 218 255
190 218 255
190 218 255
190 218 255
190 218 255
190 218 255
190 218 255
190 218 255
190 218 255
190 218 255
190 218 255
190 218 255
190 218 255
190 218 255
190 218 255
190 218 255
190 218 255
190 218 255
190 218 255
190 218 255
190 218 255
190 218 255
190 218 255
190 218 255
190 218 255
190 218 255
190 218 255
190 218 255
190 218 255
190 218 255
190 218 255
190 218 255
190 218 255
190 218 255
190 218 255
190 218 255
190 218 255
190 218 255
190 218 255
190 218 255
190 218 255
190 218 255
190 218 255
190 218 255
190 218 255
190 218 255
190 218 255
190 218 255
190 218 255
190 218 255
190 218 255
190 218 255
190 218 255
190 218 255
190 218 255
190 218 255
190 218 255
190 218 255
190 218 255
190 218 255
190 218 255
190 218 255
190 218 255
190 218 255
190 218 255
190 218 255
190 218 255
190 218 255
190 218 255
190 218 255
190 218 255
190 218 255
190 218 255
190 218 255
190 218 255
190 218 255
190 218 255
190 218 255
190 218 255
190 218 255
190 218 255
190 218 255
190 218 255
190 218 255
190 218 255
190 218 255
190 218 255
190 218 255
190 218 255
190 218 255
190 218 255
190 218 255
190 218 255
190 218 255
190 218 255
190 218 255
190 218 255
190 218 255
190 218 255
190 218 255
190 218 255
190 218 255
190 218 255
190 218 255
190 218 255
190 218 255
190 218 255
190 218 255
190 218 255
190 218 255
190 218 255
190 218 255
190 218 255
190 218 255
190 218 255
190 218 255
190 218 255
190 218 255
190 218 255
190 218 255
190 218 255
190 218 255
190 218 255
190 218 255
190 218 255
190 218 255
190 218 255
190 218 255
190 218 255
190 218 255
190 218 255
190 218 255
190 218 255
190 218 255
190 218 255
190 218 255
190 218 255
190 218 255
190 218 255
190 218 255
190 218 255
190 218 255
190 218 255
190 218 255
190 218 255
190 218 255
190 218 255
190 218 255
190 218 255
190 218 255
190 218 255
190 218 255
190 218 255
190 218 255
190 218 255
190 218 255
190 218 255
190 218 255
190 218 255
190 218 255
190 218 255
190 218 255
190 218 255
190 218 255
190 218 255
190 218 255
190 218 255
190 218 255
190 218 255
190 218 255
190 218 255
190 218 255
190 218 255
190 218 255
190 218 255
190 218 255
190 218 255
190 218 255
190 218 255
190 218 255
190 218 255
190 218 255
190 218 255
190 218 255
190 218 255
190 218 255
190 218 255
190 218 255
190 218 255
190 218 255
190 219 255
190 218 255
190 218 255
190 218 255
190 218 255
190 218 255
190 218 255
190 218 255
190 218 255
190 218 255
190 218 255
190 218 255
190 218 255
190 218 255
190 218 255
190 218 255
190 218 255
190 218 255
190 218 255
190 218 255
190 218 255
190 218 255
190 218 255
190 218 255
190 218 255
190 218 255
190 218 255
190 218 255
190 218 255
190 218 255
190 218 255
190 218 255
190 218 255
190 218 255
190 218 255
190 218 255
190 218 255
190 218 255
190 218 255
190 218 255
190 218 255
190 218 255
190 218 255
190 218 255
190 219 255
190 218 255
190 218 255
190 218 255
190 218 255
190 218 255
190 218 255
190 218 255
190 218 255
190 218 255
190 218 255
190 218 255
190 218 255
190 218 255
190 218 255
190 218 255
190 218 255
190 218 255
190 218 255
190 218 255
190 218 255
190 218 255
190 218 255
190 218 255
190 218 255
190 218 255
190 218 255
190 218 255
190 218 255
190 218 255
190 218 255
190 218 255
190 218 255
190 218 255
190 218 255
190 218 255
190 218 255
190 218 255
190 218 255
190 219 255
190 218 255
190 218 255
190 218 255
190 218 255
190 218 255
190 218 255
190 218 255
190 219 255
190 218 255
190 218 255
190 218 255
190 218 255
190 218 255
190 218 255
190 218 255
190 218 255
190 218 255
190 218 255
190 218 255
190 218 255
190 218 255
190 218 255
190 218 255
190 218 255
190 218 255
190 218 255
190 218 255
190 218 255
190 218 255
190 218 255
190 218 255
190 218 255
190 218 255
190 218 255
190 218 255
190 218 255
190 219 255
190 218 255
190 218 255
190 218 255
190 218 255
190 218 255
190 218 255
190 218 255
190 218 255
190 218 255
190 218 255
190 218 255
190 218 255
190 218 255
190 218 255
190 218 255
190 219 255
190 218 255
190 218 255
190 218 255
190 218 255
190 218 255
190 218 255
190 218 255
190 218 255
190 218 255
190 218 255
190 218 255
190 218 255
190 218 255
190 218 255
190 218 255
190 218 255
190 218 255
190 218 255
190 218 255
190 218 255
190 218 255
190 218 255
190 218 255
190 218 255
190 218 255
190 218 255
190 218 255
190 218 255
190 218 255
190 218 255
190 218 255
190 218 255
190 218 255
190 218 255
190 218 255
190 218 255
190 219 255
190 218 255
190 218 255
190 218 255
190 218 255
190 218 255
190 218 255
190 218 255
190 218 255
190 218 255
190 218 255
190 218 255
190 218 255
190 218 255
190 218 255
190 218 255
190 218 255
190 218 255
190 218 255
190 218 255
190 218 255
190 218 255
190 218 255
190 218 255
190 218 255
190 218 255
190 218 255
190 218 255
190 218 255
190 218 255
190 218 255
190 218 255
190 219 255
190 218 255
190 218 255
190 218 255
190 218 255
190 218 255
190 218 255
190 218 255
190 218 255
190 218 255
190 218 255
190 218 255
190 218 255
190 218 255
190 218 255
190 218 255
190 218 255
190 218 255
190 218 255
190 218 255
190 218 255
190 218 255
190 218 255
190 218 255
190 218 255
190 218 255
190 218 255
190 218 255
190 218 255
190 218 255
190 218 255
190 218 255
190 218 255
190 218 255
190 218 255
190 218 255
190 218 255
190 218 255
190 218 255
190 218 255
190 218 255
190 218 255
190 218 255
190 218 255
190 218 255
190 218 255
190 218 255
190 218 255
190 218 255
190 219 255
190 218 255
190 218 255
190 218 255
190 218 255
190 218 255
190 218 255
190 218 255
190 218 255
190 218 255
190 218 255
190 218 255
190 218 255
190 218 255
190 218 255
190 218 255
190 218 255
190 218 255
190 218 255
190 218 255
190 218 255
190 218 255
190 218 255
190 218 255
190 218 255
190 218 255
190 218 255
190 218 255
190 218 255
190 218 255
190 218 255
190 218 255
190 218 255
190 218 255
190 218 255
190 218 255
190 218 255
190 218 255
190 218 255
190 218 255
190 219 255
190 218 255
190 218 255
190 218 255
190 218 255
190 218 255
190 219 255
190 218 255
190 218 255
190 218 255
190 218 255
190 218 255
190 218 255
190 218 255
190 219 255
190 218 255
190 218 255
190 218 255
190 218 255
190 218 255
190 218 255
190 218 255
190 218 255
190 218 255
190 218 255
190 218 255
190 218 255
190 218 255
190 218 255
190 218 255
190 218 255
190 218 255
190 218 255
190 218 255
190 218 255
190 218 255
190 218 255
190 218 255
190 218 255
190 218 255
190 218 255
190 218 255
190 218 255
190 218 255
190 218 255
190 218 255
190 218 255
190 218 255
190 218 255
190 218 255
190 218 255
190 219 255
190 218 255
190 218 255
190 218 255
190 218 255
190 218 255
190 218 255
190 218 255
190 218 255
190 218 255
190 218 255
190 218 255
190 218 255
190 218 255
190 218 255
190 218 255
191 219 255
191 219 255
191 219 255
191 219 255
191 219 255
191 219 255
191 219 255
191 219 255
191 219 255
191 219 255
191 219 255
191 219 255
191 219 255
191 219 255
191 219 255
191 219 255
191 219 255
191 219 255
191 219 255
191 219 255
191 219 255
191 219 255
191 219 255
191 219 255
191 219 255
191 219 255
191 219 255
191 219 255
191 219 255
191 219 255
191 219 255
191 219 255
191 219 255
191 219 255
191 219 255
191 219 255
191 219 255
191 219 255
191 219 255
191 219 255
191 219 255
191 219 255
191 219 255
191 219 255
191 219 255
191 219 255
191 219 255
191 219 255
191 219 255
191 219 255
191 219 255
191 219 255
191 219 255
191 219 255
191 219 255
191 219 255
191 219 255
191 219 255
191 219 255
191 219 255
191 219 255
191 219 255
191 219 255
191 219 255
191 219 255
191 219 255
191 219 255
191 219 255
191 219 255
191 219 255
191 219 255
191 219 255
191 219 255
191 219 255
191 219 255
191 219 255
191 219 255
191 219 255
191 219 255
191 219 255
191 219 255
191 219 255
191 219 255
191 219 255
191 219 255
191 219 255
191 219 255
191 219 255
191 219 255
191 219 255
191 219 255
191 219 255
191 219 255
191 219 255
191 219 255
191 219 255
191 219 255
191 219 255
191 219 255
191 219 255
191 219 255
191 219 255
191 219 255
191 219 255
191 219 255
191 219 255
191 219 255
191 219 255
191 219 255
191 219 255
191 219 255
191 219 255
191 219 255
191 219 255
191 219 255
191 219 255
191 219 255
191 219 255
191 219 255
191 219 255
191 219 255
191 219 255
191 219 255
191 219 255
191 219 255
191 219 255
191 219 255
191 219 255
191 219 255
191 219 255
191 219 255
191 219 255
191 219 255
191 219 255
191 219 255
191 219 255
191 219 255
191 219 255
191 219 255
191 219 255
191 219 255
191 219 255
191 219 255
191 219 255
191 219 255
191 219 255
191 219 255
191 219 255
191 219 255
191 219 255
191 219 255
191 219 255
191 219 255
191 219 255
191 219 255
191 219 255
191 219 255
191 219 255
191 219 255
191 219 255
191 219 255
191 219 255
191 219 255
191 219 255
191 219 255
191 219 255
191 219 255
191 219 255
191 219 255
191 219 255
191 219 255
191 219 255
191 219 255
191 219 255
191 219 255
191 219 255
191 219 255
191 219 255
191 219 255
191 219 255
191 219 255
191 219 255
191 219 255
191 219 255
191 219 255
191 219 255
191 219 255
191 219 255
191 219 255
191 219 255
191 219 255
191 219 255
191 219 255
191 219 255
191 219 255
191 219 255
191 219 255
191 219 255
191 219 255
191 219 255
191 219 255
191 219 255
191 219 255
191 219 255
191 219 255
191 219 255
191 219 255
191 219 255
191 219 255
191 219 255
191 219 255
191 219 255
191 219 255
191 219 255
191 219 255
191 219 255
191 219 255
191 219 255
191 219 255
191 219 255
191 219 255
191 219 255
191 219 255
191 219 255
191 219 255
191 219 255
191 219 255
191 219 255
191 219 255
191 219 255
191 219 255
191 219 255
191 219 255
191 219 255
191 219 255
191 219 255
191 219 255
191 219 255
191 219 255
191 219 255
191 219 255
191 219 255
191 219 255
191 219 255
191 219 255
191 219 255
191 219 255
191 219 255
191 219 255
191 219 255
191 219 255
191 219 255
191 219 255
191 219 255
191 219 255
191 219 255
191 219 255
191 219 255
191 219 255
191 219 255
191 219 255
191 219 255
191 219 255
191 219 255
191 219 255
191 219 255
191 219 255
191 219 255
191 219 255
191 219 255
191 219 255
191 219 255
191 219 255
191 219 255
191 219 255
191 219 255
191 219 255
191 219 255
191 219 255
191 219 255
191 219 255
191 219 255
191 219 255
191 219 255
191 219 255
191 219 255
191 219 255
191 219 255
191 219 255
191 219 255
191 219 255
191 219 255
191 219 255
191 219 255
191 219 255
191 219 255
191 219 255
191 219 255
191 219 255
191 219 255
191 219 255
191 219 255
191 219 255
191 219 255
191 219 255
191 219 255
191 219 255
191 219 255
191 219 255
191 219 255
191 219 255
191 219 255
191 219 255
191 219 255
191 219 255
191 219 255
191 219 255
191 219 255
191 219 255
191 219 255
191 219 255
191 219 255
191 219 255
191 219 255
191 219 255
191 219 255
191 219 255
191 219 255
191 219 255
191 219 255
191 219 255
191 219 255
191 219 255
191 219 255
191 219 255
191 219 255
191 219 255
191 219 255
191 219 255
191 219 255
191 219 255
191 219 255
191 219 255
191 219 255
191 219 255
191 219 255
191 219 255
191 219 255
191 219 255
191 219 255
191 219 255
191 219 255
191 219 255
191 219 255
191 219 255
191 219 255
191 219 255
191 219 255
191 219 255
191 219 255
191 219 255
191 219 255
191 219 255
191 219 255
191 219 255
191 219 255
191 219 255
191 219 255
191 219 255
191 219 255
191 219 255
191 219 255
191 219 255
191 219 255
191 219 255
191 219 255
191 219 255
191 219 255
191 219 255
191 219 255
191 219 255
191 219 255
191 219 255
191 219 255
191 219 255
191 219 255
191 219 255
191 219 255
191 219 255
191 219 255
191 219 255
191 219 255
191 219 255
191 219 255
191 219 255
191 219 255
191 219 255
191 219 255
191 219 255
191 219 255
191 219 255
191 219 255
191 219 255
191 219 255
191 219 255
191 219 255
191 219 255
191 219 255
191 219 255
191 219 255
191 219 255
191 219 255
191 219 255
191 219 255
191 219 255
191 219 255
191 219 255
191 219 255
191 219 255
191 219 255
191 219 255
191 219 255
191 219 255
191 219 255
191 219 255
191 219 255
191 219 255
191 219 255
191 219 255
191 219 255
191 219 255
191 219 255
191 219 255
191 219 255
191 219 255
191 219 255
191 219 255
191 219 255
191 219 255
191 219 255
191 219 255
191 219 255
191 219 255
191 219 255
191 219 255
191 219 255
191 219 255
191 219 255
191 219 255
191 219 255
191 219 255
191 219 255
191 219 255
191 219 255
191 219 255
191 219 255
191 219 255
191 219 255
191 219 255
191 219 255
191 219 255
191 219 255
191 219 255
191 219 255
191 219 255
191 219 255
191 219 255
191 219 255
191 219 255
191 219 255
191 219 255
191 219 255
191 219 255
191 219 255
191 219 255
191 219 255
191 219 255
191 219 255
191 219 255
191 219 255
191 219 255
191 219 255
191 219 255
191 219 255
191 219 255
191 219 255
191 219 255
191 219 255
191 219 255
191 219 255
191 219 255
191 219 255
191 219 255
191 219 255
191 219 255
191 219 255
191 219 255
191 219 255
191 219 255
191 219 255
191 219 255
191 219 255
191 219 255
191 219 255
191 219 255
191 219 255
191 219 255
191 219 255
191 219 255
191 219 255
191 219 255
191 219 255
191 219 255
191 219 255
191 219 255
191 219 255
191 219 255
191 219 255
191 219 255
191 219 255
191 219 255
191 219 255
191 219 255
191 219 255
191 219 255
191 219 255
191 219 255
191 219 255
191 219 255
191 219 255
191 219 255
191 219 255
191 219 255
191 219 255
191 219 255
191 219 255
191 219 255
191 219 255
191 219 255
191 219 255
191 219 255
191 219 255
191 219 255
191 219 255
191 219 255
191 219 255
191 219 255
191 219 255
191 219 255
191 219 255
191 219 255
191 219 255
191 219 255
191 219 255
191 219 255
191 219 255
191 219 255
191 219 255
191 219 255
191 219 255
191 219 255
191 219 255
191 219 255
191 219 255
191 219 255
191 219 255
191 219 255
191 219 255
191 219 255
191 219 255
191 219 255
191 219 255
191 219 255
191 219 255
191 219 255
191 219 255
191 219 255
191 219 255
191 219 255
191 219 255
191 219 255
191 219 255
191 219 255
191 219 255
191 219 255
191 219 255
191 219 255
191 219 255
191 219 255
191 219 255
191 219 255
191 219 255
191 219 255
191 219 255
191 219 255
191 219 255
191 219 255
191 219 255
191 219 255
191 219 255
191 219 255
191 219 255
191 219 255
191 219 255
191 219 255
191 219 255
191 219 255
191 219 255
191 219 255
191 219 255
191 219 255
191 219 255
191 219 255
191 219 255
191 219 255
191 219 255
191 219 255
191 219 255
191 219 255
191 219 255
191 219 255
191 219 255
191 219 255
191 219 255
191 219 255
191 219 255
191 219 255
191 219 255
191 219 255
191 219 255
191 219 255
191 219 255
191 219 255
191 219 255
191 219 255
191 219 255
191 219 255
191 219 255
191 219 255
191 219 255
191 219 255
191 219 255
191 219 255
191 219 255
191 219 255
191 219 255
191 219 255
191 219 255
191 219 255
191 219 255
191 219 255
191 219 255
191 219 255
191 219 255
191 219 255
191 219 255
191 219 255
191 219 255
191 219 255
191 219 255
191 219 255
191 219 255
191 219 255
191 219 255
191 219 255
191 219 255
191 219 255
191 219 255
191 219 255
191 219 255
191 219 255
191 219 255
191 219 255
191 219 255
191 219 255
191 219 255
191 219 255
191 219 255
191 219 255
191 219 255
191 219 255
191 219 255
191 219 255
191 219 255
191 219 255
191 219 255
191 219 255
191 219 255
191 219 255
191 219 255
191 219 255
191 219 255
191 219 255
191 219 255
191 219 255
191 219 255
191 219 255
191 219 255
191 219 255
191 219 255
191 219 255
191 219 255
191 219 255
191 219 255
191 219 255
191 219 255
191 219 255
191 219 255
191 219 255
191 219 255
191 219 255
191 219 255
191 219 255
191 219 255
191 219 255
191 219 255
191 219 255
191 219 255
191 219 255
191 219 255
191 219 255
191 219 255
191 219 255
191 219 255
191 219 255
191 219 255
191 219 255
191 219 255
191 219 255
191 219 255
191 219 255
191 219 255
191 219 255
191 219 255
191 219 255
191 219 255
191 219 255
191 219 255
191 219 255
191 219 255
191 219 255
191 219 255
191 219 255
191 219 255
191 219 255
191 219 255
191 219 255
191 219 255
191 219 255
191 219 255
191 219 255
191 219 255
191 219 255
191 219 255
191 219 255
191 219 255
191 219 255
191 219 255
191 219 255
191 219 255
191 219 255
191 219 255
191 219 255
191 219 255
191 219 255
191 219 255
191 219 255
191 219 255
191 219 255
191 219 255
191 219 255
191 219 255
191 219 255
191 219 255
191 219 255
191 219 255
191 219 255
191 219 255
191 219 255
191 219 255
191 219 255
191 219 255
191 219 255
191 219 255
191 219 255
191 219 255
191 219 255
191 219 255
191 219 255
191 219 255
191 219 255
191 219 255
191 219 255
191 219 255
191 219 255
191 219 255
191 219 255
191 219 255
191 219 255
191 219 255
191 219 255
191 219 255
191 219 255
191 219 255
191 219 255
191 219 255
191 219 255
191 219 255
191 219 255
191 219 255
191 219 255
191 219 255
191 219 255
191 219 255
191 219 255
191 219 255
191 219 255
191 219 255
191 219 255
191 219 255
191 219 255
191 219 255
191 219 255
191 219 255
191 219 255
191 219 255
191 219 255
191 219 255
191 219 255
191 219 255
191 219 255
191 219 255
191 219 255
191 219 255
191 219 255
191 219 255
191 219 255
191 219 255
191 219 255
191 219 255
191 219 255
191 219 255
191 219 255
191 219 255
191 219 255
191 219 255
191 219 255
191 219 255
191 219 255
191 219 255
191 219 255
191 219 255
191 219 255
191 219 255
191 219 255
191 219 255
191 219 255
191 219 255
191 219 255
191 219 255
191 219 255
191 219 255
191 219 255
191 219 255
191 219 255
191 219 255
191 219 255
191 219 255
191 219 255
191 219 255
191 219 255
191 219 255
191 219 255
191 219 255
191 219 255
191 219 255
191 219 255
191 219 255
191 219 255
191 219 255
191 219 255
191 219 255
191 219 255
191 219 255
191 219 255
191 219 255
191 219 255
191 219 255
191 219 255
191 219 255
191 219 255
191 219 255
191 219 255
191 219 255
191 219 255
191 219 255
191 219 255
191 219 255
191 219 255
191 219 255
191 219 255
191 219 255
191 219 255
191 219 255
191 219 255
191 219 255
191 219 255
191 219 255
191 219 255
191 219 255
191 219 255
191 219 255
191 219 255
191 219 255
191 219 255
191 219 255
191 219 255
191 219 255
191 219 255
191 219 255
191 219 255
191 219 255
191 219 255
191 219 255
191 219 255
191 219 255
191 219 255
191 219 255
191 219 255
191 219 255
191 219 255
191 219 255
191 219 255
191 219 255
191 219 255
191 219 255
191 219 255
191 219 255
191 219 255
191 219 255
191 219 255
191 219 255
191 219 255
191 219 255
191 219 255
191 219 255
191 219 255
191 219 255
191 219 255
191 219 255
191 219 255
191 219 255
191 219 255
191 219 255
191 219 255
191 219 255
191 219 255
191 219 255
191 219 255
191 219 255
191 219 255
191 219 255
191 219 255
191 219 255
191 219 255
191 219 255
191 219 255
191 219 255
191 219 255
191 219 255
191 219 255
191 219 255
191 219 255
191 219 255
191 219 255
191 219 255
191 219 255
191 219 255
191 219 255
191 219 255
191 219 255
191 219 255
191 219 255
191 219 255
191 219 255
191 219 255
191 219 255
191 219 255
191 219 255
191 219 255
191 219 255
191 219 255
191 219 255
191 219 255
191 219 255
191 219 255
191 219 255
191 219 255
191 219 255
191 219 255
191 219 255
191 219 255
191 219 255
191 219 255
191 219 255
191 219 255
191 219 255
191 219 255
191 219 255
191 219 255
191 219 255
191 219 255
191 219 255
191 219 255
191 219 255
191 219 255
191 219 255
191 219 255
191 219 255
191 219 255
191 219 255
191 219 255
191 219 255
191 219 255
191 219 255
191 219 255
191 219 255
191 219 255
191 219 255
191 219 255
191 219 255
191 219 255
191 219 255
191 219 255
191 219 255
191 219 255
191 219 255
191 219 255
191 219 255
191 219 255
191 219 255
191 219 255
191 219 255
191 219 255
191 219 255
191 219 255
191 219 255
191 219 255
191 219 255
191 219 255
191 219 255
191 219 255
191 219 255
191 219 255
191 219 255
191 219 255
191 219 255
191 219 255
191 219 255
191 219 255
191 219 255
191 219 255
191 219 255
191 219 255
191 219 255
191 219 255
191 219 255
191 219 255
191 219 255
191 219 255
191 219 255
191 219 255
191 219 255
191 219 255
191 219 255
191 219 255
191 219 255
191 219 255
191 219 255
191 219 255
191 219 255
191 219 255
191 219 255
191 219 255
191 219 255
191 219 255
191 219 255
191 219 255
191 219 255
191 219 255
191 219 255
191 219 255
191 219 255
191 219 255
191 219 255
191 219 255
191 219 255
191 219 255
191 219 255
191 219 255
191 219 255
191 219 255
191 219 255
191 219 255
191 219 255
191 219 255
191 219 255
191 219 255
191 219 255
191 219 255
191 219 255
191 219 255
191 219 255
191 219 255
191 219 255
191 219 255
191 219 255
191 219 255
191 219 255
191 219 255
191 219 255
191 219 255
191 219 255
191 219 255
191 219 255
191 219 255
191 219 255
191 219 255
191 219 255
191 219 255
191 219 255
191 219 255
191 219 255
191 219 255
191 219 255
191 219 255
191 219 255
191 219 255
191 219 255
191 219 255
191 219 255
191 219 255
191 219 255
191 219 255
191 219 255
191 219 255
191 219 255
191 219 255
191 219 255
191 219 255
191 219 255
191 219 255
191 219 255
191 219 255
191 219 255
191 219 255
191 219 255
191 219 255
191 219 255
191 219 255
191 219 255
191 219 255
191 219 255
191 219 255
191 219 255
191 219 255
191 219 255
191 219 255
191 219 255
191 219 255
191 219 255
191 219 255
191 219 255
191 219 255
191 219 255
191 219 255
191 219 255
191 219 255
191 219 255
191 219 255
191 219 255
191 219 255
191 219 255
191 219 255
191 219 255
191 219 255
191 219 255
191 219 255
191 219 255
191 219 255
191 219 255
191 219 255
191 219 255
191 219 255
191 219 255
191 219 255
191 219 255
191 219 255
191 219 255
191 219 255
192 219 255
192 219 255
192 219 255
192 219 255
192 219 255
192 219 255
192 219 255
192 219 255
192 219 255
192 219 255
192 219 255
192 219 255
192 219 255
192 219 255
192 219 255
192 219 255
192 219 255
192 219 255
192 219 255
192 219 255
192 219 255
192 219 255
192 219 255
192 219 255
192 219 255
192 219 255
192 219 255
192 219 255
192 219 255
192 219 255
192 219 255
192 219 255
192 219 255
192 219 255
192 219 255
192 219 255
192 219 255
192 219 255
192 219 255
192 219 255
192 219 255
192 219 255
192 219 255
192 219 255
192 219 255
192 219 255
192 219 255
192 219 255
192 219 255
192 219 255
192 219 255
192 219 255
192 219 255
192 219 255
192 219 255
192 219 255
192 219 255
192 219 255
192 219 255
192 219 255
192 219 255
192 219 255
192 219 255
192 219 255
192 219 255
192 219 255
192 219 255
192 219 255
192 219 255
192 219 255
192 219 255
192 219 255
192 219 255
192 219 255
192 219 255
192 219 255
192 219 255
192 219 255
192 219 255
192 219 255
192 219 255
192 219 255
192 219 255
192 219 255
192 219 255
192 219 255
192 219 255
192 219 255
192 219 255
192 219 255
192 219 255
192 219 255
192 219 255
192 219 255
192 219 255
192 219 255
192 219 255
192 219 255
192 219 255
192 219 255
192 219 255
192 219 255
192 219 255
192 219 255
192 219 255
192 219 255
192 219 255
192 219 255
192 219 255
192 219 255
192 219 255
192 219 255
192 219 255
192 219 255
192 219 255
192 219 255
192 219 255
192 219 255
192 219 255
192 219 255
192 219 255
192 219 255
192 219 255
192 219 255
192 219 255
192 219 255
192 219 255
192 219 255
192 219 255
192 219 255
192 219 255
192 219 255
192 219 255
192 219 255
192 219 255
192 219 255
192 219 255
192 219 255
192 219 255
192 219 255
192 219 255
192 219 255
192 219 255
192 219 255
192 219 255
192 219 255
192 219 255
192 219 255
192 219 255
192 219 255
192 219 255
192 219 255
192 219 255
192 219 255
192 219 255
192 219 255
192 219 255
192 219 255
192 219 255
192 219 255
192 219 255
192 219 255
192 219 255
192 219 255
192 219 255
192 219 255
192 219 255
192 219 255
192 219 255
192 219 255
192 219 255
192 219 255
192 219 255
192 219 255
192 219 255
192 219 255
192 219 255
192 219 255
192 219 255
192 219 255
192 219 255
192 219 255
192 219 255
192 219 255
192 219 255
192 219 255
192 219 255
192 219 255
192 219 255
192 219 255
192 219 255
192 219 255
192 219 255
192 219 255
192 219 255
192 219 255
192 219 255
192 219 255
192 219 255
192 219 255
192 219 255
192 219 255
192 219 255
192 219 255
192 219 255
192 219 255
192 219 255
192 219 255
192 219 255
192 219 255
192 219 255
192 219 255
192 219 255
192 219 255
192 219 255
192 219 255
192 219 255
192 219 255
192 219 255
192 219 255
192 219 255
192 219 255
192 219 255
192 219 255
192 219 255
192 219 255
192 219 255
192 219 255
192 219 255
192 219 255
192 219 255
192 219 255
192 219 255
192 219 255
192 219 255
192 219 255
192 219 255
192 219 255
192 219 255
192 219 255
192 219 255
192 219 255
192 219 255
192 219 255
192 219 255
192 219 255
192 219 255
192 219 255
192 219 255
192 219 255
192 219 255
192 219 255
192 219 255
192 219 255
192 219 255
192 219 255
192 219 255
192 219 255
192 219 255
192 219 255
192 219 255
192 219 255
192 219 255
192 219 255
192 219 255
192 219 255
192 219 255
192 219 255
192 219 255
192 219 255
192 219 255
192 219 255
192 219 255
192 219 255
192 219 255
192 219 255
192 219 255
192 219 255
192 219 255
192 219 255
192 219 255
192 219 255
192 219 255
192 219 255
192 219 255
192 219 255
192 219 255
192 219 255
192 219 255
192 219 255
192 219 255
192 219 255
192 219 255
192 219 255
192 219 255
192 219 255
192 219 255
192 219 255
192 219 255
192 219 255
192 219 255
192 219 255
192 219 255
192 219 255
192 219 255
192 219 255
192 219 255
192 219 255
192 219 255
192 219 255
192 219 255
192 219 255
192 219 255
192 219 255
192 219 255
192 219 255
192 219 255
192 219 255
192 219 255
192 219 255
192 219 255
192 219 255
192 219 255
192 219 255
192 219 255
192 219 255
192 219 255
192 219 255
192 219 255
192 219 255
192 219 255
192 219 255
192 219 255
192 219 255
192 219 255
192 219 255
192 219 255
192 219 255
192 219 255
192 219 255
192 219 255
192 219 255
192 219 255
192 219 255
192 219 255
192 219 255
192 219 255
192 219 255
192 219 255
192 219 255
192 219 255
192 219 255
192 219 255
192 219 255
192 219 255
192 219 255
192 219 255
192 219 255
192 219 255
192 219 255
192 219 255
192 219 255
192 219 255
192 219 255
192 219 255
192 219 255
192 219 255
192 219 255
192 219 255
192 219 255
192 219 255
192 219 255
192 219 255
192 219 255
192 219 255
192 219 255
192 219 255
192 219 255
192 219 255
192 219 255
192 219 255
192 219 255
192 219 255
192 219 255
192 219 255
192 219 255
192 219 255
192 219 255
192 219 255
192 219 255
192 219 255
192 219 255
192 219 255
192 219 255
192 219 255
192 219 255
192 219 255
192 219 255
192 219 255
192 219 255
192 219 255
192 219 255
192 219 255
192 219 255
192 219 255
192 219 255
192 219 255
192 219 255
192 219 255
192 219 255
192 219 255
192 219 255
192 219 255
192 219 255
192 219 255
192 219 255
192 219 255
192 219 255
192 219 255
192 219 255
192 219 255
192 219 255
192 219 255
192 219 255
192 219 255
192 219 255
192 219 255
192 219 255
192 219 255
192 219 255
192 219 255
192 219 255
192 219 255
192 219 255
192 219 255
192 219 255
192 219 255
192 219 255
192 219 255
192 219 255
192 219 255
192 219 255
192 219 255
192 219 255
192 219 255
192 219 255
192 219 255
192 219 255
192 219 255
192 219 255
192 219 255
192 219 255
192 219 255
192 219 255
192 219 255
192 219 255
192 219 255
192 219 255
192 219 255
192 219 255
192 219 255
192 219 255
192 219 255
192 219 255
192 219 255
192 219 255
192 219 255
192 219 255
192 219 255
192 219 255
192 219 255
192 219 255
192 219 255
192 219 255
192 219 255
192 219 255
192 219 255
192 219 255
192 219 255
192 219 255
192 219 255
192 219 255
192 219 255
192 219 255
192 219 255
192 219 255
192 219 255
192 219 255
192 219 255
192 219 255
192 219 255
192 219 255
192 219 255
192 219 255
192 219 255
192 219 255
192 219 255
192 219 255
192 219 255
192 219 255
192 219 255
192 219 255
192 219 255
192 219 255
192 219 255
192 219 255
192 219 255
192 219 255
192 219 255
192 219 255
192 219 255
192 219 255
192 219 255
192 219 255
192 219 255
192 219 255
192 219 255
192 219 255
192 219 255
192 219 255
192 219 255
192 219 255
192 219 255
192 219 255
192 219 255
192 219 255
192 219 255
192 219 255
192 219 255
192 219 255
192 219 255
192 219 255
192 219 255
192 219 255
192 219 255
192 219 255
192 219 255
192 219 255
192 219 255
192 219 255
192 219 255
192 219 255
192 219 255
192 219 255
192 219 255
192 219 255
192 219 255
192 219 255
192 219 255
192 219 255
192 219 255
192 219 255
192 219 255
192 219 255
192 219 255
192 219 255
192 219 255
192 219 255
192 219 255
192 219 255
192 219 255
192 219 255
192 219 255
192 219 255
192 219 255
192 219 255
192 219 255
192 219 255
192 219 255
192 219 255
192 219 255
192 219 255
192 219 255
192 219 255
192 219 255
192 219 255
192 219 255
192 219 255
192 219 255
192 219 255
192 219 255
192 219 255
192 219 255
192 219 255
192 219 255
192 219 255
192 219 255
192 219 255
192 219 255
192 219 255
192 219 255
192 219 255
192 219 255
192 219 255
192 219 255
192 219 255
192 219 255
192 219 255
192 219 255
192 219 255
192 219 255
192 219 255
192 219 255
192 219 255
192 219 255
192 219 255
192 219 255
192 219 255
192 219 255
192 219 255
192 219 255
192 219 255
192 219 255
192 219 255
192 219 255
192 219 255
192 219 255
192 219 255
192 219 255
192 219 255
192 219 255
192 219 255
192 219 255
192 219 255
192 219 255
192 219 255
192 219 255
192 219 255
192 219 255
192 219 255
192 219 255
192 219 255
192 219 255
192 219 255
192 219 255
192 219 255
192 219 255
192 219 255
192 219 255
192 219 255
192 219 255
192 219 255
192 219 255
192 219 255
192 219 255
192 219 255
192 219 255
192 219 255
192 219 255
192 219 255
192 219 255
192 219 255
192 219 255
192 219 255
192 219 255
192 219 255
192 219 255
192 219 255
192 219 255
192 219 255
192 219 255
192 219 255
192 219 255
192 219 255
192 219 255
192 219 255
192 219 255
192 219 255
192 219 255
192 219 255
192 219 255
192 219 255
192 219 255
192 219 255
192 219 255
192 220 255
192 220 255
192 219 255
192 219 255
192 219 255
192 219 255
192 219 255
192 219 255
192 219 255
192 219 255
192 219 255
192 219 255
192 219 255
192 219 255
192 219 255
192 219 255
192 219 255
192 219 255
192 219 255
192 219 255
192 219 255
192 219 255
192 219 255
192 219 255
192 219 255
192 219 255
192 219 255
192 219 255
192 219 255
192 219 255
192 219 255
192 219 255
192 219 255
192 219 255
192 219 255
192 219 255
192 219 255
192 219 255
192 219 255
192 219 255
192 219 255
192 219 255
192 219 255
192 219 255
192 219 255
192 219 255
192 219 255
192 219 255
192 219 255
192 219 255
192 219 255
192 219 255
192 219 255
192 219 255
192 219 255
192 219 255
192 219 255
192 219 255
192 219 255
192 219 255
192 219 255
192 219 255
192 220 255
192 219 255
192 219 255
192 219 255
192 219 255
192 219 255
192 219 255
192 219 255
192 219 255
192 219 255
192 219 255
192 219 255
192 219 255
192 219 255
192 219 255
192 219 255
192 219 255
192 219 255
192 219 255
192 219 255
192 219 255
192 219 255
192 219 255
192 219 255
192 219 255
192 219 255
192 219 255
192 219 255
192 219 255
192 219 255
192 219 255
192 219 255
192 219 255
192 219 255
192 219 255
192 219 255
192 219 255
192 219 255
192 219 255
192 219 255
192 219 255
192 219 255
192 219 255
192 219 255
192 219 255
192 219 255
192 219 255
192 219 255
192 219 255
192 219 255
192 219 255
192 219 255
192 219 255
192 219 255
192 219 255
192 219 255
192 219 255
192 219 255
192 219 255
192 219 255
192 219 255
192 219 255
192 219 255
193 220 255
193 220 255
193 220 255
193 220 255
193 220 255
193 220 255
193 220 255
193 220 255
193 220 255
193 220 255
193 220 255
193 220 255
193 220 255
193 220 255
193 220 255
193 220 255
193 220 255
193 220 255
193 220 255
193 220 255
193 220 255
193 220 255
193 220 255
193 220 255
193 220 255
193 220 255
193 220 255
193 220 255
193 220 255
193 220 255
193 220 255
193 220 255
193 220 255
193 220 255
193 220 255
193 220 255
193 220 255
193 220 255
193 220 255
193 220 255
193 220 255
193 220 255
193 220 255
193 220 255
193 220 255
193 220 255
193 220 255
193 220 255
193 220 255
193 220 255
193 220 255
193 220 255
193 220 255
193 220 255
193 220 255
193 220 255
193 220 255
193 220 255
193 220 255
193 220 255
193 220 255
193 220 255
193 220 255
193 220 255
193 220 255
193 220 255
193 220 255
193 220 255
193 220 255
193 220 255
193 220 255
193 220 255
193 220 255
193 220 255
193 220 255
193 220 255
193 220 255
193 220 255
193 220 255
193 220 255
193 220 255
193 220 255
193 220 255
193 220 255
193 220 255
193 220 255
193 220 255
193 220 255
193 220 255
193 220 255
193 220 255
193 220 255
193 220 255
193 220 255
193 220 255
193 220 255
193 220 255
193 220 255
193 220 255
193 220 255
193 220 255
193 220 255
193 220 255
193 220 255
193 220 255
193 220 255
193 220 255
193 220 255
193 220 255
193 220 255
193 220 255
193 220 255
193 220 255
193 220 255
193 220 255
193 220 255
193 220 255
193 220 255
193 220 255
193 220 255
193 220 255
193 220 255
193 220 255
193 220 255
193 220 255
193 220 255
193 220 255
193 220 255
193 220 255
193 220 255
193 220 255
193 220 255
193 220 255
193 220 255
193 220 255
193 220 255
193 220 255
193 220 255
193 220 255
193 220 255
193 220 255
193 220 255
193 220 255
193 220 255
193 220 255
193 220 255
193 220 255
193 220 255
193 220 255
193 220 255
193 220 255
193 220 255
193 220 255
193 220 255
193 220 255
193 220 255
193 220 255
193 220 255
193 220 255
193 220 255
193 220 255
193 220 255
193 220 255
193 220 255
193 220 255
193 220 255
193 220 255
193 220 255
193 220 255
193 220 255
193 220 255
193 220 255
193 220 255
193 220 255
193 220 255
193 220 255
193 220 255
193 220 255
193 220 255
193 220 255
193 220 255
193 220 255
193 220 255
193 220 255
193 220 255
193 220 255
193 220 255
193 220 255
193 220 255
193 220 255
193 220 255
193 220 255
193 220 255
193 220 255
193 220 255
193 220 255
193 220 255
193 220 255
193 220 255
193 220 255
193 220 255
193 220 255
193 220 255
193 220 255
193 220 255
193 220 255
193 220 255
193 220 255
193 220 255
193 220 255
193 220 255
193 220 255
193 220 255
193 220 255
193 220 255
193 220 255
193 220 255
193 220 255
193 220 255
193 220 255
193 220 255
193 220 255
193 220 255
193 220 255
193 220 255
193 220 255
193 220 255
193 220 255
193 220 255
193 220 255
193 220 255
193 220 255
193 220 255
193 220 255
193 220 255
193 220 255
193 220 255
193 220 255
193 220 255
193 220 255
193 220 255
193 220 255
193 220 255
193 220 255
193 220 255
193 220 255
193 220 255
193 220 255
193 220 255
193 220 255
193 220 255
193 220 255
193 220 255
193 220 255
193 220 255
193 220 255
193 220 255
193 220 255
193 220 255
193 220 255
193 220 255
193 220 255
193 220 255
193 220 255
193 220 255
193 220 255
193 220 255
193 220 255
193 220 255
193 220 255
193 220 255
193 220 255
193 220 255
193 220 255
193 220 255
193 220 255
193 220 255
193 220 255
193 220 255
193 220 255
193 220 255
193 220 255
193 220 255
193 220 255
193 220 255
193 220 255
193 220 255
193 220 255
193 220 255
193 220 255
193 220 255
193 220 255
193 220 255
193 220 255
193 220 255
193 220 255
193 220 255
193 220 255
193 220 255
193 220 255
193 220 255
193 220 255
193 220 255
193 220 255
193 220 255
193 220 255
193 220 255
193 220 255
193 220 255
193 220 255
193 220 255
193 220 255
193 220 255
193 220 255
193 220 255
193 220 255
193 220 255
193 220 255
193 220 255
193 220 255
193 220 255
193 220 255
193 220 255
193 220 255
193 220 255
193 220 255
193 220 255
193 220 255
193 220 255
193 220 255
193 220 255
193 220 255
193 220 255
193 220 255
193 220 255
193 220 255
193 220 255
193 220 255
193 220 255
193 220 255
193 220 255
193 220 255
193 220 255
193 220 255
193 220 255
193 220 255
193 220 255
193 220 255
193 220 255
193 220 255
193 220 255
193 220 255
193 220 255
193 220 255
193 220 255
193 220 255
193 220 255
193 220 255
193 220 255
193 220 255
193 220 255
193 220 255
193 220 255
193 220 255
193 220 255
193 220 255
193 220 255
193 220 255
193 220 255
193 220 255
193 220 255
193 220 255
193 220 255
193 220 255
193 220 255
193 220 255
193 220 255
193 220 255
193 220 255
193 220 255
193 220 255
193 220 255
193 220 255
193 220 255
193 220 255
193 220 255
193 220 255
193 220 255
193 220 255
193 220 255
193 220 255
193 220 255
193 220 255
193 220 255
193 220 255
193 220 255
193 220 255
193 220 255
193 220 255
193 220 255
193 220 255
193 220 255
193 220 255
193 220 255
193 220 255
193 220 255
193 220 255
193 220 255
193 220 255
193 220 255
193 220 255
193 220 255
193 220 255
193 220 255
193 220 255
193 220 255
193 220 255
193 220 255
193 220 255
193 220 255
193 220 255
193 220 255
193 220 255
193 220 255
193 220 255
193 220 255
193 220 255
193 220 255
193 220 255
193 220 255
193 220 255
193 220 255
193 220 255
193 220 255
193 220 255
193 220 255
193 220 255
193 220 255
193 220 255
193 220 255
193 220 255
193 220 255
193 220 255
193 220 255
193 220 255
193 220 255
193 220 255
193 220 255
193 220 255
193 220 255
193 220 255
193 220 255
193 220 255
193 220 255
193 220 255
193 220 255
193 220 255
193 220 255
193 220 255
193 220 255
193 220 255
193 220 255
193 220 255
193 220 255
193 220 255
193 220 255
193 220 255
193 220 255
193 220 255
193 220 255
193 220 255
193 220 255
193 220 255
193 220 255
193 220 255
193 220 255
193 220 255
193 220 255
193 220 255
193 220 255
193 220 255
193 220 255
193 220 255
193 220 255
193 220 255
193 220 255
193 220 255
193 220 255
193 220 255
193 220 255
193 220 255
193 220 255
193 220 255
193 220 255
193 220 255
193 220 255
193 220 255
193 220 255
193 220 255
193 220 255
193 220 255
193 220 255
193 220 255
193 220 255
193 220 255
193 220 255
193 220 255
193 220 255
193 220 255
193 220 255
193 220 255
193 220 255
193 220 255
193 220 255
193 220 255
193 220 255
193 220 255
193 220 255
193 220 255
193 220 255
193 220 255
193 220 255
193 220 255
193 220 255
193 220 255
193 220 255
193 220 255
193 220 255
193 220 255
193 220 255
193 220 255
193 220 255
193 220 255
193 220 255
193 220 255
193 220 255
193 220 255
193 220 255
193 220 255
193 220 255
193 220 255
193 220 255
193 220 255
193 220 255
193 220 255
193 220 255
193 220 255
193 220 255
193 220 255
193 220 255
193 220 255
193 220 255
193 220 255
193 220 255
193 220 255
193 220 255
193 220 255
193 220 255
193 220 255
193 220 255
193 220 255
193 220 255
193 220 255
193 220 255
193 220 255
193 220 255
193 220 255
193 220 255
193 220 255
193 220 255
193 220 255
193 220 255
193 220 255
193 220 255
193 220 255
193 220 255
193 220 255
193 220 255
193 220 255
193 220 255
193 220 255
193 220 255
193 220 255
193 220 255
193 220 255
193 220 255
193 220 255
193 220 255
193 220 255
193 220 255
193 220 255
193 220 255
193 220 255
193 220 255
193 220 255
193 220 255
193 220 255
193 220 255
193 220 255
193 220 255
193 220 255
193 220 255
193 220 255
193 220 255
193 220 255
193 220 255
193 220 255
193 220 255
193 220 255
193 220 255
193 220 255
193 220 255
193 220 255
193 220 255
193 220 255
193 220 255
193 220 255
193 220 255
193 220 255
193 220 255
193 220 255
193 220 255
193 220 255
193 220 255
193 220 255
193 220 255
193 220 255
193 220 255
193 220 255
193 220 255
193 220 255
193 220 255
193 220 255
193 220 255
193 220 255
193 220 255
193 220 255
193 220 255
193 220 255
193 220 255
193 220 255
193 220 255
193 220 255
193 220 255
193 220 255
193 220 255
193 220 255
193 220 255
193 220 255
193 220 255
193 220 255
193 220 255
193 220 255
193 220 255
193 220 255
193 220 255
193 220 255
193 220 255
193 220 255
193 220 255
193 220 255
193 220 255
193 220 255
193 220 255
193 220 255
193 220 255
193 220 255
193 220 255
193 220 255
193 220 255
193 220 255
193 220 255
193 220 255
193 220 255
193 220 255
193 220 255
193 220 255
193 220 255
193 220 255
193 220 255
193 220 255
193 220 255
193 220 255
193 220 255
193 220 255
193 220 255
193 220 255
193 220 255
193 220 255
193 220 255
193 220 255
193 220 255
193 220 255
193 220 255
193 220 255
193 220 255
193 220 255
193 220 255
193 220 255
193 220 255
193 220 255
193 220 255
193 220 255
193 220 255
193 220 255
193 220 255
193 220 255
193 220 255
193 220 255
193 220 255
193 220 255
193 220 255
193 220 255
193 220 255
193 220 255
193 220 255
193 220 255
193 220 255
193 220 255
193 220 255
193 220 255
193 220 255
193 220 255
193 220 255
193 220 255
193 220 255
193 220 255
193 220 255
193 220 255
193 220 255
193 220 255
193 220 255
193 220 255
193 220 255
193 220 255
193 220 255
193 220 255
193 220 255
193 220 255
193 220 255
193 220 255
193 220 255
193 220 255
193 220 255
193 220 255
193 220 255
193 220 255
193 220 255
193 220 255
193 220 255
193 220 255
193 220 255
193 220 255
193 220 255
193 220 255
193 220 255
193 220 255
193 220 255
193 220 255
193 220 255
193 220 255
193 220 255
193 220 255
193 220 255
193 220 255
193 220 255
193 220 255
193 220 255
193 220 255
193 220 255
193 220 255
193 220 255
193 220 255
193 220 255
193 220 255
193 220 255
193 220 255
193 220 255
193 220 255
193 220 255
193 220 255
193 220 255
193 220 255
193 220 255
193 220 255
193 220 255
193 220 255
193 220 255
193 220 255
193 220 255
193 220 255
193 220 255
193 220 255
193 220 255
193 220 255
193 220 255
193 220 255
193 220 255
193 220 255
193 220 255
193 220 255
193 220 255
193 220 255
193 220 255
193 220 255
193 220 255
193 220 255
193 220 255
193 220 255
193 220 255
193 220 255
193 220 255
193 220 255
193 220 255
193 220 255
193 220 255
193 220 255
193 220 255
193 220 255
193 220 255
193 220 255
193 220 255
193 220 255
193 220 255
193 220 255
193 220 255
193 220 255
193 220 255
193 220 255
193 220 255
193 220 255
193 220 255
193 220 255
193 220 255
193 220 255
193 220 255
193 220 255
193 220 255
193 220 255
193 220 255
193 220 255
193 220 255
193 220 255
193 220 255
193 220 255
193 220 255
193 220 255
193 220 255
193 220 255
193 220 255
193 220 255
193 220 255
193 220 255
193 220 255
193 220 255
193 220 255
193 220 255
193 220 255
193 220 255
193 220 255
193 220 255
193 220 255
193 220 255
193 220 255
193 220 255
193 220 255
193 220 255
193 220 255
193 220 255
193 220 255
193 220 255
193 220 255
193 220 255
193 220 255
193 220 255
193 220 255
193 220 255
193 220 255
193 220 255
193 220 255
193 220 255
193 220 255
193 220 255
193 220 255
193 220 255
193 220 255
193 220 255
193 220 255
193 220 255
193 220 255
193 220 255
193 220 255
193 220 255
193 220 255
193 220 255
193 220 255
193 220 255
193 220 255
193 220 255
193 220 255
193 220 255
193 220 255
193 220 255
193 220 255
193 220 255
193 220 255
193 220 255
193 220 255
193 220 255
193 220 255
193 220 255
193 220 255
193 220 255
193 220 255
193 220 255
193 220 255
193 220 255
193 220 255
193 220 255
193 220 255
193 220 255
193 220 255
193 220 255
193 220 255
193 220 255
193 220 255
193 220 255
193 220 255
193 220 255
193 220 255
193 220 255
193 220 255
193 220 255
193 220 255
193 220 255
193 220 255
193 220 255
193 220 255
193 220 255
193 220 255
193 220 255
193 220 255
193 220 255
193 220 255
193 220 255
193 220 255
193 220 255
193 220 255
193 220 255
193 220 255
193 220 255
193 220 255
193 220 255
193 220 255
193 220 255
193 220 255
193 220 255
193 220 255
193 220 255
193 220 255
193 220 255
193 220 255
193 220 255
193 220 255
193 220 255
193 220 255
193 220 255
193 220 255
193 220 255
193 220 255
193 220 255
193 220 255
193 220 255
193 220 255
193 220 255
193 220 255
193 220 255
193 220 255
193 220 255
193 220 255
193 220 255
193 220 255
193 220 255
193 220 255
193 220 255
193 220 255
193 220 255
193 220 255
193 220 255
193 220 255
193 220 255
193 220 255
193 220 255
193 220 255
193 220 255
193 220 255
193 220 255
193 220 255
193 220 255
193 220 255
193 220 255
193 220 255
193 220 255
193 220 255
193 220 255
193 220 255
193 220 255
193 220 255
193 220 255
193 220 255
193 220 255
193 220 255
193 220 255
193 220 255
193 220 255
193 220 255
193 220 255
193 220 255
193 220 255
193 220 255
193 220 255
193 220 255
193 220 255
193 220 255
193 220 255
193 220 255
193 220 255
193 220 255
193 220 255
193 220 255
193 220 255
193 220 255
193 220 255
193 220 255
193 220 255
193 220 255
193 220 255
193 220 255
193 220 255
193 220 255
193 220 255
193 220 255
193 220 255
193 220 255
193 220 255
193 220 255
193 220 255
193 220 255
193 220 255
193 220 255
193 220 255
193 220 255
193 220 255
193 220 255
193 220 255
193 220 255
193 220 255
193 220 255
193 220 255
193 220 255
193 220 255
193 220 255
193 220 255
193 220 255
193 220 255
193 220 255
193 220 255
193 220 255
193 220 255
193 220 255
193 220 255
193 220 255
193 220 255
193 220 255
193 220 255
193 220 255
193 220 255
193 220 255
193 220 255
193 220 255
193 220 255
193 220 255
193 220 255
193 220 255
193 220 255
193 220 255
193 220 255
193 220 255
193 220 255
193 220 255
193 220 255
193 220 255
193 220 255
193 220 255
193 220 255
193 220 255
193 220 255
193 220 255
193 220 255
193 220 255
193 220 255
193 220 255
193 220 255
193 220 255
193 220 255
193 220 255
193 220 255
193 220 255
193 220 255
193 220 255
193 220 255
193 220 255
193 220 255
193 220 255
193 220 255
193 220 255
193 220 255
193 220 255
193 220 255
193 220 255
193 220 255
193 220 255
193 220 255
193 220 255
193 220 255
193 220 255
193 220 255
193 220 255
193 220 255
193 220 255
193 220 255
193 220 255
193 220 255
193 220 255
193 220 255
193 220 255
193 220 255
193 220 255
193 220 255
193 220 255
193 220 255
193 220 255
193 220 255
193 220 255
193 220 255
193 220 255
193 220 255
193 220 255
193 220 255
193 220 255
193 220 255
193 220 255
193 220 255
193 220 255
193 220 255
193 220 255
193 220 255
193 220 255
193 220 255
193 220 255
193 220 255
193 220 255
193 220 255
193 220 255
193 220 255
193 220 255
193 220 255
193 220 255
193 220 255
193 220 255
193 220 255
193 220 255
193 220 255
193 220 255
193 220 255
193 220 255
193 220 255
193 220 255
193 220 255
193 220 255
193 220 255
193 220 255
193 220 255
193 220 255
193 220 255
193 220 255
193 220 255
193 220 255
193 220 255
193 220 255
193 220 255
193 220 255
193 220 255
193 220 255
193 220 255
193 220 255
193 220 255
193 220 255
193 220 255
193 220 255
194 220 255
194 220 255
194 220 255
194 220 255
194 220 255
194 220 255
194 220 255
194 220 255
194 220 255
194 220 255
194 220 255
194 220 255
194 220 255
194 220 255
194 220 255
194 220 255
194 220 255
194 220 255
194 220 255
194 220 255
194 220 255
194 220 255
194 220 255
194 220 255
194 220 255
194 220 255
194 220 255
194 220 255
194 220 255
194 220 255
194 220 255
194 220 255
194 220 255
194 220 255
194 220 255
194 220 255
194 220 255
194 220 255
194 220 255
194 220 255
194 220 255
194 220 255
194 220 255
194 220 255
194 220 255
194 220 255
194 220 255
194 220 255
194 220 255
194 220 255
194 220 255
194 220 255
194 220 255
194 220 255
194 220 255
194 220 255
194 220 255
194 220 255
194 220 255
194 220 255
194 220 255
194 220 255
194 220 255
194 220 255
194 220 255
194 220 255
194 220 255
194 220 255
194 220 255
194 220 255
194 220 255
194 220 255
194 220 255
194 220 255
194 220 255
194 220 255
194 220 255
194 220 255
194 220 255
194 220 255
194 220 255
194 220 255
194 220 255
194 220 255
194 220 255
194 220 255
194 220 255
194 220 255
194 220 255
194 220 255
194 220 255
194 220 255
194 220 255
194 220 255
194 220 255
194 220 255
194 220 255
194 220 255
194 220 255
194 220 255
194 220 255
194 220 255
194 220 255
194 220 255
194 220 255
194 220 255
194 220 255
194 220 255
194 220 255
194 220 255
194 220 255
194 220 255
194 220 255
194 220 255
194 220 255
194 220 255
194 220 255
194 220 255
194 220 255
194 220 255
194 220 255
194 220 255
194 220 255
194 220 255
194 220 255
194 220 255
194 220 255
194 220 255
194 220 255
194 220 255
194 220 255
194 220 255
194 220 255
194 220 255
194 220 255
194 220 255
194 220 255
194 220 255
194 220 255
194 220 255
194 220 255
194 220 255
194 220 255
194 220 255
194 220 255
194 220 255
194 220 255
194 220 255
194 220 255
194 220 255
194 220 255
194 220 255
194 220 255
194 220 255
194 220 255
194 220 255
194 220 255
194 220 255
194 220 255
194 220 255
194 220 255
194 220 255
194 220 255
194 220 255
194 220 255
194 220 255
194 220 255
194 220 255
194 220 255
194 220 255
194 220 255
194 220 255
194 220 255
194 220 255
194 220 255
194 220 255
194 220 255
194 220 255
194 220 255
194 220 255
194 220 255
194 220 255
194 220 255
194 220 255
194 220 255
194 220 255
194 220 255
194 220 255
194 220 255
194 220 255
194 220 255
194 220 255
194 220 255
194 220 255
194 220 255
194 220 255
194 220 255
194 220 255
194 220 255
194 220 255
194 220 255
194 220 255
194 220 255
194 220 255
194 220 255
194 220 255
194 220 255
194 220 255
194 220 255
194 220 255
194 220 255
194 220 255
194 220 255
194 220 255
194 220 255
194 220 255
194 220 255
194 220 255
194 220 255
194 220 255
194 220 255
194 220 255
194 220 255
194 220 255
194 220 255
194 220 255
194 220 255
194 220 255
194 220 255
194 220 255
194 220 255
194 220 255
194 220 255
194 220 255
194 220 255
194 220 255
194 220 255
194 220 255
194 220 255
194 220 255
194 220 255
194 220 255
194 220 255
194 220 255
194 220 255
194 220 255
194 220 255
194 220 255
194 220 255
194 220 255
194 220 255
194 220 255
194 220 255
194 220 255
194 220 255
194 220 255
194 220 255
194 220 255
194 220 255
194 220 255
194 220 255
194 220 255
194 220 255
194 220 255
194 220 255
194 220 255
194 220 255
194 220 255
194 220 255
194 220 255
194 220 255
194 220 255
194 220 255
194 220 255
194 220 255
194 220 255
194 220 255
194 220 255
194 220 255
194 220 255
194 220 255
194 220 255
194 220 255
194 220 255
194 220 255
194 220 255
194 220 255
194 220 255
194 220 255
194 220 255
194 220 255
194 220 255
194 220 255
194 220 255
194 220 255
194 220 255
194 220 255
194 220 255
194 220 255
194 220 255
194 220 255
194 220 255
194 220 255
194 220 255
194 220 255
194 220 255
194 220 255
194 220 255
194 220 255
194 220 255
194 220 255
194 220 255
194 220 255
194 220 255
194 220 255
194 220 255
194 220 255
194 220 255
194 220 255
194 220 255
194 220 255
194 220 255
194 220 255
194 220 255
194 220 255
194 220 255
194 220 255
194 220 255
194 220 255
194 220 255
194 220 255
194 220 255
194 220 255
194 220 255
194 220 255
194 220 255
194 220 255
194 220 255
194 220 255
194 220 255
194 220 255
194 220 255
194 220 255
194 220 255
194 220 255
194 220 255
194 220 255
194 220 255
194 220 255
194 220 255
194 220 255
194 220 255
194 220 255
194 220 255
194 220 255
194 220 255
194 220 255
194 220 255
194 220 255
194 220 255
194 220 255
194 220 255
194 220 255
194 220 255
194 220 255
194 220 255
194 220 255
194 220 255
194 220 255
194 220 255
194 220 255
194 220 255
194 220 255
194 220 255
194 220 255
194 220 255
194 220 255
194 220 255
194 220 255
194 220 255
194 220 255
194 220 255
194 220 255
194 220 255
194 220 255
194 220 255
194 220 255
194 220 255
194 220 255
194 220 255
194 220 255
194 220 255
194 220 255
194 220 255
194 220 255
194 220 255
194 220 255
194 220 255
194 220 255
194 220 255
194 220 255
194 220 255
194 220 255
194 220 255
194 220 255
194 220 255
194 220 255
194 220 255
194 220 255
194 220 255
194 220 255
194 220 255
194 220 255
194 220 255
194 220 255
194 220 255
194 220 255
194 220 255
194 220 255
194 220 255
194 220 255
194 220 255
194 220 255
194 220 255
194 220 255
194 220 255
194 220 255
194 220 255
194 220 255
194 220 255
194 220 255
194 220 255
194 220 255
194 220 255
194 220 255
194 220 255
194 220 255
194 220 255
194 220 255
194 220 255
194 220 255
194 220 255
194 220 255
194 220 255
194 220 255
194 220 255
194 220 255
194 220 255
194 220 255
194 220 255
194 220 255
194 220 255
194 220 255
194 220 255
194 220 255
194 220 255
194 220 255
194 220 255
194 220 255
194 220 255
194 220 255
194 220 255
194 220 255
194 220 255
194 220 255
194 220 255
194 220 255
194 220 255
194 220 255
194 220 255
194 220 255
194 220 255
194 220 255
194 220 255
194 220 255
194 220 255
194 220 255
194 220 255
194 220 255
194 220 255
194 220 255
194 220 255
194 220 255
194 220 255
194 220 255
194 220 255
194 220 255
194 220 255
194 220 255
194 220 255
194 220 255
194 220 255
194 220 255
194 220 255
194 220 255
194 220 255
194 220 255
194 220 255
194 220 255
194 220 255
194 220 255
194 220 255
194 220 255
194 220 255
194 220 255
194 220 255
194 220 255
194 220 255
194 220 255
194 220 255
194 220 255
194 220 255
194 220 255
194 220 255
194 220 255
194 220 255
194 220 255
194 220 255
194 220 255
194 220 255
194 220 255
194 220 255
194 220 255
194 220 255
194 220 255
194 220 255
194 220 255
194 220 255
194 220 255
194 220 255
194 220 255
194 220 255
194 220 255
194 220 255
194 220 255
194 220 255
194 220 255
194 220 255
194 220 255
194 220 255
194 220 255
194 220 255
194 220 255
194 220 255
194 220 255
194 220 255
194 220 255
194 220 255
194 220 255
194 220 255
194 220 255
194 220 255
194 220 255
194 220 255
194 220 255
194 220 255
194 220 255
194 220 255
194 220 255
194 220 255
194 220 255
194 220 255
194 220 255
194 220 255
194 220 255
194 220 255
194 220 255
194 220 255
194 220 255
194 220 255
194 220 255
194 220 255
194 220 255
194 220 255
194 220 255
194 220 255
194 220 255
194 220 255
194 220 255
194 220 255
194 220 255
194 220 255
194 220 255
194 220 255
194 220 255
194 220 255
194 220 255
194 220 255
194 220 255
194 220 255
194 220 255
194 220 255
194 220 255
194 220 255
194 220 255
194 220 255
194 220 255
194 220 255
194 220 255
194 220 255
194 220 255
194 220 255
194 220 255
194 220 255
194 220 255
194 220 255
194 220 255
194 220 255
194 220 255
194 220 255
194 220 255
194 220 255
194 220 255
194 220 255
194 220 255
194 220 255
194 220 255
194 220 255
194 220 255
194 220 255
194 220 255
194 220 255
194 220 255
194 220 255
194 220 255
194 220 255
194 220 255
194 220 255
194 220 255
194 220 255
194 220 255
194 220 255
194 220 255
194 220 255
194 220 255
194 220 255
194 220 255
194 220 255
194 220 255
194 220 255
194 220 255
194 220 255
194 220 255
194 220 255
194 220 255
194 220 255
194 220 255
194 220 255
194 220 255
194 220 255
194 220 255
194 220 255
194 220 255
194 220 255
194 220 255
194 220 255
194 220 255
194 220 255
194 220 255
194 220 255
194 220 255
194 220 255
194 220 255
194 220 255
194 220 255
194 220 255
194 220 255
194 220 255
194 220 255
194 220 255
194 220 255
194 220 255
194 220 255
194 220 255
194 220 255
194 220 255
194 220 255
194 220 255
194 220 255
194 220 255
194 220 255
194 220 255
194 220 255
194 220 255
194 220 255
194 220 255
194 220 255
194 220 255
194 220 255
194 220 255
194 220 255
194 220 255
194 220 255
194 220 255
194 220 255
194 220 255
194 220 255
194 220 255
194 220 255
194 220 255
194 220 255
194 220 255
194 220 255
194 220 255
194 220 255
194 220 255
194 220 255
194 220 255
194 220 255
194 220 255
194 220 255
194 220 255
194 220 255
194 220 255
194 220 255
194 220 255
194 220 255
194 220 255
194 220 255
194 220 255
194 220 255
194 220 255
194 220 255
194 220 255
194 220 255
194 220 255
194 220 255
194 220 255
194 220 255
194 220 255
194 220 255
194 220 255
194 220 255
194 220 255
194 220 255
194 220 255
194 220 255
194 220 255
194 220 255
194 220 255
194 220 255
194 220 255
194 220 255
194 220 255
194 220 255
194 220 255
194 220 255
194 220 255
194 220 255
194 220 255
194 220 255
194 220 255
194 220 255
194 220 255
194 220 255
194 220 255
194 220 255
194 220 255
194 220 255
194 220 255
194 220 255
194 220 255
194 220 255
194 220 255
194 220 255
194 220 255
194 220 255
194 220 255
194 220 255
194 220 255
194 220 255
194 220 255
194 220 255
194 220 255
194 220 255
194 220 255
194 220 255
194 220 255
194 220 255
194 220 255
194 220 255
194 220 255
194 220 255
194 220 255
194 220 255
194 220 255
194 220 255
194 220 255
194 220 255
194 220 255
194 220 255
194 220 255
194 220 255
194 220 255
194 220 255
194 220 255
194 220 255
194 220 255
194 220 255
194 220 255
194 221 255
194 221 255
194 221 255
194 221 255
194 221 255
194 221 255
194 221 255
194 221 255
194 221 255
194 221 255
194 221 255
194 221 255
194 221 255
194 221 255
194 221 255
194 221 255
194 221 255
194 221 255
194 221 255
194 221 255
194 221 255
194 221 255
194 221 255
194 221 255
194 221 255
194 221 255
194 221 255
194 221 255
194 221 255
194 221 255
194 221 255
194 221 255
194 221 255
194 221 255
194 221 255
194 221 255
194 221 255
194 221 255
194 221 255
194 221 255
194 221 255
194 221 255
194 221 255
194 221 255
194 221 255
194 221 255
194 221 255
194 221 255
194 221 255
194 221 255
194 221 255
194 221 255
194 221 255
194 221 255
194 221 255
194 221 255
194 221 255
194 221 255
194 221 255
194 221 255
194 221 255
194 221 255
194 221 255
194 221 255
194 221 255
194 221 255
194 221 255
194 221 255
194 221 255
194 221 255
194 221 255
194 221 255
194 221 255
194 221 255
194 221 255
194 221 255
194 221 255
194 221 255
194 221 255
194 221 255
194 221 255
194 221 255
194 221 255
194 221 255
194 221 255
194 221 255
194 221 255
194 221 255
194 221 255
194 221 255
194 221 255
194 221 255
194 221 255
194 221 255
194 221 255
194 221 255
194 221 255
194 221 255
194 221 255
194 221 255
194 221 255
194 221 255
194 221 255
194 221 255
194 221 255
194 221 255
194 221 255
194 221 255
194 221 255
194 221 255
194 221 255
194 221 255
194 221 255
194 221 255
194 221 255
194 221 255
194 221 255
194 221 255
194 221 255
194 221 255
194 221 255
194 221 255
194 221 255
194 221 255
194 221 255
194 221 255
194 221 255
194 221 255
194 221 255
194 221 255
194 221 255
194 221 255
194 221 255
194 221 255
194 221 255
194 221 255
194 221 255
194 221 255
194 221 255
194 221 255
194 221 255
194 221 255
194 221 255
194 221 255
194 221 255
194 221 255
194 221 255
194 221 255
194 221 255
194 221 255
194 221 255
194 221 255
194 221 255
194 221 255
194 221 255
194 221 255
194 221 255
194 221 255
194 221 255
194 221 255
194 221 255
194 221 255
194 221 255
194 221 255
194 221 255
194 221 255
194 221 255
194 221 255
194 221 255
194 221 255
194 221 255
194 221 255
194 221 255
194 221 255
194 221 255
194 221 255
194 221 255
194 221 255
194 221 255
194 221 255
194 221 255
194 221 255
194 221 255
194 221 255
194 221 255
194 221 255
194 221 255
194 221 255
194 221 255
194 221 255
194 221 255
194 221 255
194 221 255
194 221 255
194 221 255
194 221 255
194 221 255
194 221 255
194 221 255
194 221 255
194 221 255
194 221 255
194 221 255
194 221 255
194 221 255
194 221 255
194 221 255
194 221 255
194 221 255
194 221 255
194 221 255
194 221 255
194 221 255
194 221 255
194 221 255
194 221 255
194 221 255
194 221 255
194 221 255
194 221 255
194 221 255
194 221 255
194 221 255
194 221 255
194 221 255
194 221 255
194 221 255
194 221 255
194 221 255
194 221 255
194 221 255
194 221 255
194 221 255
194 221 255
194 221 255
194 221 255
194 221 255
194 221 255
194 221 255
194 221 255
194 221 255
194 221 255
194 221 255
194 221 255
194 221 255
194 221 255
194 221 255
194 221 255
194 221 255
194 221 255
194 221 255
194 221 255
194 221 255
194 221 255
194 221 255
194 221 255
194 221 255
194 221 255
194 221 255
194 221 255
194 221 255
194 221 255
194 221 255
194 221 255
194 221 255
194 221 255
194 221 255
194 221 255
194 221 255
194 221 255
194 221 255
194 221 255
194 221 255
194 221 255
194 221 255
194 221 255
194 221 255
194 221 255
194 221 255
194 221 255
194 221 255
194 221 255
194 221 255
194 221 255
194 221 255
194 221 255
194 221 255
194 221 255
194 221 255
194 221 255
194 221 255
194 221 255
194 221 255
194 221 255
194 221 255
194 221 255
194 221 255
194 221 255
194 221 255
194 221 255
194 221 255
194 221 255
194 221 255
194 221 255
194 221 255
194 221 255
194 221 255
194 221 255
194 221 255
194 221 255
194 221 255
194 221 255
194 221 255
194 221 255
194 221 255
194 221 255
194 221 255
194 221 255
194 221 255
194 221 255
194 221 255
194 221 255
194 221 255
194 221 255
194 221 255
194 221 255
194 221 255
194 221 255
194 221 255
194 221 255
194 221 255
194 221 255
194 221 255
194 221 255
194 221 255
194 221 255
194 221 255
194 221 255
194 221 255
194 221 255
194 221 255
194 221 255
194 221 255
194 221 255
194 221 255
194 221 255
194 221 255
194 221 255
194 221 255
194 221 255
194 221 255
194 221 255
194 221 255
194 221 255
194 221 255
194 221 255
194 221 255
194 221 255
194 221 255
194 221 255
194 221 255
194 221 255
194 221 255
194 221 255
194 221 255
194 221 255
194 221 255
194 221 255
194 221 255
194 221 255
194 221 255
194 221 255
194 221 255
194 221 255
194 221 255
194 221 255
194 221 255
194 221 255
194 221 255
194 221 255
194 221 255
194 221 255
194 221 255
194 221 255
194 221 255
194 221 255
194 221 255
194 221 255
194 221 255
194 221 255
194 221 255
194 221 255
194 221 255
194 221 255
194 221 255
194 221 255
194 221 255
194 221 255
194 221 255
194 221 255
195 221 255
195 221 255
195 221 255
195 221 255
195 221 255
195 221 255
195 221 255
195 221 255
195 221 255
195 221 255
195 221 255
195 221 255
195 221 255
195 221 255
195 221 255
195 221 255
195 221 255
195 221 255
195 221 255
195 221 255
195 221 255
195 221 255
195 221 255
195 221 255
195 221 255
195 221 255
195 221 255
195 221 255
195 221 255
195 221 255
195 221 255
195 221 255
195 221 255
195 221 255
195 221 255
195 221 255
195 221 255
195 221 255
195 221 255
195 221 255
195 221 255
195 221 255
195 221 255
195 221 255
195 221 255
195 221 255
195 221 255
195 221 255
195 221 255
195 221 255
195 221 255
195 221 255
195 221 255
195 221 255
195 221 255
195 221 255
195 221 255
195 221 255
195 221 255
195 221 255
195 221 255
195 221 255
195 221 255
195 221 255
195 221 255
195 221 255
195 221 255
195 221 255
195 221 255
195 221 255
195 221 255
195 221 255
195 221 255
195 221 255
195 221 255
195 221 255
195 221 255
195 221 255
195 221 255
195 221 255
195 221 255
195 221 255
195 221 255
195 221 255
195 221 255
195 221 255
195 221 255
195 221 255
195 221 255
195 221 255
195 221 255
195 221 255
195 221 255
195 221 255
195 221 255
195 221 255
195 221 255
195 221 255
195 221 255
195 221 255
195 221 255
195 221 255
195 221 255
195 221 255
195 221 255
195 221 255
195 221 255
195 221 255
195 221 255
195 221 255
195 221 255
195 221 255
195 221 255
195 221 255
195 221 255
195 221 255
195 221 255
195 221 255
195 221 255
195 221 255
195 221 255
195 221 255
195 221 255
195 221 255
195 221 255
195 221 255
195 221 255
195 221 255
195 221 255
195 221 255
195 221 255
195 221 255
195 221 255
195 221 255
195 221 255
195 221 255
195 221 255
195 221 255
195 221 255
195 221 255
195 221 255
195 221 255
195 221 255
195 221 255
195 221 255
195 221 255
195 221 255
195 221 255
195 221 255
195 221 255
195 221 255
195 221 255
195 221 255
195 221 255
195 221 255
195 221 255
195 221 255
195 221 255
195 221 255
195 221 255
195 221 255
195 221 255
195 221 255
195 221 255
195 221 255
195 221 255
195 221 255
195 221 255
195 221 255
195 221 255
195 221 255
195 221 255
195 221 255
195 221 255
195 221 255
195 221 255
195 221 255
195 221 255
195 221 255
195 221 255
195 221 255
195 221 255
195 221 255
195 221 255
195 221 255
195 221 255
195 221 255
195 221 255
195 221 255
195 221 255
195 221 255
195 221 255
195 221 255
195 221 255
195 221 255
195 221 255
195 221 255
195 221 255
195 221 255
195 221 255
195 221 255
195 221 255
195 221 255
195 221 255
195 221 255
195 221 255
195 221 255
195 221 255
195 221 255
195 221 255
195 221 255
195 221 255
195 221 255
195 221 255
195 221 255
195 221 255
195 221 255
195 221 255
195 221 255
195 221 255
195 221 255
195 221 255
195 221 255
195 221 255
195 221 255
195 221 255
195 221 255
195 221 255
195 221 255
195 221 255
195 221 255
195 221 255
195 221 255
195 221 255
195 221 255
195 221 255
195 221 255
195 221 255
195 221 255
195 221 255
195 221 255
195 221 255
195 221 255
195 221 255
195 221 255
195 221 255
195 221 255
195 221 255
195 221 255
195 221 255
195 221 255
195 221 255
195 221 255
195 221 255
195 221 255
195 221 255
195 221 255
195 221 255
195 221 255
195 221 255
195 221 255
195 221 255
195 221 255
195 221 255
195 221 255
195 221 255
195 221 255
195 221 255
195 221 255
195 221 255
195 221 255
195 221 255
195 221 255
195 221 255
195 221 255
195 221 255
195 221 255
195 221 255
195 221 255
195 221 255
195 221 255
195 221 255
195 221 255
195 221 255
195 221 255
195 221 255
195 221 255
195 221 255
195 221 255
195 221 255
195 221 255
195 221 255
195 221 255
195 221 255
195 221 255
195 221 255
195 221 255
195 221 255
195 221 255
195 221 255
195 221 255
195 221 255
195 221 255
195 221 255
195 221 255
195 221 255
195 221 255
195 221 255
195 221 255
195 221 255
195 221 255
195 221 255
195 221 255
195 221 255
195 221 255
195 221 255
195 221 255
195 221 255
195 221 255
195 221 255
195 221 255
195 221 255
195 221 255
195 221 255
195 221 255
195 221 255
195 221 255
195 221 255
195 221 255
195 221 255
195 221 255
195 221 255
195 221 255
195 221 255
195 221 255
195 221 255
195 221 255
195 221 255
195 221 255
195 221 255
195 221 255
195 221 255
195 221 255
195 221 255
195 221 255
195 221 255
195 221 255
195 221 255
195 221 255
195 221 255
195 221 255
195 221 255
195 221 255
195 221 255
195 221 255
195 221 255
195 221 255
195 221 255
195 221 255
195 221 255
195 221 255
195 221 255
195 221 255
195 221 255
195 221 255
195 221 255
195 221 255
195 221 255
195 221 255
195 221 255
195 221 255
195 221 255
195 221 255
195 221 255
195 221 255
195 221 255
195 221 255
195 221 255
195 221 255
195 221 255
195 221 255
195 221 255
195 221 255
195 221 255
195 221 255
195 221 255
195 221 255
195 221 255
195 221 255
195 221 255
195 221 255
195 221 255
195 221 255
195 221 255
195 221 255
195 221 255
195 221 255
195 221 255
195 221 255
195 221 255
195 221 255
195 221 255
195 221 255
195 221 255
195 221 255
195 221 255
195 221 255
195 221 255
195 221 255
195 221 255
195 221 255
195 221 255
195 221 255
195 221 255
195 221 255
195 221 255
195 221 255
195 221 255
195 221 255
195 221 255
195 221 255
195 221 255
195 221 255
195 221 255
195 221 255
195 221 255
195 221 255
195 221 255
195 221 255
195 221 255
195 221 255
195 221 255
195 221 255
195 221 255
195 221 255
195 221 255
195 221 255
195 221 255
195 221 255
195 221 255
195 221 255
195 221 255
195 221 255
195 221 255
195 221 255
195 221 255
195 221 255
195 221 255
195 221 255
195 221 255
195 221 255
195 221 255
195 221 255
195 221 255
195 221 255
195 221 255
195 221 255
195 221 255
195 221 255
195 221 255
195 221 255
195 221 255
195 221 255
195 221 255
195 221 255
195 221 255
195 221 255
195 221 255
195 221 255
195 221 255
195 221 255
195 221 255
195 221 255
195 221 255
195 221 255
195 221 255
195 221 255
195 221 255
195 221 255
195 221 255
195 221 255
195 221 255
195 221 255
195 221 255
195 221 255
195 221 255
195 221 255
195 221 255
195 221 255
195 221 255
195 221 255
195 221 255
195 221 255
195 221 255
195 221 255
195 221 255
195 221 255
195 221 255
195 221 255
195 221 255
195 221 255
195 221 255
195 221 255
195 221 255
195 221 255
195 221 255
195 221 255
195 221 255
195 221 255
195 221 255
195 221 255
195 221 255
195 221 255
195 221 255
195 221 255
195 221 255
195 221 255
195 221 255
195 221 255
195 221 255
195 221 255
195 221 255
195 221 255
195 221 255
195 221 255
195 221 255
195 221 255
195 221 255
195 221 255
195 221 255
195 221 255
195 221 255
195 221 255
195 221 255
195 221 255
195 221 255
195 221 255
195 221 255
195 221 255
195 221 255
195 221 255
195 221 255
195 221 255
195 221 255
195 221 255
195 221 255
195 221 255
195 221 255
195 221 255
195 221 255
195 221 255
195 221 255
195 221 255
195 221 255
195 221 255
195 221 255
195 221 255
195 221 255
195 221 255
195 221 255
195 221 255
195 221 255
195 221 255
195 221 255
195 221 255
195 221 255
195 221 255
195 221 255
195 221 255
195 221 255
195 221 255
195 221 255
195 221 255
195 221 255
195 221 255
195 221 255
195 221 255
195 221 255
195 221 255
195 221 255
195 221 255
195 221 255
195 221 255
195 221 255
195 221 255
195 221 255
195 221 255
195 221 255
195 221 255
195 221 255
195 221 255
195 221 255
195 221 255
195 221 255
195 221 255
195 221 255
195 221 255
195 221 255
195 221 255
195 221 255
195 221 255
195 221 255
195 221 255
195 221 255
195 221 255
195 221 255
195 221 255
195 221 255
195 221 255
195 221 255
195 221 255
195 221 255
195 221 255
195 221 255
195 221 255
195 221 255
195 221 255
195 221 255
195 221 255
195 221 255
195 221 255
195 221 255
195 221 255
195 221 255
195 221 255
195 221 255
195 221 255
195 221 255
195 221 255
195 221 255
195 221 255
195 221 255
195 221 255
195 221 255
195 221 255
195 221 255
195 221 255
195 221 255
195 221 255
195 221 255
195 221 255
195 221 255
195 221 255
195 221 255
195 221 255
195 221 255
195 221 255
195 221 255
195 221 255
195 221 255
195 221 255
195 221 255
195 221 255
195 221 255
195 221 255
195 221 255
195 221 255
195 221 255
195 221 255
195 221 255
195 221 255
195 221 255
195 221 255
195 221 255
195 221 255
195 221 255
195 221 255
195 221 255
195 221 255
195 221 255
195 221 255
195 221 255
195 221 255
195 221 255
195 221 255
195 221 255
195 221 255
195 221 255
195 221 255
195 221 255
195 221 255
195 221 255
195 221 255
195 221 255
195 221 255
195 221 255
195 221 255
195 221 255
195 221 255
195 221 255
195 221 255
195 221 255
195 221 255
195 221 255
195 221 255
195 221 255
195 221 255
195 221 255
195 221 255
195 221 255
195 221 255
195 221 255
195 221 255
195 221 255
195 221 255
195 221 255
195 221 255
195 221 255
195 221 255
195 221 255
195 221 255
195 221 255
195 221 255
195 221 255
195 221 255
195 221 255
195 221 255
195 221 255
195 221 255
195 221 255
195 221 255
195 221 255
195 221 255
195 221 255
195 221 255
195 221 255
195 221 255
195 221 255
195 221 255
195 221 255
195 221 255
195 221 255
195 221 255
195 221 255
195 221 255
195 221 255
195 221 255
195 221 255
195 221 255
195 221 255
195 221 255
195 221 255
195 221 255
195 221 255
195 221 255
195 221 255
195 221 255
195 221 255
195 221 255
195 221 255
195 221 255
195 221 255
195 221 255
195 221 255
195 221 255
195 221 255
195 221 255
195 221 255
195 221 255
195 221 255
195 221 255
195 221 255
195 221 255
195 221 255
195 221 255
195 221 255
195 221 255
195 221 255
195 221 255
195 221 255
195 221 255
195 221 255
195 221 255
195 221 255
195 221 255
195 221 255
195 221 255
195 221 255
195 221 255
195 221 255
195 221 255
195 221 255
195 221 255
195 221 255
195 221 255
195 221 255
195 221 255
195 221 255
195 221 255
195 221 255
195 221 255
195 221 255
195 221 255
195 221 255
195 221 255
195 221 255
195 221 255
195 221 255
195 221 255
195 221 255
196 221 255
196 221 255
196 221 255
196 221 255
196 221 255
196 221 255
196 221 255
196 221 255
196 221 255
196 221 255
196 221 255
196 221 255
196 221 255
196 221 255
196 221 255
196 221 255
196 221 255
196 221 255
196 221 255
196 221 255
196 221 255
196 221 255
196 221 255
196 221 255
196 221 255
196 221 255
196 221 255
196 221 255
196 221 255
196 221 255
196 221 255
196 221 255
196 221 255
196 221 255
196 221 255
196 221 255
196 221 255
196 221 255
196 221 255
196 221 255
196 221 255
196 221 255
196 221 255
196 221 255
196 221 255
196 221 255
196 221 255
196 221 255
196 221 255
196 221 255
196 221 255
196 221 255
196 221 255
196 221 255
196 221 255
196 221 255
196 221 255
196 221 255
196 221 255
196 221 255
196 221 255
196 221 255
196 221 255
196 221 255
196 221 255
196 221 255
196 221 255
196 221 255
196 221 255
196 221 255
196 221 255
196 221 255
196 221 255
196 221 255
196 221 255
196 221 255
196 221 255
196 221 255
196 221 255
196 221 255
196 221 255
196 221 255
196 221 255
196 221 255
196 221 255
196 221 255
196 221 255
196 221 255
196 221 255
196 221 255
196 221 255
196 221 255
196 221 255
196 221 255
196 221 255
196 221 255
196 221 255
196 221 255
196 221 255
196 221 255
196 221 255
196 221 255
196 221 255
196 221 255
196 221 255
196 221 255
196 221 255
196 221 255
196 221 255
196 221 255
196 221 255
196 221 255
196 221 255
196 221 255
196 221 255
196 221 255
196 221 255
196 221 255
196 221 255
196 221 255
196 221 255
196 221 255
196 221 255
196 221 255
196 221 255
196 221 255
196 221 255
196 221 255
196 221 255
196 221 255
196 221 255
196 221 255
196 221 255
196 221 255
196 221 255
196 221 255
196 221 255
196 221 255
196 221 255
196 221 255
196 221 255
196 221 255
196 221 255
196 221 255
196 221 255
196 221 255
196 221 255
196 221 255
196 221 255
196 221 255
196 221 255
196 221 255
196 221 255
196 221 255
196 221 255
196 221 255
196 221 255
196 221 255
196 221 255
196 221 255
196 221 255
196 221 255
196 221 255
196 221 255
196 221 255
196 221 255
196 221 255
196 221 255
196 221 255
196 221 255
196 221 255
196 221 255
196 221 255
196 221 255
196 221 255
196 221 255
196 221 255
196 221 255
196 221 255
196 221 255
196 221 255
196 221 255
196 221 255
196 221 255
196 221 255
196 221 255
196 221 255
196 221 255
196 221 255
196 221 255
196 221 255
196 221 255
196 221 255
196 221 255
196 221 255
196 221 255
196 221 255
196 221 255
196 221 255
196 221 255
196 221 255
196 221 255
196 221 255
196 221 255
196 221 255
196 221 255
196 221 255
196 221 255
196 221 255
196 221 255
196 221 255
196 221 255
196 221 255
196 221 255
196 221 255
196 221 255
196 221 255
196 221 255
196 221 255
196 221 255
196 221 255
196 221 255
196 221 255
196 221 255
196 221 255
196 221 255
196 221 255
196 221 255
196 221 255
196 221 255
196 221 255
196 221 255
196 221 255
196 221 255
196 221 255
196 221 255
196 221 255
196 221 255
196 221 255
196 221 255
196 221 255
196 221 255
196 221 255
196 221 255
196 221 255
196 221 255
196 221 255
196 221 255
196 221 255
196 221 255
196 221 255
196 221 255
196 221 255
196 221 255
196 221 255
196 221 255
196 221 255
196 221 255
196 221 255
196 221 255
196 221 255
196 221 255
196 221 255
196 221 255
196 221 255
196 221 255
196 221 255
196 221 255
196 221 255
196 221 255
196 221 255
196 221 255
196 221 255
196 221 255
196 221 255
196 221 255
196 221 255
196 221 255
196 221 255
196 221 255
196 221 255
196 221 255
196 221 255
196 221 255
196 221 255
196 221 255
196 221 255
196 221 255
196 221 255
196 221 255
196 221 255
196 221 255
196 221 255
196 221 255
196 221 255
196 221 255
196 221 255
196 221 255
196 221 255
196 221 255
196 221 255
196 221 255
196 221 255
196 221 255
196 221 255
196 221 255
196 221 255
196 221 255
196 221 255
196 221 255
196 221 255
196 221 255
196 221 255
196 221 255
196 221 255
196 221 255
196 221 255
196 221 255
196 221 255
196 221 255
196 221 255
196 221 255
196 221 255
196 221 255
196 221 255
196 221 255
196 221 255
196 221 255
196 221 255
196 221 255
196 221 255
196 221 255
196 221 255
196 221 255
196 221 255
196 221 255
196 221 255
196 221 255
196 221 255
196 221 255
196 221 255
196 221 255
196 221 255
196 221 255
196 221 255
196 221 255
196 221 255
196 221 255
196 221 255
196 221 255
196 221 255
196 221 255
196 221 255
196 221 255
196 221 255
196 221 255
196 221 255
196 221 255
196 221 255
196 221 255
196 221 255
196 221 255
196 221 255
196 221 255
196 221 255
196 221 255
196 221 255
196 221 255
196 221 255
196 221 255
196 221 255
196 221 255
196 221 255
196 221 255
196 221 255
196 221 255
196 221 255
196 221 255
196 221 255
196 221 255
196 221 255
196 221 255
196 221 255
196 221 255
196 221 255
196 221 255
196 221 255
196 221 255
196 221 255
196 221 255
196 221 255
196 221 255
196 221 255
196 221 255
196 221 255
196 221 255
196 221 255
196 221 255
196 221 255
196 221 255
196 221 255
196 221 255
196 221 255
196 221 255
196 221 255
196 221 255
196 221 255
196 221 255
196 221 255
196 221 255
196 221 255
196 221 255
196 221 255
196 221 255
196 221 255
196 221 255
196 221 255
196 221 255
196 221 255
196 221 255
196 221 255
196 221 255
196 221 255
196 221 255
196 221 255
196 221 255
196 221 255
196 221 255
196 221 255
196 221 255
196 221 255
196 221 255
196 221 255
196 221 255
196 221 255
196 221 255
196 221 255
196 221 255
196 221 255
196 221 255
196 221 255
196 221 255
196 221 255
196 221 255
196 221 255
196 221 255
196 221 255
196 221 255
196 221 255
196 221 255
196 221 255
196 221 255
196 221 255
196 221 255
196 221 255
196 221 255
196 221 255
196 221 255
196 221 255
196 221 255
196 221 255
196 221 255
196 221 255
196 221 255
196 221 255
196 221 255
196 221 255
196 221 255
196 221 255
196 221 255
196 221 255
196 221 255
196 221 255
196 221 255
196 221 255
196 221 255
196 221 255
196 221 255
196 221 255
196 221 255
196 221 255
196 221 255
196 221 255
196 221 255
196 221 255
196 221 255
196 221 255
196 221 255
196 221 255
196 221 255
196 221 255
196 221 255
196 221 255
196 221 255
196 221 255
196 221 255
196 221 255
196 221 255
196 221 255
196 221 255
196 221 255
196 221 255
196 221 255
196 221 255
196 221 255
196 221 255
196 221 255
196 221 255
196 221 255
196 221 255
196 221 255
196 221 255
196 221 255
196 221 255
196 221 255
196 221 255
196 221 255
196 221 255
196 221 255
196 221 255
196 221 255
196 221 255
196 221 255
196 221 255
196 221 255
196 221 255
196 221 255
196 221 255
196 221 255
196 221 255
196 221 255
196 221 255
196 221 255
196 221 255
196 221 255
196 221 255
196 221 255
196 221 255
196 221 255
196 221 255
196 221 255
196 221 255
196 221 255
196 221 255
196 221 255
196 221 255
196 221 255
196 221 255
196 221 255
196 221 255
196 221 255
196 221 255
196 221 255
196 221 255
196 221 255
196 221 255
196 221 255
196 221 255
196 221 255
196 221 255
196 221 255
196 221 255
196 221 255
196 221 255
196 221 255
196 221 255
196 221 255
196 221 255
196 221 255
196 221 255
196 221 255
196 221 255
196 221 255
196 221 255
196 221 255
196 221 255
196 221 255
196 221 255
196 221 255
196 221 255
196 221 255
196 221 255
196 221 255
196 221 255
196 221 255
196 221 255
196 221 255
196 221 255
196 221 255
196 221 255
196 221 255
196 221 255
196 221 255
196 221 255
196 221 255
196 221 255
196 221 255
196 221 255
196 221 255
196 221 255
196 221 255
196 221 255
196 221 255
196 221 255
196 221 255
196 221 255
196 221 255
196 221 255
196 221 255
196 221 255
196 221 255
196 221 255
196 221 255
196 221 255
196 221 255
196 221 255
196 221 255
196 221 255
196 221 255
196 221 255
196 221 255
196 221 255
196 221 255
196 221 255
196 221 255
196 221 255
196 221 255
196 221 255
196 221 255
196 221 255
196 221 255
196 221 255
196 221 255
196 221 255
196 221 255
196 221 255
196 221 255
196 221 255
196 221 255
196 221 255
196 221 255
196 221 255
196 221 255
196 221 255
196 221 255
196 221 255
196 221 255
196 221 255
196 221 255
196 221 255
196 221 255
196 221 255
196 221 255
196 221 255
196 221 255
196 221 255
196 221 255
196 221 255
196 221 255
196 221 255
196 221 255
196 221 255
196 221 255
196 221 255
196 221 255
196 221 255
196 221 255
196 221 255
196 221 255
196 221 255
196 221 255
196 221 255
196 221 255
196 221 255
196 221 255
196 221 255
196 221 255
196 221 255
196 221 255
196 221 255
196 221 255
196 221 255
196 221 255
196 221 255
196 221 255
196 221 255
196 221 255
196 221 255
196 221 255
196 221 255
196 221 255
196 221 255
196 221 255
196 221 255
196 221 255
196 221 255
196 221 255
196 221 255
196 221 255
196 221 255
196 221 255
196 221 255
196 221 255
196 221 255
196 221 255
196 221 255
196 221 255
196 221 255
196 221 255
196 221 255
196 221 255
196 221 255
196 221 255
196 221 255
196 221 255
196 221 255
196 221 255
196 221 255
196 221 255
196 221 255
196 221 255
196 221 255
196 221 255
196 221 255
196 221 255
196 221 255
196 221 255
196 221 255
196 221 255
196 221 255
196 221 255
196 221 255
196 221 255
196 221 255
196 221 255
196 221 255
196 221 255
196 221 255
196 221 255
196 221 255
196 221 255
196 221 255
196 221 255
196 221 255
196 221 255
196 221 255
196 221 255
196 221 255
196 221 255
196 221 255
196 221 255
196 221 255
196 221 255
196 221 255
196 221 255
196 221 255
196 221 255
196 221 255
196 221 255
196 221 255
196 221 255
196 221 255
196 221 255
196 221 255
196 221 255
196 221 255
196 221 255
196 221 255
196 221 255
196 221 255
196 221 255
196 221 255
196 221 255
196 221 255
196 221 255
196 221 255
196 221 255
196 221 255
196 221 255
196 221 255
196 221 255
196 221 255
196 221 255
196 221 255
196 221 255
196 221 255
196 221 255
196 221 255
196 221 255
196 221 255
196 221 255
196 221 255
196 221 255
196 221 255
196 221 255
196 221 255
196 221 255
196 221 255
196 221 255
196 221 255
196 222 255
196 222 255
196 222 255
196 222 255
196 222 255
196 222 255
196 222 255
196 222 255
196 222 255
196 222 255
196 222 255
196 222 255
196 222 255
196 222 255
196 222 255
196 222 255
196 222 255
196 222 255
196 222 255
196 222 255
196 222 255
196 222 255
196 222 255
196 222 255
196 222 255
196 222 255
196 222 255
196 222 255
196 222 255
196 222 255
196 222 255
196 222 255
196 222 255
196 222 255
196 222 255
196 222 255
196 222 255
196 222 255
196 222 255
196 222 255
196 222 255
196 222 255
196 222 255
196 222 255
196 222 255
196 222 255
196 222 255
196 222 255
196 222 255
196 222 255
196 222 255
196 222 255
196 222 255
196 222 255
196 222 255
196 222 255
196 222 255
196 222 255
196 222 255
196 222 255
196 222 255
196 222 255
196 222 255
196 222 255
196 222 255
196 222 255
196 222 255
196 222 255
196 222 255
196 222 255
196 222 255
196 222 255
196 222 255
196 222 255
196 222 255
196 222 255
196 222 255
196 222 255
196 222 255
196 222 255
196 222 255
196 222 255
196 222 255
196 222 255
196 222 255
196 222 255
196 222 255
196 222 255
196 222 255
196 222 255
196 222 255
196 222 255
196 222 255
196 222 255
196 222 255
196 222 255
196 222 255
196 222 255
196 222 255
196 222 255
196 222 255
196 222 255
196 222 255
196 222 255
196 222 255
196 222 255
196 222 255
196 222 255
196 222 255
196 222 255
196 222 255
196 222 255
196 222 255
196 222 255
196 222 255
196 222 255
196 222 255
196 222 255
196 222 255
196 222 255
196 222 255
196 222 255
196 222 255
196 222 255
196 222 255
196 222 255
196 222 255
196 222 255
196 222 255
196 222 255
196 222 255
196 222 255
196 222 255
196 222 255
196 222 255
196 222 255
196 222 255
196 222 255
196 222 255
196 222 255
196 222 255
196 222 255
196 222 255
196 222 255
196 222 255
196 222 255
196 222 255
196 222 255
196 222 255
196 222 255
196 222 255
196 222 255
196 222 255
196 222 255
196 222 255
196 222 255
196 222 255
196 222 255
196 222 255
196 222 255
196 222 255
196 222 255
196 222 255
196 222 255
196 222 255
196 222 255
196 222 255
196 222 255
196 222 255
196 222 255
196 222 255
196 222 255
196 222 255
196 222 255
196 222 255
196 222 255
196 222 255
196 222 255
196 222 255
196 222 255
196 222 255
196 222 255
196 222 255
196 222 255
196 222 255
196 222 255
196 222 255
196 222 255
196 222 255
196 222 255
196 222 255
196 222 255
196 222 255
196 222 255
196 222 255
196 222 255
196 222 255
196 222 255
196 222 255
196 222 255
196 222 255
196 222 255
196 222 255
196 222 255
196 222 255
196 222 255
196 222 255
196 222 255
196 222 255
196 222 255
196 222 255
196 222 255
196 222 255
196 222 255
196 222 255
196 222 255
196 222 255
196 222 255
196 222 255
196 222 255
196 222 255
196 222 255
196 222 255
196 222 255
196 222 255
196 222 255
196 222 255
196 222 255
196 222 255
196 222 255
196 222 255
196 222 255
196 222 255
196 222 255
196 222 255
196 222 255
196 222 255
196 222 255
196 222 255
196 222 255
196 222 255
196 222 255
196 222 255
196 222 255
196 222 255
196 222 255
196 222 255
196 222 255
196 222 255
196 222 255
196 222 255
196 222 255
196 222 255
196 222 255
196 222 255
196 222 255
196 222 255
196 222 255
196 222 255
196 222 255
196 222 255
196 222 255
196 222 255
196 222 255
196 222 255
196 222 255
196 222 255
196 222 255
196 222 255
196 222 255
196 222 255
196 222 255
196 222 255
196 222 255
196 222 255
196 222 255
196 222 255
196 222 255
196 222 255
196 222 255
196 222 255
196 222 255
196 222 255
196 222 255
196 222 255
196 222 255
196 222 255
196 222 255
196 222 255
196 222 255
196 222 255
196 222 255
196 222 255
196 222 255
196 222 255
196 222 255
196 222 255
196 222 255
196 222 255
196 222 255
196 222 255
196 222 255
196 222 255
196 222 255
196 222 255
196 222 255
196 222 255
196 222 255
196 222 255
196 222 255
196 222 255
196 222 255
196 222 255
196 222 255
196 222 255
196 222 255
196 222 255
196 222 255
196 222 255
196 222 255
196 222 255
196 222 255
196 222 255
196 222 255
196 222 255
196 222 255
196 222 255
196 222 255
196 222 255
196 222 255
196 222 255
196 222 255
196 222 255
196 222 255
196 222 255
196 222 255
196 222 255
196 222 255
196 222 255
196 222 255
196 222 255
196 222 255
196 222 255
196 222 255
196 222 255
196 222 255
196 222 255
196 222 255
196 222 255
196 222 255
196 222 255
196 222 255
196 222 255
196 222 255
196 222 255
196 222 255
196 222 255
196 222 255
196 222 255
196 222 255
196 222 255
196 222 255
196 222 255
196 222 255
196 222 255
196 222 255
196 222 255
196 222 255
196 222 255
196 222 255
196 222 255
196 222 255
196 222 255
196 222 255
196 222 255
196 222 255
196 222 255
196 222 255
196 222 255
196 222 255
196 222 255
196 222 255
196 222 255
196 222 255
196 222 255
196 222 255
196 222 255
196 222 255
196 222 255
196 222 255
196 222 255
196 222 255
196 222 255
196 222 255
196 222 255
196 222 255
196 222 255
196 222 255
196 222 255
196 222 255
197 222 255
197 222 255
197 222 255
197 222 255
197 222 255
197 222 255
197 222 255
197 222 255
197 222 255
197 222 255
197 222 255
197 222 255
197 222 255
197 222 255
197 222 255
197 222 255
197 222 255
197 222 255
197 222 255
197 222 255
197 222 255
197 222 255
197 222 255
197 222 255
197 222 255
197 222 255
197 222 255
197 222 255
197 222 255
197 222 255
197 222 255
197 222 255
197 222 255
197 222 255
197 222 255
197 222 255
197 222 255
197 222 255
197 222 255
197 222 255
197 222 255
197 222 255
197 222 255
197 222 255
197 222 255
197 222 255
197 222 255
197 222 255
197 222 255
197 222 255
197 222 255
197 222 255
197 222 255
197 222 255
197 222 255
197 222 255
197 222 255
197 222 255
197 222 255
197 222 255
197 222 255
197 222 255
197 222 255
197 222 255
197 222 255
197 222 255
197 222 255
197 222 255
197 222 255
197 222 255
197 222 255
197 222 255
197 222 255
197 222 255
197 222 255
197 222 255
197 222 255
197 222 255
197 222 255
197 222 255
197 222 255
197 222 255
197 222 255
197 222 255
197 222 255
197 222 255
197 222 255
197 222 255
197 222 255
197 222 255
197 222 255
197 222 255
197 222 255
197 222 255
197 222 255
197 222 255
197 222 255
197 222 255
197 222 255
197 222 255
197 222 255
197 222 255
197 222 255
197 222 255
197 222 255
197 222 255
197 222 255
197 222 255
197 222 255
197 222 255
197 222 255
197 222 255
197 222 255
197 222 255
197 222 255
197 222 255
197 222 255
197 222 255
197 222 255
197 222 255
197 222 255
197 222 255
197 222 255
197 222 255
197 222 255
197 222 255
197 222 255
197 222 255
197 222 255
197 222 255
197 222 255
197 222 255
197 222 255
197 222 255
197 222 255
197 222 255
197 222 255
197 222 255
197 222 255
197 222 255
197 222 255
197 222 255
197 222 255
197 222 255
197 222 255
197 222 255
197 222 255
197 222 255
197 222 255
197 222 255
197 222 255
197 222 255
197 222 255
197 222 255
197 222 255
197 222 255
197 222 255
197 222 255
197 222 255
197 222 255
197 222 255
197 222 255
197 222 255
197 222 255
197 222 255
197 222 255
197 222 255
197 222 255
197 222 255
197 222 255
197 222 255
197 222 255
197 222 255
197 222 255
197 222 255
197 222 255
197 222 255
197 222 255
197 222 255
197 222 255
197 222 255
197 222 255
197 222 255
197 222 255
197 222 255
197 222 255
197 222 255
197 222 255
197 222 255
197 222 255
197 222 255
197 222 255
197 222 255
197 222 255
197 222 255
197 222 255
197 222 255
197 222 255
197 222 255
197 222 255
197 222 255
197 222 255
197 222 255
197 222 255
197 222 255
197 222 255
197 222 255
197 222 255
197 222 255
197 222 255
197 222 255
197 222 255
197 222 255
197 222 255
197 222 255
197 222 255
197 222 255
197 222 255
197 222 255
197 222 255
197 222 255
197 222 255
197 222 255
197 222 255
197 222 255
197 222 255
197 222 255
197 222 255
197 222 255
197 222 255
197 222 255
197 222 255
197 222 255
197 222 255
197 222 255
197 222 255
197 222 255
197 222 255
197 222 255
197 222 255
197 222 255
197 222 255
197 222 255
197 222 255
197 222 255
197 222 255
197 222 255
197 222 255
197 222 255
197 222 255
197 222 255
197 222 255
197 222 255
197 222 255
197 222 255
197 222 255
197 222 255
197 222 255
197 222 255
197 222 255
197 222 255
197 222 255
197 222 255
197 222 255
197 222 255
197 222 255
197 222 255
197 222 255
197 222 255
197 222 255
197 222 255
197 222 255
197 222 255
197 222 255
197 222 255
197 222 255
197 222 255
197 222 255
197 222 255
197 222 255
197 222 255
197 222 255
197 222 255
197 222 255
197 222 255
197 222 255
197 222 255
197 222 255
197 222 255
197 222 255
197 222 255
197 222 255
197 222 255
197 222 255
197 222 255
197 222 255
197 222 255
197 222 255
197 222 255
197 222 255
197 222 255
197 222 255
197 222 255
197 222 255
197 222 255
197 222 255
197 222 255
197 222 255
197 222 255
197 222 255
197 222 255
197 222 255
197 222 255
197 222 255
197 222 255
197 222 255
197 222 255
197 222 255
197 222 255
197 222 255
197 222 255
197 222 255
197 222 255
197 222 255
197 222 255
197 222 255
197 222 255
197 222 255
197 222 255
197 222 255
197 222 255
197 222 255
197 222 255
197 222 255
197 222 255
197 222 255
197 222 255
197 222 255
197 222 255
197 222 255
197 222 255
197 222 255
197 222 255
197 222 255
197 222 255
197 222 255
197 222 255
197 222 255
197 222 255
197 222 255
197 222 255
197 222 255
197 222 255
197 222 255
197 222 255
197 222 255
197 222 255
197 222 255
197 222 255
197 222 255
197 222 255
197 222 255
197 222 255
197 222 255
197 222 255
197 222 255
197 222 255
197 222 255
197 222 255
197 222 255
197 222 255
197 222 255
197 222 255
197 222 255
197 222 255
197 222 255
197 222 255
197 222 255
197 222 255
197 222 255
197 222 255
197 222 255
197 222 255
197 222 255
197 222 255
197 222 255
197 222 255
197 222 255
197 222 255
197 222 255
197 222 255
197 222 255
197 222 255
197 222 255
197 222 255
197 222 255
197 222 255
197 222 255
197 222 255
197 222 255
197 222 255
197 222 255
197 222 255
197 222 255
197 222 255
197 222 255
197 222 255
197 222 255
197 222 255
197 222 255
197 222 255
197 222 255
197 222 255
197 222 255
197 222 255
197 222 255
197 222 255
197 222 255
197 222 255
197 222 255
197 222 255
197 222 255
197 222 255
197 222 255
197 222 255
197 222 255
197 222 255
197 222 255
197 222 255
197 222 255
197 222 255
197 222 255
197 222 255
197 222 255
197 222 255
197 222 255
197 222 255
197 222 255
197 222 255
197 222 255
197 222 255
197 222 255
197 222 255
197 222 255
197 222 255
197 222 255
197 222 255
197 222 255
197 222 255
197 222 255
197 222 255
197 222 255
197 222 255
197 222 255
197 222 255
197 222 255
197 222 255
197 222 255
197 222 255
197 222 255
197 222 255
197 222 255
197 222 255
197 222 255
197 222 255
197 222 255
197 222 255
197 222 255
197 222 255
197 222 255
197 222 255
197 222 255
197 222 255
197 222 255
197 222 255
197 222 255
197 222 255
197 222 255
197 222 255
197 222 255
197 222 255
197 222 255
197 222 255
197 222 255
197 222 255
197 222 255
197 222 255
197 222 255
197 222 255
197 222 255
197 222 255
197 222 255
197 222 255
197 222 255
197 222 255
197 222 255
197 222 255
197 222 255
197 222 255
197 222 255
197 222 255
197 222 255
197 222 255
197 222 255
197 222 255
197 222 255
197 222 255
197 222 255
197 222 255
197 222 255
197 222 255
197 222 255
197 222 255
197 222 255
197 222 255
197 222 255
197 222 255
197 222 255
197 222 255
197 222 255
197 222 255
197 222 255
197 222 255
197 222 255
197 222 255
197 222 255
197 222 255
197 222 255
197 222 255
197 222 255
197 222 255
197 222 255
197 222 255
197 222 255
197 222 255
197 222 255
197 222 255
197 222 255
197 222 255
197 222 255
197 222 255
197 222 255
197 222 255
197 222 255
197 222 255
197 222 255
197 222 255
197 222 255
197 222 255
197 222 255
197 222 255
197 222 255
197 222 255
197 222 255
197 222 255
197 222 255
197 222 255
197 222 255
197 222 255
197 222 255
197 222 255
197 222 255
197 222 255
197 222 255
197 222 255
197 222 255
197 222 255
197 222 255
197 222 255
197 222 255
197 222 255
197 222 255
197 222 255
197 222 255
197 222 255
197 222 255
197 222 255
197 222 255
197 222 255
197 222 255
197 222 255
197 222 255
197 222 255
197 222 255
197 222 255
197 222 255
197 222 255
197 222 255
197 222 255
197 222 255
197 222 255
197 222 255
197 222 255
197 222 255
197 222 255
197 222 255
197 222 255
197 222 255
197 222 255
197 222 255
197 222 255
197 222 255
197 222 255
197 222 255
197 222 255
197 222 255
197 222 255
197 222 255
197 222 255
197 222 255
197 222 255
197 222 255
197 222 255
197 222 255
197 222 255
197 222 255
197 222 255
197 222 255
197 222 255
197 222 255
197 222 255
197 222 255
197 222 255
197 222 255
197 222 255
197 222 255
197 222 255
197 222 255
197 222 255
197 222 255
197 222 255
197 222 255
197 222 255
197 222 255
197 222 255
197 222 255
197 222 255
197 222 255
197 222 255
197 222 255
197 222 255
197 222 255
197 222 255
197 222 255
197 222 255
197 222 255
197 222 255
197 222 255
197 222 255
197 222 255
197 222 255
197 222 255
197 222 255
197 222 255
197 222 255
197 222 255
197 222 255
197 222 255
197 222 255
197 222 255
197 222 255
197 222 255
197 222 255
197 222 255
197 222 255
197 222 255
197 222 255
197 222 255
197 222 255
197 222 255
197 222 255
197 222 255
197 222 255
197 222 255
197 222 255
197 222 255
197 222 255
197 222 255
197 222 255
197 222 255
197 222 255
197 222 255
197 222 255
197 222 255
197 222 255
197 222 255
197 222 255
197 222 255
197 222 255
197 222 255
197 222 255
197 222 255
197 222 255
197 222 255
197 222 255
197 222 255
197 222 255
197 222 255
197 222 255
197 222 255
197 222 255
197 222 255
197 222 255
197 222 255
197 222 255
197 222 255
197 222 255
197 222 255
197 222 255
197 222 255
197 222 255
197 222 255
197 222 255
197 222 255
197 222 255
197 222 255
197 222 255
197 222 255
197 222 255
197 222 255
197 222 255
197 222 255
197 222 255
197 222 255
197 222 255
197 222 255
197 222 255
197 222 255
197 222 255
197 222 255
197 222 255
197 222 255
197 222 255
197 222 255
197 222 255
197 222 255
197 222 255
197 222 255
197 222 255
197 222 255
197 222 255
197 222 255
197 222 255
197 222 255
197 222 255
197 222 255
197 222 255
197 222 255
197 222 255
197 222 255
197 222 255
197 222 255
197 222 255
197 222 255
197 222 255
197 222 255
197 222 255
197 222 255
197 222 255
197 222 255
197 222 255
197 222 255
197 222 255
197 222 255
197 222 255
197 222 255
197 222 255
197 222 255
197 222 255
197 222 255
197 222 255
197 222 255
197 222 255
197 222 255
197 222 255
197 222 255
197 222 255
197 222 255
197 222 255
197 222 255
197 222 255
197 222 255
197 222 255
197 222 255
197 222 255
197 222 255
197 222 255
197 222 255
197 222 255
197 222 255
197 222 255
197 222 255
197 222 255
197 222 255
197 222 255
197 222 255
197 222 255
197 222 255
197 222 255
197 222 255
197 222 255
197 222 255
197 222 255
197 222 255
197 222 255
197 222 255
197 222 255
197 222 255
197 222 255
197 222 255
197 222 255
197 222 255
197 222 255
197 222 255
197 222 255
197 222 255
197 222 255
197 222 255
197 222 255
197 222 255
197 222 255
197 222 255
197 222 255
197 222 255
197 222 255
197 222 255
197 222 255
197 222 255
197 222 255
197 222 255
197 222 255
197 222 255
197 222 255
197 222 255
197 222 255
197 222 255
197 222 255
197 222 255
197 222 255
197 222 255
197 222 255
197 222 255
197 222 255
197 222 255
197 222 255
197 222 255
197 222 255
197 222 255
197 222 255
197 222 255
197 222 255
197 222 255
197 222 255
197 222 255
197 222 255
197 222 255
197 222 255
197 222 255
197 222 255
197 222 255
197 222 255
197 222 255
197 222 255
197 222 255
197 222 255
197 222 255
197 222 255
197 222 255
197 222 255
197 222 255
197 222 255
197 222 255
197 222 255
197 222 255
197 222 255
197 222 255
197 222 255
197 222 255
197 222 255
197 222 255
197 222 255
197 222 255
197 222 255
197 222 255
197 222 255
197 222 255
197 222 255
197 222 255
197 222 255
197 222 255
197 222 255
197 222 255
197 222 255
197 222 255
197 222 255
197 222 255
197 222 255
197 222 255
197 222 255
197 222 255
197 222 255
197 222 255
197 222 255
197 222 255
197 222 255
197 222 255
197 222 255
197 222 255
197 222 255
197 222 255
197 222 255
197 222 255
197 222 255
197 222 255
197 222 255
197 222 255
197 222 255
197 222 255
197 222 255
197 222 255
197 222 255
197 222 255
197 222 255
197 222 255
197 222 255
197 222 255
197 222 255
197 222 255
197 222 255
197 222 255
197 222 255
197 222 255
197 222 255
197 222 255
197 222 255
197 222 255
197 222 255
197 222 255
197 222 255
197 222 255
197 222 255
197 222 255
197 222 255
197 222 255
197 222 255
197 222 255
197 222 255
197 222 255
197 222 255
197 222 255
197 222 255
197 222 255
197 222 255
197 222 255
197 222 255
197 222 255
197 222 255
197 222 255
197 222 255
197 222 255
197 222 255
197 222 255
197 222 255
197 222 255
197 222 255
197 222 255
197 222 255
197 222 255
197 222 255
197 222 255
197 222 255
197 222 255
197 222 255
197 222 255
197 222 255
197 222 255
197 222 255
197 222 255
197 222 255
197 222 255
197 222 255
197 222 255
197 222 255
197 222 255
197 222 255
197 222 255
197 222 255
197 222 255
197 222 255
197 222 255
197 222 255
197 222 255
197 222 255
197 222 255
197 222 255
197 222 255
197 222 255
197 222 255
197 222 255
197 222 255
197 222 255
197 222 255
197 222 255
197 222 255
197 222 255
197 222 255
197 222 255
197 222 255
197 222 255
197 222 255
197 222 255
197 222 255
197 222 255
197 222 255
197 222 255
197 222 255
197 222 255
197 222 255
197 222 255
197 222 255
197 222 255
197 222 255
197 222 255
197 222 255
197 222 255
197 222 255
197 222 255
197 222 255
197 222 255
197 222 255
197 222 255
197 222 255
197 222 255
197 222 255
197 222 255
197 222 255
197 222 255
197 222 255
197 222 255
197 222 255
197 222 255
197 222 255
197 222 255
197 222 255
197 222 255
197 222 255
197 222 255
197 222 255
197 222 255
197 222 255
197 222 255
197 222 255
197 222 255
197 222 255
197 222 255
197 222 255
197 222 255
197 222 255
197 222 255
197 222 255
197 222 255
197 222 255
197 222 255
197 222 255
197 222 255
197 222 255
197 222 255
197 222 255
197 222 255
197 222 255
197 222 255
197 222 255
197 222 255
197 222 255
197 222 255
197 222 255
197 222 255
197 222 255
197 222 255
197 222 255
197 222 255
197 222 255
197 222 255
197 222 255
197 222 255
197 222 255
197 222 255
197 222 255
197 222 255
197 222 255
197 222 255
197 222 255
197 222 255
197 222 255
197 222 255
197 222 255
197 222 255
197 222 255
197 222 255
197 222 255
197 222 255
197 222 255
197 222 255
197 222 255
197 222 255
197 222 255
197 222 255
197 222 255
197 222 255
197 222 255
197 222 255
197 222 255
197 222 255
197 222 255
197 222 255
197 222 255
197 222 255
197 222 255
197 222 255
197 222 255
197 222 255
197 222 255
197 222 255
197 222 255
197 222 255
197 222 255
197 222 255
197 222 255
197 222 255
197 222 255
197 222 255
197 222 255
197 222 255
197 222 255
197 222 255
197 222 255
197 222 255
197 222 255
197 222 255
197 222 255
197 222 255
197 222 255
197 222 255
197 222 255
197 222 255
197 222 255
197 222 255
197 222 255
197 222 255
197 222 255
197 222 255
197 222 255
197 222 255
197 222 255
197 222 255
197 222 255
197 222 255
197 222 255
197 222 255
197 222 255
197 222 255
197 222 255
197 222 255
197 222 255
197 222 255
197 222 255
197 222 255
197 222 255
197 222 255
197 222 255
197 222 255
197 222 255
197 222 255
197 222 255
197 222 255
197 222 255
197 222 255
197 222 255
197 222 255
197 222 255
197 222 255
197 222 255
197 222 255
197 222 255
197 222 255
197 222 255
197 222 255
197 222 255
197 222 255
197 222 255
197 222 255
197 222 255
197 222 255
197 222 255
197 222 255
197 222 255
197 222 255
197 222 255
197 222 255
197 222 255
198 222 255
198 222 255
198 222 255
198 222 255
198 222 255
198 222 255
198 222 255
198 222 255
198 222 255
198 222 255
198 222 255
198 222 255
198 222 255
198 222 255
198 222 255
198 222 255
198 222 255
198 222 255
198 222 255
198 222 255
198 222 255
198 222 255
198 222 255
198 222 255
198 222 255
198 222 255
198 222 255
198 222 255
198 222 255
198 222 255
198 222 255
198 222 255
198 222 255
198 222 255
198 222 255
198 222 255
198 222 255
198 222 255
198 222 255
198 222 255
198 222 255
198 222 255
198 222 255
198 222 255
198 222 255
198 222 255
198 222 255
198 222 255
198 222 255
198 222 255
198 222 255
198 222 255
198 222 255
198 222 255
198 222 255
198 222 255
198 222 255
198 222 255
198 222 255
198 222 255
198 222 255
198 222 255
198 222 255
198 222 255
198 222 255
198 222 255
198 222 255
198 222 255
198 222 255
198 222 255
198 222 255
198 222 255
198 222 255
198 222 255
198 222 255
198 222 255
198 222 255
198 222 255
198 222 255
198 222 255
198 222 255
198 222 255
198 222 255
198 222 255
198 222 255
198 222 255
198 222 255
198 222 255
198 222 255
198 222 255
198 222 255
198 222 255
198 222 255
198 222 255
198 222 255
198 222 255
198 222 255
198 222 255
198 222 255
198 222 255
198 222 255
198 222 255
198 222 255
198 222 255
198 222 255
198 222 255
198 222 255
198 222 255
198 222 255
198 222 255
198 222 255
198 222 255
198 222 255
198 222 255
198 222 255
198 222 255
198 222 255
198 222 255
198 222 255
198 222 255
198 222 255
198 222 255
198 222 255
198 222 255
198 222 255
198 222 255
198 222 255
198 222 255
198 222 255
198 222 255
198 222 255
198 222 255
198 222 255
198 222 255
198 222 255
198 222 255
198 222 255
198 222 255
198 222 255
198 222 255
198 222 255
198 222 255
198 222 255
198 222 255
198 222 255
198 222 255
198 222 255
198 222 255
198 222 255
198 222 255
198 222 255
198 222 255
198 222 255
198 222 255
198 222 255
198 222 255
198 222 255
198 222 255
198 222 255
198 222 255
198 222 255
198 222 255
198 222 255
198 222 255
198 222 255
198 222 255
198 222 255
198 222 255
198 222 255
198 222 255
198 222 255
198 222 255
198 222 255
198 222 255
198 222 255
198 222 255
198 222 255
198 222 255
198 222 255
198 222 255
198 222 255
198 222 255
198 222 255
198 222 255
198 222 255
198 222 255
198 222 255
198 222 255
198 222 255
198 222 255
198 222 255
198 222 255
198 222 255
198 222 255
198 222 255
198 222 255
198 222 255
198 222 255
198 222 255
198 222 255
198 222 255
198 222 255
198 222 255
198 222 255
198 222 255
198 222 255
198 222 255
198 222 255
198 222 255
198 222 255
198 222 255
198 222 255
198 222 255
198 222 255
198 222 255
198 222 255
198 222 255
198 222 255
198 222 255
198 222 255
198 222 255
198 222 255
198 222 255
198 222 255
198 222 255
198 222 255
198 222 255
198 222 255
198 222 255
198 222 255
198 222 255
198 222 255
198 222 255
198 222 255
198 222 255
198 222 255
198 222 255
198 222 255
198 222 255
198 222 255
198 222 255
198 222 255
198 222 255
198 222 255
198 222 255
198 222 255
198 222 255
198 222 255
198 222 255
198 222 255
198 222 255
198 222 255
198 222 255
198 222 255
198 222 255
198 222 255
198 222 255
198 222 255
198 222 255
198 222 255
198 222 255
198 222 255
198 222 255
198 222 255
198 222 255
198 222 255
198 222 255
198 222 255
198 222 255
198 222 255
198 222 255
198 222 255
198 222 255
198 222 255
198 222 255
198 222 255
198 222 255
198 222 255
198 222 255
198 222 255
198 222 255
198 222 255
198 222 255
198 222 255
198 222 255
198 222 255
198 222 255
198 222 255
198 222 255
198 222 255
198 222 255
198 222 255
198 222 255
198 222 255
198 222 255
198 222 255
198 222 255
198 222 255
198 222 255
198 222 255
198 222 255
198 222 255
198 222 255
198 222 255
198 222 255
198 222 255
198 222 255
198 222 255
198 222 255
198 222 255
198 222 255
198 222 255
198 222 255
198 222 255
198 222 255
198 222 255
198 222 255
198 222 255
198 222 255
198 222 255
198 222 255
198 222 255
198 222 255
198 222 255
198 222 255
198 222 255
198 222 255
198 222 255
198 222 255
198 222 255
198 222 255
198 222 255
198 222 255
198 222 255
198 222 255
198 222 255
198 222 255
198 222 255
198 222 255
198 222 255
198 222 255
198 222 255
198 222 255
198 222 255
198 222 255
198 222 255
198 222 255
198 222 255
198 222 255
198 222 255
198 222 255
198 222 255
198 222 255
198 222 255
198 222 255
198 222 255
198 222 255
198 222 255
198 222 255
198 222 255
198 222 255
198 222 255
198 222 255
198 222 255
198 222 255
198 222 255
198 222 255
198 222 255
198 222 255
198 222 255
198 222 255
198 222 255
198 222 255
198 222 255
198 222 255
198 222 255
198 222 255
198 222 255
198 222 255
198 222 255
198 222 255
198 222 255
198 222 255
198 222 255
198 222 255
198 222 255
198 222 255
198 222 255
198 222 255
198 222 255
198 222 255
198 222 255
198 222 255
198 222 255
198 222 255
198 222 255
198 222 255
198 222 255
198 222 255
198 222 255
198 223 255
198 223 255
198 223 255
198 223 255
198 223 255
198 223 255
198 223 255
198 223 255
198 223 255
198 223 255
198 223 255
198 223 255
198 223 255
198 223 255
198 223 255
198 223 255
198 223 255
198 223 255
198 223 255
198 223 255
198 223 255
198 223 255
198 223 255
198 223 255
198 223 255
198 223 255
198 223 255
198 223 255
198 223 255
198 223 255
198 223 255
198 223 255
198 223 255
198 223 255
198 223 255
198 223 255
198 223 255
198 223 255
198 223 255
198 223 255
198 223 255
198 223 255
198 223 255
198 223 255
198 223 255
198 223 255
198 223 255
198 223 255
198 223 255
198 223 255
198 223 255
198 223 255
198 223 255
198 223 255
198 223 255
198 223 255
198 223 255
198 223 255
198 223 255
198 223 255
198 223 255
198 223 255
198 223 255
198 223 255
198 223 255
198 223 255
198 223 255
198 223 255
198 223 255
198 223 255
198 223 255
198 223 255
198 223 255
198 223 255
198 223 255
198 223 255
198 223 255
198 223 255
198 223 255
198 223 255
198 223 255
198 223 255
198 223 255
198 223 255
198 223 255
198 223 255
198 223 255
198 223 255
198 223 255
198 223 255
198 223 255
198 223 255
198 223 255
198 223 255
198 223 255
198 223 255
198 223 255
198 223 255
198 223 255
198 223 255
198 223 255
198 223 255
198 223 255
198 223 255
198 223 255
198 223 255
198 223 255
198 223 255
198 223 255
198 223 255
198 223 255
198 223 255
198 223 255
198 223 255
198 223 255
198 223 255
198 223 255
198 223 255
198 223 255
198 223 255
198 223 255
198 223 255
198 223 255
198 223 255
198 223 255
198 223 255
198 223 255
198 223 255
198 223 255
198 223 255
198 223 255
198 223 255
198 223 255
198 223 255
198 223 255
198 223 255
198 223 255
198 223 255
198 223 255
198 223 255
198 223 255
198 223 255
198 223 255
198 223 255
198 223 255
198 223 255
198 223 255
198 223 255
198 223 255
198 223 255
198 223 255
198 223 255
198 223 255
198 223 255
198 223 255
198 223 255
198 223 255
198 223 255
198 223 255
198 223 255
198 223 255
198 223 255
198 223 255
198 223 255
198 223 255
198 223 255
198 223 255
198 223 255
198 223 255
198 223 255
198 223 255
198 223 255
198 223 255
198 223 255
198 223 255
198 223 255
198 223 255
198 223 255
198 223 255
198 223 255
198 223 255
198 223 255
198 223 255
198 223 255
198 223 255
198 223 255
198 223 255
198 223 255
198 223 255
198 223 255
198 223 255
198 223 255
198 223 255
198 223 255
198 223 255
198 223 255
198 223 255
198 223 255
198 223 255
198 223 255
198 223 255
198 223 255
198 223 255
198 223 255
198 223 255
198 223 255
198 223 255
198 223 255
198 223 255
198 223 255
198 223 255
198 223 255
198 223 255
198 223 255
198 223 255
198 223 255
198 223 255
198 223 255
198 223 255
198 223 255
198 223 255
198 223 255
198 223 255
198 223 255
198 223 255
198 223 255
198 223 255
198 223 255
198 223 255
198 223 255
198 223 255
198 223 255
198 223 255
198 223 255
198 223 255
198 223 255
198 223 255
198 223 255
198 223 255
198 223 255
198 223 255
198 223 255
198 223 255
198 223 255
198 223 255
198 223 255
198 223 255
198 223 255
198 223 255
198 223 255
198 223 255
198 223 255
198 223 255
198 223 255
198 223 255
198 223 255
198 223 255
198 223 255
198 223 255
198 223 255
198 223 255
198 223 255
198 223 255
198 223 255
198 223 255
198 223 255
198 223 255
198 223 255
198 223 255
198 223 255
198 223 255
198 223 255
198 223 255
198 223 255
198 223 255
198 223 255
198 223 255
198 223 255
198 223 255
198 223 255
198 223 255
198 223 255
198 223 255
198 223 255
198 223 255
198 223 255
198 223 255
198 223 255
198 223 255
198 223 255
198 223 255
198 223 255
198 223 255
198 223 255
198 223 255
198 223 255
198 223 255
198 223 255
198 223 255
198 223 255
198 223 255
198 223 255
198 223 255
198 223 255
198 223 255
198 223 255
198 223 255
198 223 255
198 223 255
198 223 255
198 223 255
198 223 255
198 223 255
198 223 255
198 223 255
198 223 255
198 223 255
198 223 255
198 223 255
198 223 255
198 223 255
198 223 255
198 223 255
198 223 255
198 223 255
198 223 255
198 223 255
198 223 255
198 223 255
198 223 255
198 223 255
198 223 255
198 223 255
198 223 255
198 223 255
198 223 255
198 223 255
198 223 255
198 223 255
198 223 255
198 223 255
198 223 255
198 223 255
198 223 255
198 223 255
198 223 255
198 223 255
198 223 255
198 223 255
198 223 255
198 223 255
198 223 255
198 223 255
198 223 255
198 223 255
198 223 255
198 223 255
198 223 255
198 223 255
198 223 255
198 223 255
198 223 255
198 223 255
198 223 255
198 223 255
198 223 255
198 223 255
198 223 255
198 223 255
198 223 255
198 223 255
198 223 255
198 223 255
198 223 255
198 223 255
198 223 255
198 223 255
198 223 255
198 223 255
198 223 255
198 223 255
198 223 255
198 223 255
198 223 255
198 223 255
198 223 255
198 223 255
198 223 255
198 223 255
198 223 255
198 223 255
198 223 255
198 223 255
198 223 255
198 223 255
198 223 255
198 223 255
198 223 255
198 223 255
198 223 255
199 223 255
199 223 255
199 223 255
199 223 255
199 223 255
199 223 255
199 223 255
199 223 255
198 223 255
199 223 255
198 223 255
198 223 255
199 223 255
199 223 255
199 223 255
199 223 255
199 223 255
198 223 255
199 223 255
198 223 255
199 223 255
199 223 255
199 223 255
199 223 255
198 223 255
198 223 255
199 223 255
199 223 255
199 223 255
199 223 255
199 223 255
198 223 255
199 223 255
199 223 255
199 223 255
198 223 255
196 220 252
189 213 244
190 214 246
187 212 244
176 199 230
179 203 234
175 199 229
175 199 230
173 197 229
160 182 211
161 184 214
165 188 218
158 181 210
162 185 215
169 193 224
160 184 214
171 194 225
168 192 222
167 191 223
170 194 224
169 192 223
177 200 231
174 198 228
175 198 228
183 207 238
182 205 235
192 216 247
197 222 254
199 223 255
199 223 255
199 223 255
199 223 255
199 223 255
199 223 255
199 223 255
198 223 255
198 223 255
199 223 255
199 223 255
199 223 255
199 223 255
198 223 255
199 223 255
199 223 255
199 223 255
199 223 255
198 223 255
199 223 255
199 223 255
199 223 255
198 223 255
199 223 255
199 223 255
199 223 255
199 223 255
199 223 255
198 223 255
199 223 255
198 223 255
199 223 255
199 223 255
198 223 255
198 223 255
199 223 255
199 223 255
199 223 255
199 223 255
199 223 255
199 223 255
199 223 255
199 223 255
199 223 255
199 223 255
199 223 255
199 223 255
199 223 255
199 223 255
199 223 255
199 223 255
199 223 255
199 223 255
198 223 255
199 223 255
199 223 255
199 223 255
199 223 255
199 223 255
199 223 255
199 223 255
199 223 255
198 223 255
199 223 255
199 223 255
199 223 255
199 223 255
199 223 255
198 223 255
198 223 255
198 223 255
199 223 255
199 223 255
199 223 255
199 223 255
198 223 255
199 223 255
199 223 255
198 223 255
199 223 255
199 223 255
199 223 255
199 223 255
199 223 255
199 223 255
199 223 255
199 223 255
199 223 255
199 223 255
199 223 255
199 223 255
198 223 255
199 223 255
199 223 255
199 223 255
199 223 255
199 223 255
199 223 255
198 223 255
199 223 255
199 223 255
199 223 255
198 223 255
198 223 255
199 223 255
199 223 255
199 223 255
199 223 255
199 223 255
199 223 255
199 223 255
198 223 255
199 223 255
199 223 255
199 223 255
199 223 255
199 223 255
198 223 255
199 223 255
199 223 255
199 223 255
199 223 255
198 223 255
199 223 255
199 223 255
199 223 255
195 219 252
178 202 241
172 197 236
165 189 231
153 178 223
133 159 213
141 167 216
126 153 206
132 158 211
120 147 204
123 149 206
130 156 210
144 169 219
132 158 211
143 169 219
159 184 227
182 207 244
179 204 241
194 218 252
199 223 255
199 223 255
199 223 255
199 223 255
199 223 255
199 223 255
199 223 255
199 223 255
199 223 255
199 223 255
199 223 255
199 223 255
199 223 255
199 223 255
199 223 255
199 223 255
199 223 255
199 223 255
198 223 255
198 223 255
199 223 255
199 223 255
199 223 255
199 223 255
199 223 255
199 223 255
199 223 255
199 223 255
199 223 255
198 223 255
199 223 255
199 223 255
199 223 255
199 223 255
199 223 255
198 223 255
199 223 255
199 223 255
199 223 255
199 223 255
199 223 255
199 223 255
199 223 255
199 223 255
199 223 255
198 223 255
199 223 255
199 223 255
198 223 255
199 223 255
198 223 255
199 223 255
199 223 255
199 223 255
199 223 255
198 223 255
199 223 255
198 223 255
199 223 255
199 223 255
199 223 255
199 223 255
199 223 255
199 223 255
199 223 255
199 223 255
199 223 255
199 223 255
198 223 255
199 223 255
199 223 255
198 223 255
198 223 255
199 223 255
199 223 255
199 223 255
199 223 255
199 223 255
199 223 255
199 223 255
199 223 255
198 223 255
199 223 255
199 223 255
199 223 255
199 223 255
199 223 255
199 223 255
199 223 255
199 223 255
199 223 255
199 223 255
199 223 255
198 223 255
199 223 255
199 223 255
199 223 255
199 223 255
199 223 255
198 223 255
199 223 255
199 223 255
199 223 255
199 223 255
199 223 255
199 223 255
199 223 255
199 223 255
199 223 255
198 223 255
198 223 255
199 223 255
199 223 255
198 223 255
199 223 255
199 223 255
199 223 255
199 223 255
199 223 255
198 223 255
199 223 255
199 223 255
198 223 255
199 223 255
198 223 255
199 223 255
198 221 251
195 216 240
191 209 223
192 210 226
190 207 220
187 203 210
187 202 207
186 200 204
184 197 196
182 194 189
182 193 185
179 189 175
179 188 174
178 186 169
178 185 166
180 189 177
180 190 178
180 191 180
180 190 178
181 192 184
185 199 200
185 197 195
187 202 207
191 209 225
192 211 228
196 217 242
194 215 237
196 219 246
199 223 255
199 223 255
199 223 255
199 223 255
198 223 255
199 223 255
199 223 255
199 223 255
199 223 255
199 223 255
199 223 255
199 223 255
199 223 255
199 223 255
199 223 255
198 223 255
199 223 255
199 223 255
199 223 255
199 223 255
198 223 255
199 223 255
199 223 255
198 223 255
199 223 255
199 223 255
199 223 255
199 223 255
199 223 255
199 223 255
199 223 255
199 223 255
199 223 255
198 223 255
199 223 255
199 223 255
199 223 255
199 223 255
199 223 255
199 223 255
199 223 255
199 223 255
199 223 255
199 223 255
199 223 255
199 223 255
199 223 255
199 223 255
199 223 255
199 223 255
199 223 255
199 223 255
199 223 255
199 223 255
199 223 255
199 223 255
199 223 255
199 223 255
199 223 255
199 223 255
199 223 255
199 223 255
199 223 255
199 223 255
199 223 255
192 215 246
185 209 239
185 210 241
173 196 227
168 191 221
159 181 210
145 169 199
148 172 202
151 176 209
150 177 210
155 181 214
152 180 215
151 179 214
155 183 219
156 184 220
157 186 222
158 188 225
159 188 226
158 188 226
155 184 221
158 188 225
159 189 226
157 186 223
155 184 221
157 188 226
155 184 220
155 185 221
157 187 223
157 186 222
154 183 220
158 188 225
152 179 214
151 177 210
149 176 210
148 174 207
151 177 210
141 165 197
155 179 210
161 185 215
171 195 226
172 196 227
177 200 229
188 212 243
197 221 253
199 223 255
199 223 255
199 223 255
199 223 255
199 223 255
199 223 255
199 223 255
199 223 255
199 223 255
199 223 255
199 223 255
199 223 255
199 223 255
199 223 255
199 223 255
199 223 255
199 223 255
199 223 255
199 223 255
199 223 255
199 223 255
199 223 255
199 223 255
199 223 255
199 223 255
199 223 255
199 223 255
199 223 255
199 223 255
199 223 255
199 223 255
199 223 255
199 223 255
199 223 255
199 223 255
199 223 255
199 223 255
199 223 255
199 223 255
199 223 255
199 223 255
199 223 255
199 223 255
199 223 255
199 223 255
199 223 255
199 223 255
199 223 255
199 223 255
199 223 255
199 223 255
199 223 255
199 223 255
199 223 255
199 223 255
199 223 255
199 223 255
199 223 255
199 223 255
199 223 255
199 223 255
199 223 255
199 223 255
199 223 255
199 223 255
199 223 255
199 223 255
199 223 255
199 223 255
199 223 255
199 223 255
199 223 255
199 223 255
199 223 255
199 223 255
199 223 255
199 223 255
199 223 255
199 223 255
199 223 255
199 223 255
199 223 255
199 223 255
199 223 255
199 223 255
199 223 255
199 223 255
199 223 255
199 223 255
199 223 255
199 223 255
199 223 255
199 223 255
199 223 255
199 223 255
199 223 255
199 223 255
199 223 255
199 223 255
199 223 255
199 223 255
199 223 255
199 223 255
199 223 255
199 223 255
199 223 255
199 223 255
199 223 255
199 223 255
199 223 255
199 223 255
199 223 255
199 223 255
186 210 246
168 193 234
146 172 217
103 132 194
85 116 187
62 98 179
57 95 171
58 95 170
59 96 171
59 97 175
59 96 173
59 96 177
59 96 174
59 97 177
58 96 177
59 96 176
59 97 174
58 96 175
58 96 174
59 97 179
59 97 176
59 97 179
59 96 178
60 97 175
66 102 174
117 144 203
143 169 218
160 184 227
183 207 243
199 223 255
199 223 255
199 223 255
199 223 255
199 223 255
199 223 255
199 223 255
199 223 255
199 223 255
199 223 255
199 223 255
199 223 255
199 223 255
199 223 255
199 223 255
199 223 255
199 223 255
199 223 255
199 223 255
199 223 255
199 223 255
199 223 255
199 223 255
199 223 255
199 223 255
199 223 255
199 223 255
199 223 255
199 223 255
199 223 255
199 223 255
199 223 255
199 223 255
199 223 255
199 223 255
199 223 255
199 223 255
199 223 255
199 223 255
199 223 255
199 223 255
199 223 255
199 223 255
199 223 255
199 223 255
199 223 255
199 223 255
199 223 255
199 223 255
199 223 255
199 223 255
199 223 255
199 223 255
199 223 255
199 223 255
199 223 255
199 223 255
199 223 255
199 223 255
199 223 255
199 223 255
199 223 255
199 223 255
199 223 255
199 223 255
199 223 255
199 223 255
199 223 255
199 223 255
199 223 255
199 223 255
199 223 255
199 223 255
199 223 255
199 223 255
199 223 255
199 223 255
199 223 255
199 223 255
199 223 255
199 223 255
199 223 255
199 223 255
199 223 255
199 223 255
199 223 255
199 223 255
199 223 255
199 223 255
199 223 255
199 223 255
199 223 255
199 223 255
199 223 255
199 223 255
199 223 255
199 223 255
199 223 255
199 223 255
199 223 255
199 223 255
199 223 255
199 223 255
199 223 255
199 223 255
199 223 255
199 223 255
199 223 255
199 223 255
199 223 255
199 223 255
199 223 255
199 223 255
196 217 242
194 214 235
189 205 215
186 200 201
182 194 188
176 183 160
172 178 148
168 171 125
166 167 114
165 167 114
164 166 114
163 166 114
162 166 114
162 165 114
161 165 114
161 165 114
161 165 114
160 165 114
161 165 114
160 165 114
160 165 114
160 165 114
161 165 114
161 165 114
160 165 114
161 165 114
161 165 114
161 165 114
162 165 114
162 166 114
162 166 114
163 166 114
164 166 114
165 167 114
166 167 114
166 167 114
167 168 116
173 178 144
176 183 158
178 185 163
184 196 192
189 204 212
189 205 213
196 218 245
199 223 255
199 223 255
199 223 255
199 223 255
199 223 255
199 223 255
199 223 255
199 223 255
199 223 255
199 223 255
199 223 255
199 223 255
199 223 255
199 223 255
199 223 255
199 223 255
199 223 255
199 223 255
199 223 255
199 223 255
199 223 255
199 223 255
199 223 255
199 223 255
199 223 255
199 223 255
199 223 255
199 223 255
199 223 255
199 223 255
199 223 255
199 223 255
199 223 255
199 223 255
199 223 255
199 223 255
199 223 255
199 223 255
199 223 255
199 223 255
199 223 255
199 223 255
199 223 255
199 223 255
199 223 255
199 223 255
199 223 255
199 223 255
199 223 255
199 223 255
198 222 254
189 213 244
183 206 237
173 196 226
168 192 223
156 179 209
146 170 200
144 168 199
149 175 208
158 187 222
158 186 221
160 189 226
160 189 226
159 189 227
160 190 228
157 188 227
159 189 228
159 189 228
157 189 228
158 189 228
157 189 228
157 189 228
155 188 228
155 188 228
155 187 228
155 188 228
155 188 228
156 188 228
155 188 228
155 188 228
155 188 228
155 188 228
153 187 228
153 187 228
154 187 228
156 188 228
155 188 228
156 188 228
154 187 228
156 188 228
156 188 228
156 188 228
157 189 228
158 189 228
158 189 227
160 190 228
157 186 223
158 188 225
154 182 218
155 182 216
147 173 205
154 180 213
150 173 203
157 179 207
175 198 228
188 211 241
195 218 250
199 223 255
199 223 255
199 223 255
199 223 255
199 223 255
199 223 255
199 223 255
199 223 255
199 223 255
199 223 255
199 223 255
199 223 255
199 223 255
199 223 255
199 223 255
199 223 255
199 223 255
199 223 255
199 223 255
199 223 255
199 223 255
199 223 255
199 223 255
199 223 255
199 223 255
199 223 255
199 223 255
199 223 255
199 223 255
199 223 255
199 223 255
199 223 255
199 223 255
199 223 255
199 223 255
199 223 255
199 223 255
199 223 255
199 223 255
199 223 255
199 223 255
199 223 255
199 223 255
199 223 255
199 223 255
199 223 255
199 223 255
199 223 255
199 223 255
199 223 255
199 223 255
199 223 255
199 223 255
199 223 255
199 223 255
199 223 255
199 223 255
199 223 255
199 223 255
199 223 255
199 223 255
199 223 255
199 223 255
199 223 255
199 223 255
199 223 255
199 223 255
199 223 255
199 223 255
199 223 255
199 223 255
199 223 255
199 223 255
199 223 255
199 223 255
199 223 255
199 223 255
199 223 255
199 223 255
199 223 255
199 223 255
199 223 255
199 223 255
199 223 255
199 223 255
199 223 255
199 223 255
199 223 255
199 223 255
199 223 255
199 223 255
199 223 255
199 223 255
199 223 255
199 223 255
199 223 255
199 223 255
199 223 255
199 223 255
199 223 255
199 223 255
199 223 255
199 223 255
186 210 245
161 185 228
118 145 202
81 112 180
59 97 176
60 97 177
59 96 175
59 96 175
58 96 175
59 97 174
59 97 177
59 96 171
59 97 174
59 97 172
59 96 170
59 96 172
59 96 175
59 96 167
59 96 169
60 97 173
60 98 177
58 95 171
59 97 174
59 97 177
60 97 170
60 97 175
59 97 172
59 96 174
59 97 174
59 97 175
60 97 176
58 96 173
60 97 176
84 116 187
130 156 206
162 186 229
192 216 249
199 223 255
199 223 255
199 223 255
199 223 255
199 223 255
199 223 255
199 223 255
199 223 255
199 223 255
199 223 255
199 223 255
199 223 255
199 223 255
199 223 255
199 223 255
199 223 255
199 223 255
199 223 255
199 223 255
199 223 255
199 223 255
199 223 255
199 223 255
199 223 255
199 223 255
199 223 255
199 223 255
199 223 255
199 223 255
199 223 255
199 223 255
199 223 255
199 223 255
199 223 255
199 223 255
199 223 255
199 223 255
199 223 255
199 223 255
199 223 255
199 223 255
199 223 255
199 223 255
199 223 255
199 223 255
199 223 255
199 223 255
199 223 255
199 223 255
199 223 255
199 223 255
199 223 255
199 223 255
199 223 255
199 223 255
199 223 255
199 223 255
199 223 255
199 223 255
199 223 255
199 223 255
199 223 255
199 223 255
199 223 255
199 223 255
199 223 255
199 223 255
199 223 255
199 223 255
199 223 255
199 223 255
199 223 255
199 223 255
199 223 255
199 223 255
199 223 255
199 223 255
199 223 255
199 223 255
199 223 255
199 223 255
199 223 255
199 223 255
199 223 255
199 223 255
199 223 255
199 223 255
199 223 255
199 223 255
199 223 255
199 223 255
199 223 255
199 223 255
199 223 255
199 223 255
199 223 255
199 223 255
199 223 255
199 223 255
199 223 255
199 223 255
199 223 255
199 223 255
197 219 247
193 212 230
189 205 215
182 192 182
175 183 160
170 172 129
165 167 114
163 166 114
162 166 114
161 165 114
160 165 114
159 164 114
159 164 114
158 164 114
157 163 114
157 163 114
156 163 114
156 163 114
156 163 114
155 163 114
155 163 114
155 163 114
154 162 114
155 162 114
155 162 114
154 162 114
154 162 114
154 162 114
154 162 114
155 163 114
155 163 114
155 162 114
155 163 114
156 163 114
156 163 114
156 163 114
157 163 114
157 163 114
158 164 114
158 164 114
159 164 114
159 164 114
160 165 114
161 165 114
161 165 114
162 166 114
163 166 114
164 167 114
165 167 114
167 168 114
169 170 119
178 186 166
181 190 177
186 200 201
190 205 214
196 217 240
199 223 255
199 223 255
199 223 255
199 223 255
199 223 255
199 223 255
199 223 255
199 223 255
199 223 255
199 223 255
199 223 255
199 223 255
199 223 255
199 223 255
199 223 255
199 223 255
199 223 255
199 223 255
199 223 255
199 223 255
199 223 255
199 223 255
199 223 255
200 223 255
200 223 255
200 223 255
200 223 255
200 223 255
200 223 255
200 223 255
200 223 255
200 223 255
200 223 255
200 223 255
200 223 255
200 223 255
200 223 255
200 223 255
200 223 255
200 223 255
197 221 252
185 208 238
171 193 222
159 181 210
151 175 205
158 184 218
160 187 221
157 184 219
160 188 223
158 186 222
160 190 228
159 189 227
160 190 228
159 190 228
157 189 228
158 189 228
157 188 228
156 188 228
157 188 228
155 188 228
154 187 228
155 187 228
153 187 228
153 187 228
153 187 228
152 186 228
152 186 228
152 186 228
152 186 228
150 185 228
152 186 228
151 186 228
152 186 228
152 186 228
151 186 228
151 185 228
149 185 228
150 185 228
152 186 228
151 186 228
151 186 228
150 185 228
152 186 228
151 186 228
151 186 228
152 186 228
153 187 228
154 187 228
152 186 228
154 187 228
154 187 228
155 188 228
157 189 228
156 188 228
155 187 227
158 189 228
155 185 222
158 187 225
159 188 225
148 176 210
148 173 205
151 176 207
154 177 206
169 191 220
187 210 241
198 222 254
200 223 255
200 223 255
200 223 255
200 223 255
200 223 255
200 223 255
200 223 255
200 223 255
200 223 255
200 223 255
200 223 255
200 223 255
200 223 255
200 223 255
200 223 255
200 223 255
200 223 255
200 223 255
200 223 255
200 223 255
200 223 255
200 223 255
200 223 255
200 223 255
200 223 255
200 223 255
200 223 255
200 223 255
200 223 255
200 223 255
200 223 255
200 223 255
200 223 255
200 223 255
200 223 255
200 223 255
200 223 255
200 223 255
200 223 255
200 223 255
200 223 255
200 223 255
200 223 255
200 223 255
200 223 255
200 223 255
200 223 255
200 223 255
200 223 255
200 223 255
200 223 255
200 223 255
200 223 255
200 223 255
200 223 255
200 223 255
200 223 255
200 223 255
200 223 255
200 223 255
200 223 255
200 223 255
200 223 255
200 223 255
200 223 255
200 223 255
200 223 255
200 223 255
200 223 255
200 223 255
200 223 255
200 223 255
200 223 255
200 223 255
200 223 255
200 223 255
200 223 255
200 223 255
200 223 255
200 223 255
200 223 255
200 223 255
200 223 255
200 223 255
200 223 255
200 223 255
200 223 255
200 223 255
200 223 255
200 223 255
200 223 255
200 223 255
200 223 255
200 223 255
200 223 255
178 202 239
143 168 215
94 123 188
58 95 169
58 96 173
59 96 177
58 96 174
59 96 168
59 96 174
59 97 173
58 96 172
60 97 173
59 96 178
60 97 179
58 96 173
59 97 177
59 96 172
59 97 172
59 96 168
59 96 169
58 95 170
59 96 169
59 97 169
60 97 175
59 97 174
60 97 174
58 96 173
59 96 172
59 96 173
58 96 171
59 96 175
59 96 169
58 96 173
60 97 179
59 97 177
59 96 169
59 96 177
59 97 177
59 96 172
59 96 174
115 142 200
154 179 224
186 210 245
200 223 255
200 223 255
200 223 255
200 223 255
200 223 255
200 223 255
200 223 255
200 223 255
200 223 255
200 223 255
200 223 255
200 223 255
200 223 255
200 223 255
200 223 255
200 223 255
200 223 255
200 223 255
200 223 255
200 223 255
200 223 255
200 223 255
200 223 255
200 223 255
200 223 255
200 223 255
200 223 255
200 223 255
200 223 255
200 223 255
200 223 255
200 223 255
200 223 255
200 223 255
200 223 255
200 223 255
200 223 255
200 223 255
200 223 255
200 223 255
200 223 255
200 223 255
200 223 255
200 223 255
200 223 255
200 223 255
200 223 255
200 223 255
200 223 255
200 223 255
200 223 255
200 223 255
200 223 255
200 223 255
200 223 255
200 223 255
200 223 255
200 223 255
200 223 255
200 223 255
200 223 255
200 223 255
200 223 255
200 223 255
200 223 255
200 223 255
200 223 255
200 223 255
200 223 255
200 223 255
200 223 255
200 223 255
200 223 255
200 223 255
200 223 255
200 223 255
200 223 255
200 223 255
200 223 255
200 223 255
200 223 255
200 223 255
200 223 255
200 223 255
200 223 255
200 223 255
200 223 255
200 223 255
200 223 255
200 223 255
200 223 255
200 223 255
200 223 255
200 223 255
200 223 255
198 221 249
194 213 233
185 197 194
177 184 163
171 175 137
165 167 114
163 166 114
162 165 114
160 165 114
159 164 114
158 164 114
157 163 114
156 163 114
156 163 114
154 162 114
154 162 114
154 162 114
153 162 114
153 162 114
152 161 114
152 161 114
151 161 114
151 161 114
151 161 114
151 161 114
151 161 114
151 161 114
151 161 114
151 161 114
150 161 114
151 161 114
151 161 114
151 161 114
151 161 114
151 161 114
151 161 114
151 161 114
151 161 114
152 161 114
152 161 114
152 161 114
153 162 114
153 162 114
153 162 114
154 162 114
154 162 114
154 162 114
155 163 114
156 163 114
156 163 114
157 163 114
158 164 114
158 164 114
159 164 114
160 165 114
161 165 114
162 166 114
163 166 114
164 167 114
166 167 114
167 168 114
169 170 119
179 186 164
186 199 199
192 208 221
198 220 248
200 223 255
200 223 255
200 223 255
200 223 255
200 223 255
200 223 255
200 223 255
200 223 255
200 223 255
200 223 255
200 223 255
200 223 255
200 223 255
200 223 255
200 223 255
200 223 255
200 223 255
200 223 255
200 224 255
200 224 255
200 224 255
200 224 255
200 224 255
200 224 255
200 224 255
200 224 255
200 224 255
200 224 255
200 224 255
200 224 255
200 224 255
188 211 241
178 201 231
164 186 214
159 183 213
146 170 200
160 186 220
153 180 214
162 190 225
161 190 227
163 191 228
160 190 228
159 190 228
160 190 228
158 189 228
156 188 228
157 189 228
154 187 228
155 188 228
154 187 228
154 187 228
152 186 228
152 186 228
153 187 228
152 186 228
152 186 228
150 185 228
151 186 228
151 186 228
148 184 228
151 186 228
148 184 228
148 184 228
148 184 228
148 184 228
149 185 228
146 183 228
148 184 228
148 184 228
146 183 228
147 184 228
148 184 228
150 185 228
146 183 228
148 184 228
147 184 228
149 185 228
148 184 228
148 184 228
147 184 228
148 184 228
149 185 228
148 184 228
150 185 228
150 185 228
151 186 228
150 185 228
151 186 228
151 186 228
152 186 228
154 187 228
154 187 228
154 187 228
155 188 228
157 189 228
157 189 228
155 187 227
155 185 222
155 184 220
150 177 210
145 170 202
164 189 221
168 191 220
186 209 240
197 220 251
200 224 255
200 224 255
200 224 255
200 224 255
200 224 255
200 224 255
200 224 255
200 224 255
200 224 255
200 224 255
200 224 255
200 224 255
200 224 255
200 224 255
200 224 255
200 224 255
200 224 255
200 224 255
200 224 255
200 224 255
200 224 255
200 224 255
200 224 255
200 224 255
200 224 255
200 224 255
200 224 255
200 224 255
200 224 255
200 224 255
200 224 255
200 224 255
200 224 255
200 224 255
200 224 255
200 224 255
200 224 255
200 224 255
200 224 255
200 224 255
200 224 255
200 224 255
200 224 255
200 224 255
200 224 255
200 224 255
200 224 255
200 224 255
200 224 255
200 224 255
200 224 255
200 224 255
200 224 255
200 224 255
200 224 255
200 224 255
200 224 255
200 224 255
200 224 255
200 224 255
200 224 255
200 224 255
200 224 255
200 224 255
200 224 255
200 224 255
200 224 255
200 224 255
200 224 255
200 224 255
200 224 255
200 224 255
200 224 255
200 224 255
200 224 255
200 224 255
200 224 255
200 224 255
200 224 255
200 224 255
200 224 255
200 224 255
200 224 255
200 224 255
200 224 255
200 224 255
200 224 255
200 224 255
194 217 250
145 170 217
93 123 188
58 95 172
58 95 170
59 96 172
59 97 176
60 97 175
59 96 177
60 97 167
59 97 173
58 96 168
59 97 171
57 95 172
59 97 173
59 96 169
59 96 168
59 96 172
59 96 173
58 96 173
59 97 171
59 96 174
59 97 176
59 96 173
60 97 171
60 97 175
60 97 170
59 96 169
60 96 167
59 96 174
60 97 173
60 97 172
59 96 176
60 97 171
58 95 163
58 95 166
60 97 175
59 97 174
59 96 173
58 95 173
59 97 172
60 97 170
59 97 174
59 97 173
59 97 178
58 95 173
98 127 186
147 172 217
194 217 250
200 224 255
200 224 255
200 224 255
200 224 255
200 224 255
200 224 255
200 224 255
200 224 255
200 224 255
200 224 255
200 224 255
200 224 255
200 224 255
200 224 255
200 224 255
200 224 255
200 224 255
200 224 255
200 224 255
200 224 255
200 224 255
200 224 255
200 224 255
200 224 255
200 224 255
200 224 255
200 224 255
200 224 255
200 224 255
200 224 255
200 224 255
200 224 255
200 224 255
200 224 255
200 224 255
200 224 255
200 224 255
200 224 255
200 224 255
200 224 255
200 224 255
200 224 255
200 224 255
200 224 255
200 224 255
200 224 255
200 224 255
200 224 255
200 224 255
200 224 255
200 224 255
200 224 255
200 224 255
200 224 255
200 224 255
200 224 255
200 224 255
200 224 255
200 224 255
200 224 255
200 224 255
200 224 255
200 224 255
200 224 255
200 224 255
200 224 255
200 224 255
200 224 255
200 224 255
200 224 255
200 224 255
200 224 255
200 224 255
200 224 255
200 224 255
200 224 255
200 224 255
200 224 255
200 224 255
200 224 255
200 224 255
200 224 255
200 224 255
200 224 255
200 224 255
200 224 255
200 224 255
200 224 255
198 219 246
191 207 216
185 197 194
173 177 142
167 168 114
164 166 114
162 166 114
161 165 114
159 164 114
158 164 114
156 163 114
156 163 114
154 162 114
154 162 114
153 162 114
152 161 114
152 161 114
151 161 114
151 161 114
150 160 114
150 160 114
149 160 114
149 160 114
149 160 114
148 160 114
148 160 114
148 160 114
148 159 114
148 159 114
148 159 114
147 159 114
147 159 114
148 159 114
147 159 114
147 159 114
148 159 114
148 159 114
148 159 114
148 159 114
148 160 114
148 160 114
148 160 114
149 160 114
149 160 114
149 160 114
149 160 114
150 160 114
150 160 114
150 161 114
151 161 114
151 161 114
152 161 114
152 161 114
153 162 114
154 162 114
154 162 114
155 162 114
155 163 114
156 163 114
157 163 114
158 164 114
158 164 114
159 164 114
160 165 114
161 165 114
163 166 114
164 166 114
165 167 114
167 168 114
169 169 114
175 177 139
183 192 180
191 208 219
197 217 240
200 224 255
200 224 255
200 224 255
200 224 255
200 224 255
200 224 255
200 224 255
200 224 255
200 224 255
200 224 255
200 224 255
200 224 255
200 224 255
200 224 255
200 224 255
200 224 255
200 224 255
200 224 255
200 224 255
200 224 255
200 224 255
200 224 255
200 224 255
189 211 241
187 211 241
168 190 218
155 177 206
153 177 208
161 187 221
162 189 223
163 190 226
162 191 228
161 190 228
160 190 228
159 190 228
157 189 228
157 189 228
158 189 228
156 188 228
153 187 228
153 187 228
155 188 228
153 187 228
151 186 228
153 187 228
150 185 228
152 186 228
151 185 228
151 186 228
150 185 228
148 184 228
149 185 228
147 184 228
148 184 228
146 183 228
146 184 228
146 183 228
147 184 228
148 184 228
147 184 228
146 183 228
146 183 228
146 183 228
145 183 228
145 183 228
145 183 228
145 183 228
144 182 228
145 183 228
145 183 228
144 182 228
144 182 228
146 183 228
145 183 228
146 183 228
146 183 228
145 183 228
147 184 228
146 183 228
147 184 228
147 184 228
147 184 228
146 183 228
147 184 228
148 184 228
148 184 228
151 186 228
151 186 228
151 185 228
151 186 228
152 186 228
152 186 228
154 187 228
153 187 228
157 188 228
157 189 228
159 189 228
158 189 227
155 183 219
151 177 212
153 178 211
151 174 203
167 190 219
182 204 234
198 221 252
200 224 255
200 224 255
200 224 255
200 224 255
200 224 255
200 224 255
200 224 255
200 224 255
200 224 255
200 224 255
200 224 255
200 224 255
200 224 255
200 224 255
200 224 255
200 224 255
200 224 255
200 224 255
200 224 255
200 224 255
200 224 255
200 224 255
200 224 255
200 224 255
200 224 255
200 224 255
200 224 255
200 224 255
200 224 255
200 224 255
200 224 255
200 224 255
200 224 255
200 224 255
200 224 255
200 224 255
200 224 255
200 224 255
200 224 255
200 224 255
200 224 255
200 224 255
200 224 255
200 224 255
200 224 255
200 224 255
200 224 255
200 224 255
200 224 255
200 224 255
200 224 255
200 224 255
200 224 255
200 224 255
200 224 255
200 224 255
200 224 255
200 224 255
200 224 255
200 224 255
200 224 255
200 224 255
200 224 255
200 224 255
200 224 255
200 224 255
200 224 255
200 224 255
200 224 255
200 224 255
200 224 255
200 224 255
200 224 255
200 224 255
200 224 255
200 224 255
200 224 255
200 224 255
200 224 255
200 224 255
200 224 255
200 224 255
170 194 233
127 152 206
66 101 179
60 97 171
59 96 176
60 97 177
59 96 173
58 96 168
57 95 170
59 97 176
59 96 173
59 96 167
60 97 175
58 96 169
59 96 168
57 95 171
57 95 174
60 97 175
60 97 176
59 97 168
59 96 174
58 95 173
60 97 170
59 96 164
59 96 167
59 96 173
60 96 167
59 96 173
59 96 173
60 97 173
59 96 169
60 96 163
59 96 172
59 96 172
59 96 170
59 96 163
60 97 170
60 97 173
59 96 167
60 97 166
58 96 171
59 96 167
59 96 170
59 96 166
60 97 178
60 97 174
59 97 171
60 97 172
59 96 173
58 96 170
70 105 181
122 148 205
178 201 239
200 224 255
200 224 255
200 224 255
200 224 255
200 224 255
200 224 255
200 224 255
200 224 255
200 224 255
200 224 255
200 224 255
200 224 255
200 224 255
200 224 255
200 224 255
200 224 255
200 224 255
200 224 255
200 224 255
200 224 255
200 224 255
200 224 255
200 224 255
200 224 255
200 224 255
200 224 255
200 224 255
200 224 255
200 224 255
200 224 255
200 224 255
200 224 255
200 224 255
200 224 255
200 224 255
200 224 255
200 224 255
200 224 255
200 224 255
200 224 255
200 224 255
200 224 255
200 224 255
200 224 255
200 224 255
200 224 255
200 224 255
200 224 255
200 224 255
200 224 255
200 224 255
200 224 255
200 224 255
200 224 255
200 224 255
200 224 255
200 224 255
200 224 255
200 224 255
200 224 255
200 224 255
200 224 255
200 224 255
200 224 255
200 224 255
200 224 255
200 224 255
200 224 255
200 224 255
200 224 255
200 224 255
200 224 255
200 224 255
200 224 255
200 224 255
200 224 255
200 224 255
200 224 255
200 224 255
200 224 255
200 224 255
200 224 255
200 224 255
196 215 236
184 195 188
177 183 158
167 168 114
164 166 114
162 166 114
160 165 114
158 164 114
157 163 114
156 163 114
154 162 114
154 162 114
153 162 114
152 161 114
151 161 114
150 161 114
150 160 114
149 160 114
149 160 114
148 160 114
148 159 114
147 159 114
147 159 114
147 159 114
146 159 114
146 159 114
146 159 114
146 159 114
145 159 114
145 158 114
145 158 114
145 158 114
145 158 114
145 158 114
145 158 114
145 158 114
145 158 114
145 158 114
145 158 114
145 158 114
145 158 114
146 159 114
146 159 114
146 159 114
146 159 114
146 159 114
147 159 114
147 159 114
147 159 114
147 159 114
148 159 114
148 160 114
148 160 114
149 160 114
149 160 114
150 160 114
150 161 114
151 161 114
151 161 114
152 161 114
152 161 114
153 162 114
154 162 114
154 162 114
155 163 114
156 163 114
157 163 114
157 164 114
159 164 114
159 164 114
160 165 114
161 165 114
162 166 114
164 166 114
166 167 114
167 168 114
169 169 114
176 179 144
184 193 182
193 209 221
199 221 248
200 224 255
200 224 255
200 224 255
200 224 255
200 224 255
200 224 255
200 224 255
200 224 255
200 224 255
200 224 255
201 224 255
201 224 255
201 224 255
201 224 255
201 224 255
201 224 255
194 216 246
177 199 229
164 187 216
150 173 202
158 183 215
159 184 218
164 192 227
163 191 226
161 191 228
161 191 228
159 190 228
158 189 228
157 189 228
157 189 228
156 188 228
155 188 228
156 188 228
154 187 228
153 187 228
153 187 228
151 186 228
152 186 228
151 186 228
151 185 228
148 184 228
149 185 228
147 184 228
148 184 228
147 184 228
146 183 228
147 184 228
146 183 228
147 184 228
145 183 228
145 183 228
144 182 228
146 183 228
144 182 228
144 182 228
144 182 228
144 183 228
144 183 228
144 182 228
146 183 228
143 182 228
144 182 228
143 182 228
142 181 228
144 182 228
143 182 228
142 182 228
143 182 228
144 182 228
143 182 228
141 181 228
142 182 228
144 183 228
144 182 228
143 182 228
145 183 228
144 182 228
144 182 228
143 182 228
145 183 228
144 183 228
145 183 228
146 183 228
146 183 228
147 184 228
147 184 228
148 184 228
150 185 228
149 185 228
151 186 228
153 187 228
152 186 228
155 188 228
155 188 228
156 188 228
156 188 228
158 189 227
158 189 227
150 177 212
155 182 216
152 176 207
153 175 204
183 206 236
196 219 249
201 224 255
201 224 255
201 224 255
201 224 255
201 224 255
201 224 255
201 224 255
201 224 255
201 224 255
201 224 255
201 224 255
201 224 255
201 224 255
201 224 255
201 224 255
201 224 255
201 224 255
201 224 255
201 224 255
201 224 255
201 224 255
201 224 255
201 224 255
201 224 255
201 224 255
201 224 255
201 224 255
201 224 255
201 224 255
201 224 255
201 224 255
201 224 255
201 224 255
201 224 255
201 224 255
201 224 255
201 224 255
201 224 255
201 224 255
201 224 255
201 224 255
201 224 255
201 224 255
201 224 255
201 224 255
201 224 255
201 224 255
201 224 255
201 224 255
201 224 255
201 224 255
201 224 255
201 224 255
201 224 255
201 224 255
201 224 255
201 224 255
201 224 255
201 224 255
201 224 255
201 224 255
201 224 255
201 224 255
201 224 255
201 224 255
201 224 255
201 224 255
201 224 255
201 224 255
201 224 255
201 224 255
201 224 255
201 224 255
201 224 255
201 224 255
201 224 255
200 223 254
174 198 237
117 143 199
59 96 174
60 97 176
58 95 169
57 95 171
58 95 168
58 96 177
58 96 170
58 96 167
58 96 166
59 96 167
60 97 170
59 96 165
59 96 172
59 96 169
60 97 170
59 96 167
59 96 173
58 96 165
59 96 163
59 96 166
59 96 169
60 97 170
59 96 167
58 96 168
59 96 170
58 96 171
60 96 162
59 96 173
60 97 176
59 96 170
59 96 167
59 97 170
60 97 170
58 95 166
59 96 168
59 97 172
60 97 174
60 97 172
60 97 174
59 97 174
60 97 174
59 96 168
59 96 165
59 96 169
61 97 159
59 96 167
59 96 166
60 97 177
59 96 174
59 96 176
58 95 171
59 96 174
59 96 174
104 132 188
171 195 234
201 224 255
201 224 255
201 224 255
201 224 255
201 224 255
201 224 255
201 224 255
201 224 255
201 224 255
201 224 255
201 224 255
201 224 255
201 224 255
201 224 255
201 224 255
201 224 255
201 224 255
201 224 255
201 224 255
201 224 255
201 224 255
201 224 255
201 224 255
201 224 255
201 224 255
201 224 255
201 224 255
201 224 255
201 224 255
201 224 255
201 224 255
201 224 255
201 224 255
201 224 255
201 224 255
201 224 255
201 224 255
201 224 255
201 224 255
201 224 255
201 224 255
201 224 255
201 224 255
201 224 255
201 224 255
201 224 255
201 224 255
201 224 255
201 224 255
201 224 255
201 224 255
201 224 255
201 224 255
201 224 255
201 224 255
201 224 255
201 224 255
201 224 255
201 224 255
201 224 255
201 224 255
201 224 255
201 224 255
201 224 255
201 224 255
201 224 255
201 224 255
201 224 255
201 224 255
201 224 255
201 224 255
201 224 255
201 224 255
201 224 255
201 224 255
201 224 255
201 224 255
199 221 248
193 210 223
180 188 172
170 173 129
166 167 114
163 166 114
160 165 114
159 164 114
157 164 114
156 163 114
154 162 114
153 162 114
152 161 114
151 161 114
151 161 114
150 160 114
149 160 114
148 160 114
148 159 114
147 159 114
147 159 114
146 159 114
146 159 114
145 158 114
145 158 114
145 158 114
144 158 114
144 158 114
144 158 114
144 158 114
144 158 114
143 158 114
143 158 114
143 158 114
143 158 114
143 158 114
143 158 114
143 157 114
143 158 114
143 158 114
143 158 114
143 158 114
143 158 114
143 158 114
144 158 114
144 158 114
144 158 114
144 158 114
144 158 114
145 158 114
145 158 114
145 158 114
145 158 114
146 159 114
146 159 114
146 159 114
147 159 114
147 159 114
147 159 114
148 160 114
148 160 114
149 160 114
149 160 114
150 160 114
150 160 114
151 161 114
151 161 114
152 161 114
152 161 114
153 162 114
154 162 114
155 162 114
155 163 114
156 163 114
157 163 114
158 164 114
159 164 114
160 165 114
161 165 114
162 166 114
163 166 114
165 167 114
166 168 114
168 168 114
171 171 119
177 178 141
186 196 189
198 219 245
201 224 255
201 224 255
201 224 255
201 224 255
201 224 255
201 224 255
201 224 255
201 224 255
201 224 255
201 224 255
193 215 245
180 203 232
165 188 218
155 178 207
158 183 215
161 187 221
163 190 226
162 191 228
163 192 228
160 190 228
159 190 228
159 190 228
158 189 228
157 189 228
155 188 228
154 187 228
155 188 228
155 188 228
154 187 228
152 186 228
152 186 228
151 186 228
150 185 228
150 185 228
149 185 228
149 185 228
149 185 228
148 184 228
147 184 228
148 184 228
146 184 228
147 184 228
146 183 228
146 183 228
143 182 228
144 182 228
144 182 228
145 183 228
144 182 228
143 182 228
145 183 228
143 182 228
142 181 228
143 182 228
143 182 228
142 181 228
141 181 228
143 182 228
142 182 228
142 182 228
142 182 228
141 181 228
141 181 228
142 181 228
141 181 228
142 182 228
142 181 228
140 181 228
142 181 228
141 181 228
143 182 228
140 181 228
141 181 228
142 182 228
143 182 228
142 181 228
143 182 228
143 182 228
144 182 228
144 183 228
145 183 228
144 182 228
145 183 228
146 183 228
146 184 228
146 183 228
148 184 228
149 185 228
149 185 228
150 185 228
151 186 228
151 186 228
153 187 228
154 187 228
156 188 228
159 190 228
158 189 228
156 187 226
152 179 214
154 180 214
147 171 202
168 192 223
182 205 235
201 224 255
201 224 255
201 224 255
201 224 255
201 224 255
201 224 255
201 224 255
201 224 255
201 224 255
201 224 255
201 224 255
201 224 255
201 224 255
201 224 255
201 224 255
201 224 255
201 224 255
201 224 255
201 224 255
201 224 255
201 224 255
201 224 255
201 224 255
201 224 255
201 224 255
201 224 255
201 224 255
201 224 255
201 224 255
201 224 255
201 224 255
201 224 255
201 224 255
201 224 255
201 224 255
201 224 255
201 224 255
201 224 255
201 224 255
201 224 255
201 224 255
201 224 255
201 224 255
201 224 255
201 224 255
201 224 255
201 224 255
201 224 255
201 224 255
201 224 255
201 224 255
201 224 255
201 224 255
201 224 255
201 224 255
201 224 255
201 224 255
201 224 255
201 224 255
201 224 255
201 224 255
201 224 255
201 224 255
201 224 255
201 224 255
201 224 255
201 224 255
201 224 255
201 224 255
201 224 255
201 224 255
201 224 255
201 224 255
172 196 234
108 135 191
58 95 172
60 97 174
59 96 168
58 96 174
60 96 168
60 97 173
58 96 171
60 97 170
58 95 168
59 96 171
58 96 170
59 96 171
59 97 174
60 97 176
56 94 168
60 97 169
59 96 169
59 96 170
60 98 175
60 97 173
60 97 168
58 96 164
59 97 170
57 94 164
59 96 168
58 95 164
59 96 166
60 97 165
58 96 170
60 97 169
60 97 169
60 96 165
59 96 165
59 96 164
59 96 167
59 97 169
59 96 171
60 96 169
59 96 168
58 96 171
60 97 173
59 96 164
59 96 169
60 97 172
59 96 170
59 96 168
59 97 170
59 96 171
60 97 172
59 96 173
59 96 168
58 95 168
60 96 169
58 95 166
60 96 168
59 96 172
59 95 165
101 129 193
182 205 242
201 224 255
201 224 255
201 224 255
201 224 255
201 224 255
201 224 255
201 224 255
201 224 255
201 224 255
201 224 255
201 224 255
201 224 255
201 224 255
201 224 255
201 224 255
201 224 255
201 224 255
201 224 255
201 224 255
201 224 255
201 224 255
201 224 255
201 224 255
201 224 255
201 224 255
201 224 255
201 224 255
201 224 255
201 224 255
201 224 255
201 224 255
201 224 255
201 224 255
201 224 255
201 224 255
201 224 255
201 224 255
201 224 255
201 224 255
201 224 255
201 224 255
201 224 255
201 224 255
201 224 255
201 224 255
201 224 255
201 224 255
201 224 255
201 224 255
201 224 255
201 224 255
201 224 255
201 224 255
201 224 255
201 224 255
201 224 255
201 224 255
201 224 255
201 224 255
201 224 255
201 224 255
201 224 255
201 224 255
201 224 255
201 224 255
201 224 255
201 224 255
201 224 255
201 224 255
201 224 255
201 224 255
201 224 255
200 221 249
191 206 215
178 184 160
168 169 116
165 167 114
162 165 114
160 165 114
158 164 114
157 163 114
155 163 114
154 162 114
153 162 114
152 161 114
151 161 114
150 160 114
149 160 114
148 160 114
147 159 114
147 159 114
146 159 114
146 159 114
145 158 114
145 158 114
144 158 114
144 158 114
144 158 114
143 158 114
143 157 114
143 157 114
142 157 114
142 157 114
142 157 114
142 157 114
142 157 114
142 157 114
142 157 114
142 157 114
141 157 114
141 157 114
141 157 114
141 157 114
141 157 114
142 157 114
142 157 114
142 157 114
142 157 114
142 157 114
142 157 114
142 157 114
143 157 114
143 157 114
143 157 114
143 158 114
143 158 114
143 158 114
144 158 114
144 158 114
144 158 114
145 158 114
145 158 114
145 158 114
146 159 114
146 159 114
147 159 114
147 159 114
147 159 114
148 160 114
148 160 114
149 160 114
149 160 114
150 160 114
151 161 114
151 161 114
152 161 114
152 161 114
153 162 114
154 162 114
155 162 114
155 163 114
156 163 114
157 163 114
158 164 114
159 164 114
160 165 114
161 165 114
162 166 114
163 166 114
165 167 114
167 168 114
168 168 114
171 169 114
180 184 158
189 202 204
200 221 249
201 224 255
201 224 255
201 224 255
201 224 255
195 218 248
183 205 234
165 187 215
154 177 207
161 186 218
161 188 223
164 191 227
164 192 228
162 191 228
161 191 228
161 191 228
159 190 228
157 189 228
156 188 228
156 188 228
155 188 228
155 188 228
155 188 228
154 187 228
153 187 228
151 186 228
150 185 228
150 185 228
150 185 228
150 185 228
149 185 228
148 184 228
148 184 228
148 184 228
147 184 228
148 184 228
148 184 228
145 183 228
145 183 228
144 182 228
146 183 228
144 182 228
142 182 228
145 183 228
143 182 228
144 182 228
142 181 228
143 182 228
141 181 228
141 181 228
141 181 228
141 181 228
142 181 228
141 181 228
142 182 228
141 181 228
140 181 228
142 181 228
142 181 228
140 180 228
141 181 228
140 180 228
140 181 228
141 181 228
141 181 228
140 181 228
139 180 228
140 180 228
141 181 228
139 180 228
140 180 228
140 180 228
141 181 228
141 181 228
142 181 228
143 182 228
142 181 228
142 182 228
143 182 228
142 181 228
144 182 228
145 183 228
144 182 228
145 183 228
144 182 228
146 183 228
145 183 228
148 184 228
148 184 228
149 185 228
149 185 228
151 186 228
150 185 228
152 186 228
155 188 228
155 188 228
156 188 228
158 189 227
160 190 227
155 183 219
153 179 213
158 183 215
167 190 220
183 206 235
200 222 253
201 224 255
201 224 255
201 224 255
201 224 255
201 224 255
201 224 255
201 224 255
201 224 255
201 224 255
201 224 255
201 224 255
201 224 255
201 224 255
201 224 255
201 224 255
201 224 255
201 224 255
201 224 255
201 224 255
201 224 255
201 224 255
201 224 255
201 224 255
201 224 255
201 224 255
201 224 255
201 224 255
201 224 255
201 224 255
201 224 255
201 224 255
201 224 255
201 224 255
201 224 255
201 224 255
201 224 255
201 224 255
201 224 255
201 224 255
201 224 255
201 224 255
201 224 255
201 224 255
201 224 255
201 224 255
201 224 255
201 224 255
201 224 255
201 224 255
201 224 255
201 224 255
201 224 255
201 224 255
201 224 255
201 224 255
201 224 255
201 224 255
201 224 255
201 224 255
201 224 255
201 224 255
201 224 255
201 224 255
201 224 255
201 224 255
201 224 255
201 224 255
175 198 235
103 131 190
58 95 166
58 96 173
59 97 174
60 97 174
59 96 163
59 97 175
59 96 167
59 96 165
59 96 167
59 97 176
57 95 170
58 95 166
59 96 170
59 97 172
60 97 169
58 95 160
60 97 168
59 97 174
60 97 174
59 96 167
59 96 169
58 96 170
59 96 170
60 97 164
59 96 165
60 96 164
59 96 168
60 97 168
60 97 165
59 96 169
58 95 162
59 96 165
58 95 161
60 97 166
60 97 172
59 96 172
60 97 168
59 96 165
60 97 170
59 96 167
60 97 164
60 96 163
59 96 171
60 97 167
59 96 168
59 96 167
59 96 171
59 96 168
60 96 165
60 97 173
60 97 175
59 96 168
59 96 170
61 98 173
59 96 171
60 97 173
59 96 175
60 97 167
59 96 167
59 96 171
60 97 169
116 142 196
175 198 236
201 224 255
201 224 255
201 224 255
201 224 255
201 224 255
201 224 255
201 224 255
201 224 255
201 224 255
201 224 255
201 224 255
201 224 255
201 224 255
201 224 255
201 224 255
201 224 255
201 224 255
201 224 255
201 224 255
201 224 255
201 224 255
201 224 255
201 224 255
201 224 255
201 224 255
201 224 255
201 224 255
201 224 255
201 224 255
201 224 255
201 224 255
201 224 255
201 224 255
201 224 255
201 224 255
201 224 255
201 224 255
201 224 255
201 224 255
201 224 255
201 224 255
201 224 255
201 224 255
201 224 255
201 224 255
201 224 255
201 224 255
201 224 255
201 224 255
201 224 255
201 224 255
201 224 255
201 224 255
201 224 255
201 224 255
201 224 255
201 224 255
201 224 255
201 224 255
201 224 255
201 224 255
201 224 255
201 224 255
201 224 255
201 224 255
201 224 255
201 224 255
201 223 253
191 205 212
178 183 156
170 171 121
165 167 114
162 166 114
160 165 114
158 164 114
157 163 114
155 163 114
154 162 114
152 161 114
151 161 114
150 161 114
149 160 114
149 160 114
148 159 114
147 159 114
146 159 114
146 159 114
145 158 114
145 158 114
144 158 114
144 158 114
143 158 114
143 157 114
143 157 114
142 157 114
142 157 114
142 157 114
141 157 114
141 157 114
141 157 114
141 157 114
141 157 114
140 156 114
140 156 114
140 156 114
140 156 114
140 156 114
140 156 114
140 156 114
140 156 114
140 156 114
140 156 114
140 156 114
140 156 114
141 156 114
141 157 114
141 157 114
141 157 114
141 157 114
141 157 114
141 157 114
142 157 114
142 157 114
142 157 114
142 157 114
143 157 114
143 157 114
143 158 114
144 158 114
144 158 114
144 158 114
145 158 114
145 158 114
145 158 114
146 159 114
146 159 114
147 159 114
147 159 114
148 159 114
148 160 114
149 160 114
149 160 114
150 160 114
150 160 114
151 161 114
151 161 114
152 161 114
153 162 114
153 162 114
154 162 114
155 162 114
156 163 114
156 163 114
157 164 114
158 164 114
159 164 114
160 165 114
162 165 114
163 166 114
164 166 114
165 167 114
167 168 114
169 169 114
172 170 114
180 184 158
192 205 212
200 221 248
201 224 255
156 178 207
159 183 214
167 194 228
164 191 226
165 193 228
163 192 228
161 191 228
162 191 228
160 190 228
159 190 228
159 190 228
158 189 228
157 189 228
156 188 228
154 187 228
155 188 228
153 186 228
153 186 228
152 186 228
152 186 228
150 185 228
150 185 228
149 185 228
149 185 228
149 185 228
148 184 228
147 184 228
146 183 228
148 184 228
147 184 228
145 183 228
145 183 228
146 184 228
144 183 228
144 182 228
143 182 228
143 182 228
143 182 228
141 181 228
143 182 228
142 182 228
141 181 228
141 181 228
141 181 228
141 181 228
142 181 228
142 181 228
141 181 228
141 181 228
140 180 228
141 181 228
140 180 228
140 180 228
139 180 228
140 180 228
140 180 228
139 180 228
140 180 228
139 180 228
139 180 228
139 180 228
139 180 228
139 180 228
140 180 228
139 180 228
139 180 228
139 180 228
139 180 228
140 180 228
141 181 228
142 181 228
141 181 228
140 181 228
141 181 228
142 181 228
141 181 228
141 181 228
142 182 228
144 182 228
143 182 228
144 182 228
145 183 228
146 183 228
146 183 228
147 184 228
147 184 228
148 184 228
149 185 228
150 185 228
150 185 228
151 186 228
154 187 228
154 187 228
154 187 228
157 188 228
159 190 228
160 190 227
156 184 220
152 177 209
157 181 211
174 195 224
194 217 247
202 225 255
202 225 255
202 225 255
202 225 255
202 225 255
202 225 255
202 225 255
202 225 255
202 225 255
202 225 255
202 225 255
202 225 255
202 225 255
202 225 255
202 225 255
202 225 255
202 225 255
202 225 255
202 225 255
202 225 255
202 225 255
202 225 255
202 225 255
202 225 255
202 225 255
202 225 255
202 225 255
202 225 255
202 225 255
202 225 255
202 225 255
202 225 255
202 225 255
202 225 255
202 225 255
202 225 255
202 225 255
202 225 255
202 225 255
202 225 255
202 225 255
202 225 255
202 225 255
202 225 255
202 225 255
202 225 255
202 225 255
202 225 255
202 225 255
202 225 255
202 225 255
202 225 255
202 225 255
202 225 255
202 225 255
202 225 255
202 225 255
202 225 255
202 225 255
202 225 255
202 225 255
202 225 255
202 225 255
192 215 248
117 144 199
59 96 175
59 96 168
60 97 172
59 96 169
60 96 169
60 97 172
57 94 162
59 96 167
59 97 172
59 96 169
59 96 164
59 97 169
58 96 172
59 96 169
60 96 165
59 96 163
59 96 170
59 96 165
60 97 170
60 96 162
59 96 167
60 96 167
58 96 164
58 95 161
60 97 168
62 98 171
60 97 172
59 96 168
60 97 170
59 96 168
59 96 165
60 96 170
58 95 161
60 97 169
61 98 173
59 97 172
58 95 165
59 96 163
60 97 166
59 97 170
58 95 168
60 97 169
58 95 163
60 96 169
60 97 170
61 98 171
59 96 163
60 97 167
60 97 168
58 95 168
59 96 167
58 94 161
59 96 168
59 96 168
58 95 169
59 96 170
58 96 172
59 96 168
59 96 172
58 96 173
60 96 164
59 96 173
60 97 168
60 97 175
59 96 167
132 157 206
193 216 249
202 225 255
202 225 255
202 225 255
202 225 255
202 225 255
202 225 255
202 225 255
202 225 255
202 225 255
202 225 255
202 225 255
202 225 255
202 225 255
202 225 255
202 225 255
202 225 255
202 225 255
202 225 255
202 225 255
202 225 255
202 225 255
202 225 255
202 225 255
202 225 255
202 225 255
202 225 255
202 225 255
202 225 255
202 225 255
202 225 255
202 225 255
202 225 255
202 225 255
202 225 255
202 225 255
202 225 255
202 225 255
202 225 255
202 225 255
202 225 255
202 225 255
202 225 255
202 225 255
202 225 255
202 225 255
202 225 255
202 225 255
202 225 255
202 225 255
202 225 255
202 225 255
202 225 255
202 225 255
202 225 255
202 225 255
202 225 255
202 225 255
202 225 255
202 225 255
202 225 255
202 225 255
202 225 255
202 225 255
196 214 230
184 193 181
172 173 127
166 168 114
163 166 114
161 165 114
159 164 114
157 163 114
156 163 114
154 162 114
153 162 114
151 161 114
150 161 114
149 160 114
149 160 114
148 159 114
147 159 114
146 159 114
146 159 114
145 158 114
144 158 114
144 158 114
143 158 114
143 157 114
142 157 114
142 157 114
142 157 114
141 157 114
141 157 114
141 157 114
141 157 114
140 156 114
140 156 114
140 156 114
140 156 114
140 156 114
140 156 114
139 156 114
139 156 114
139 156 114
139 156 114
139 156 114
139 156 114
139 156 114
139 156 114
139 156 114
139 156 114
139 156 114
140 156 114
140 156 114
140 156 114
140 156 114
140 156 114
140 156 114
140 156 114
141 157 114
141 157 114
141 157 114
141 157 114
142 157 114
142 157 114
142 157 114
142 157 114
143 157 114
143 157 114
143 158 114
144 158 114
144 158 114
144 158 114
145 158 114
145 158 114
146 159 114
146 159 114
146 159 114
147 159 114
147 159 114
148 159 114
148 160 114
149 160 114
149 160 114
150 160 114
151 161 114
151 161 114
152 161 114
153 161 114
153 162 114
154 162 114
155 162 114
156 163 114
156 163 114
157 163 114
158 164 114
159 164 114
160 165 114
161 165 114
162 166 114
164 166 114
165 167 114
166 167 114
168 168 114
170 169 114
173 171 116
185 193 180
165 191 226
166 193 228
164 192 228
163 192 228
163 192 228
161 191 228
160 190 228
159 190 228
158 189 228
158 189 228
156 188 228
155 187 228
155 188 228
155 188 228
153 187 228
153 187 228
151 186 228
150 185 228
151 185 228
149 185 228
150 185 228
149 185 228
149 185 228
148 184 228
148 184 228
147 184 228
146 183 228
146 183 228
145 183 228
145 183 228
145 183 228
145 183 228
144 182 228
145 183 228
144 182 228
142 181 228
144 182 228
141 181 228
142 181 228
142 181 228
142 181 228
142 181 228
141 181 228
141 181 228
140 180 228
140 181 228
140 181 228
140 181 228
140 180 228
139 180 228
140 180 228
139 180 228
141 181 228
140 180 228
139 180 228
138 180 228
139 180 228
139 180 228
140 180 228
139 180 228
138 180 228
138 180 228
139 180 228
139 180 228
139 180 228
137 179 228
137 179 228
139 180 228
140 180 228
139 180 228
139 180 228
139 180 228
141 181 228
139 180 228
140 181 228
140 181 228
140 180 228
142 181 228
142 181 228
142 181 228
144 182 228
143 182 228
142 181 228
145 183 228
144 183 228
145 183 228
145 183 228
146 183 228
147 184 228
148 184 228
150 185 228
148 184 228
152 186 228
152 186 228
153 187 228
153 187 228
155 188 228
158 189 228
159 189 227
159 189 226
157 184 219
152 177 208
171 194 223
181 203 231
201 224 254
202 225 255
202 225 255
202 225 255
202 225 255
202 225 255
202 225 255
202 225 255
202 225 255
202 225 255
202 225 255
202 225 255
202 225 255
202 225 255
202 225 255
202 225 255
202 225 255
202 225 255
202 225 255
202 225 255
202 225 255
202 225 255
202 225 255
202 225 255
202 225 255
202 225 255
202 225 255
202 225 255
202 225 255
202 225 255
202 225 255
202 225 255
202 225 255
202 225 255
202 225 255
202 225 255
202 225 255
202 225 255
202 225 255
202 225 255
202 225 255
202 225 255
202 225 255
202 225 255
202 225 255
202 225 255
202 225 255
202 225 255
202 225 255
202 225 255
202 225 255
202 225 255
202 225 255
202 225 255
202 225 255
202 225 255
202 225 255
202 225 255
202 225 255
201 224 254
164 188 229
83 114 181
59 96 171
59 95 163
59 96 172
60 97 169
59 96 167
60 97 169
59 96 166
60 97 168
59 96 173
58 95 164
59 96 165
59 95 163
59 96 169
59 96 165
59 96 163
60 97 170
58 95 160
59 96 165
60 97 169
60 97 168
58 95 162
59 96 165
60 97 167
59 96 169
59 96 166
60 97 171
59 96 164
58 95 158
58 94 159
59 96 169
60 97 169
60 97 168
60 97 167
60 96 168
58 96 166
60 96 161
59 96 168
59 96 163
59 96 165
60 97 168
59 96 167
59 96 162
61 98 168
58 95 166
59 96 164
60 97 166
59 95 159
59 96 165
59 96 166
60 97 164
59 96 168
59 96 164
58 95 161
58 95 168
59 96 165
59 96 166
59 95 163
60 96 166
60 96 166
59 96 171
58 95 165
59 96 165
60 97 167
59 95 164
61 97 170
59 96 169
59 96 167
68 102 173
157 181 223
199 222 253
202 225 255
202 225 255
202 225 255
202 225 255
202 225 255
202 225 255
202 225 255
202 225 255
202 225 255
202 225 255
202 225 255
202 225 255
202 225 255
202 225 255
202 225 255
202 225 255
202 225 255
202 225 255
202 225 255
202 225 255
202 225 255
202 225 255
202 225 255
202 225 255
202 225 255
202 225 255
202 225 255
202 225 255
202 225 255
202 225 255
202 225 255
202 225 255
202 225 255
202 225 255
202 225 255
202 225 255
202 225 255
202 225 255
202 225 255
202 225 255
202 225 255
202 225 255
202 225 255
202 225 255
202 225 255
202 225 255
202 225 255
202 225 255
202 225 255
202 225 255
202 225 255
202 225 255
202 225 255
202 225 255
202 225 255
202 225 255
202 225 255
202 225 255
201 223 251
193 207 215
178 182 151
168 168 114
165 167 114
162 166 114
160 164 114
158 164 114
156 163 114
155 162 114
153 162 114
152 161 114
151 161 114
150 160 114
149 160 114
148 160 114
147 159 114
146 159 114
146 159 114
145 158 114
144 158 114
144 158 114
143 158 114
143 157 114
142 157 114
142 157 114
142 157 114
141 157 114
141 157 114
140 156 114
140 156 114
140 156 114
140 156 114
139 156 114
139 156 114
139 156 114
139 156 114
139 156 114
139 156 114
139 156 114
139 156 114
139 156 114
139 156 114
139 156 114
138 156 114
138 156 114
139 156 114
139 156 114
139 156 114
139 156 114
139 156 114
139 156 114
139 156 114
139 156 114
139 156 114
139 156 114
140 156 114
140 156 114
140 156 114
140 156 114
140 156 114
141 157 114
141 157 114
141 157 114
141 157 114
142 157 114
142 157 114
142 157 114
143 157 114
143 157 114
143 158 114
144 158 114
144 158 114
144 158 114
145 158 114
145 158 114
146 159 114
146 159 114
146 159 114
147 159 114
147 159 114
148 160 114
148 160 114
149 160 114
149 160 114
150 160 114
151 161 114
151 161 114
152 161 114
153 161 114
153 162 114
154 162 114
155 162 114
155 163 114
156 163 114
157 163 114
158 164 114
159 164 114
160 165 114
161 165 114
162 166 114
163 166 114
164 167 114
166 167 114
167 168 114
169 169 114
165 193 228
163 192 228
162 191 228
163 192 228
160 190 228
159 190 228
159 190 228
158 189 228
156 188 228
156 188 228
154 187 228
154 187 228
153 187 228
153 187 228
152 186 228
152 186 228
151 186 228
149 185 228
149 185 228
149 185 228
148 184 228
149 185 228
148 184 228
146 183 228
147 184 228
147 184 228
146 183 228
146 183 228
145 183 228
144 183 228
144 182 228
145 183 228
143 182 228
143 182 228
142 181 228
143 182 228
142 181 228
142 181 228
143 182 228
143 182 228
139 180 228
141 181 228
141 181 228
141 181 228
139 180 228
140 180 228
139 180 228
139 180 228
139 180 228
138 180 228
137 179 228
138 179 228
139 180 228
137 179 228
138 179 228
138 179 228
139 180 228
138 179 228
137 179 228
139 180 228
139 180 228
140 180 228
138 180 228
138 179 228
138 179 228
138 179 228
136 179 228
139 180 228
138 179 228
139 180 228
138 179 228
138 180 228
138 180 228
139 180 228
139 180 228
141 181 228
139 180 228
140 181 228
141 181 228
140 180 228
142 181 228
142 181 228
141 181 228
142 181 228
144 182 228
143 182 228
145 183 228
145 183 228
146 183 228
146 183 228
147 184 228
146 183 228
149 185 228
149 185 228
150 185 228
151 186 228
152 186 228
155 188 228
155 187 228
158 189 228
160 190 228
159 188 226
160 188 223
158 185 219
155 178 208
178 199 227
199 222 251
202 225 255
203 225 255
202 225 255
203 225 255
202 225 255
202 225 255
202 225 255
202 225 255
202 225 255
202 225 255
202 225 255
202 225 255
203 225 255
202 225 255
202 225 255
203 225 255
202 225 255
202 225 255
202 225 255
202 225 255
202 225 255
202 225 255
202 225 255
202 225 255
202 225 255
202 225 255
202 225 255
202 225 255
202 225 255
202 225 255
203 225 255
203 225 255
202 225 255
202 225 255
202 225 255
202 225 255
202 225 255
202 225 255
202 225 255
202 225 255
203 225 255
203 225 255
202 225 255
202 225 255
202 225 255
202 225 255
202 225 255
202 225 255
203 225 255
203 225 255
202 225 255
202 225 255
203 225 255
202 225 255
202 225 255
191 214 246
112 138 191
59 96 169
59 96 169
59 96 167
58 96 173
59 97 171
60 97 170
61 98 171
59 96 163
59 96 167
58 95 167
59 96 168
58 95 162
59 96 167
60 97 170
59 96 168
59 96 163
59 96 166
59 96 163
60 96 167
59 96 165
59 96 166
60 97 170
60 97 171
61 97 165
60 97 171
59 96 160
59 96 162
59 96 163
59 96 165
60 97 165
60 96 159
59 96 164
60 97 167
59 96 166
60 97 164
59 96 165
59 96 164
59 96 164
60 96 161
60 97 166
58 95 159
60 96 164
59 96 169
60 97 165
58 95 164
59 96 160
60 97 166
61 98 167
58 95 159
58 95 161
59 96 163
59 96 162
58 96 165
59 96 164
59 96 166
59 96 168
59 96 171
60 97 170
59 96 164
59 96 166
59 95 161
59 96 169
59 97 172
59 95 160
59 96 159
59 96 166
60 96 163
58 95 164
59 96 169
59 96 171
59 96 170
117 143 198
187 210 243
203 225 255
202 225 255
202 225 255
202 225 255
203 225 255
203 225 255
202 225 255
202 225 255
202 225 255
202 225 255
202 225 255
202 225 255
203 225 255
202 225 255
203 225 255
202 225 255
203 225 255
202 225 255
202 225 255
202 225 255
202 225 255
203 225 255
202 225 255
202 225 255
202 225 255
202 225 255
202 225 255
202 225 255
202 225 255
202 225 255
203 225 255
202 225 255
202 225 255
202 225 255
203 225 255
202 225 255
202 225 255
202 225 255
202 225 255
202 225 255
202 225 255
202 225 255
202 225 255
202 225 255
202 225 255
202 225 255
202 225 255
203 225 255
202 225 255
202 225 255
203 225 255
202 225 255
203 225 255
203 225 255
202 225 255
201 222 249
190 202 204
175 178 141
167 168 114
164 166 114
162 165 114
159 164 114
157 164 114
156 163 114
154 162 114
153 162 114
152 161 114
150 161 114
149 160 114
149 160 114
148 159 114
147 159 114
146 159 114
145 158 114
145 158 114
144 158 114
144 158 114
143 158 114
143 157 114
142 157 114
142 157 114
141 157 114
141 157 114
140 156 114
140 156 114
140 156 114
140 156 114
139 156 114
139 156 114
139 156 114
139 156 114
139 156 114
138 156 114
138 156 114
138 156 114
138 156 114
138 156 114
138 156 114
138 155 114
138 155 114
138 155 114
138 155 114
138 155 114
138 155 114
138 156 114
138 156 114
138 156 114
138 156 114
138 156 114
139 156 114
139 156 114
139 156 114
139 156 114
139 156 114
139 156 114
139 156 114
140 156 114
140 156 114
140 156 114
140 156 114
141 157 114
141 157 114
141 157 114
141 157 114
142 157 114
142 157 114
142 157 114
143 157 114
143 158 114
143 158 114
144 158 114
144 158 114
145 158 114
145 158 114
145 158 114
146 159 114
146 159 114
147 159 114
147 159 114
148 159 114
148 160 114
149 160 114
149 160 114
150 160 114
150 161 114
151 161 114
152 161 114
152 161 114
153 162 114
153 162 114
154 162 114
155 162 114
156 163 114
156 163 114
157 164 114
158 164 114
159 164 114
160 165 114
161 165 114
162 166 114
163 166 114
165 167 114
166 167 114
162 191 228
161 191 228
160 190 228
160 190 228
159 190 228
158 189 228
157 189 228
155 188 228
155 188 228
155 188 228
154 187 228
153 187 228
152 186 228
151 186 228
151 186 228
149 185 228
150 185 228
149 185 228
149 185 228
150 185 228
147 184 228
147 184 228
148 184 228
146 183 228
145 183 228
147 184 228
146 183 228
145 183 228
143 182 228
144 182 228
144 182 228
145 183 228
144 182 228
143 182 228
142 182 228
141 181 228
140 181 228
141 181 228
142 181 228
141 181 228
140 181 228
140 181 228
140 181 228
139 180 228
140 180 228
138 180 228
139 180 228
139 180 228
138 180 228
139 180 228
139 180 228
138 179 228
138 180 228
138 179 228
139 180 228
138 179 228
138 180 228
138 180 228
138 180 228
137 179 228
137 179 228
138 179 228
137 179 228
137 179 228
139 180 228
137 179 228
138 179 228
137 179 228
135 178 228
137 179 228
138 179 228
138 180 228
140 181 228
138 179 228
138 179 228
139 180 228
138 180 228
140 180 228
139 180 228
140 180 228
140 181 228
140 181 228
141 181 228
143 182 228
142 182 228
141 181 228
142 182 228
144 182 228
143 182 228
146 183 228
146 183 228
145 183 228
147 184 228
147 184 228
149 185 228
150 185 228
152 186 228
151 186 228
154 187 228
153 187 228
157 188 228
156 188 228
160 190 228
162 191 228
163 191 227
157 184 219
158 181 212
171 192 220
197 219 249
203 225 255
203 225 255
203 225 255
203 225 255
203 225 255
203 225 255
203 225 255
203 225 255
203 225 255
203 225 255
203 225 255
203 225 255
203 225 255
203 225 255
203 225 255
203 225 255
203 225 255
203 225 255
203 225 255
203 225 255
203 225 255
203 225 255
203 225 255
203 225 255
203 225 255
203 225 255
203 225 255
203 225 255
203 225 255
203 225 255
203 225 255
203 225 255
203 225 255
203 225 255
203 225 255
203 225 255
203 225 255
203 225 255
203 225 255
203 225 255
203 225 255
203 225 255
203 225 255
203 225 255
203 225 255
203 225 255
203 225 255
203 225 255
203 225 255
203 225 255
203 225 255
203 225 255
168 191 231
64 100 170
59 97 172
59 96 171
58 95 164
58 95 168
59 96 169
60 97 171
58 95 165
59 96 167
59 95 160
58 95 157
59 95 160
61 97 170
60 97 163
60 97 170
60 97 167
61 98 169
59 96 168
58 95 165
60 96 161
58 95 166
59 96 164
59 96 164
60 96 165
58 95 164
59 96 166
60 97 163
59 96 162
59 96 160
60 97 166
59 96 163
60 97 166
60 96 166
62 99 174
58 95 160
59 96 167
60 97 168
61 97 167
60 97 168
59 95 161
59 96 168
59 96 164
60 96 169
59 96 163
59 96 163
60 97 165
59 96 167
60 97 170
61 98 172
60 97 168
60 97 173
59 96 163
59 95 161
61 98 168
60 96 166
59 96 163
60 97 162
59 96 169
60 96 165
59 96 164
60 97 175
59 96 158
60 97 170
60 97 164
59 96 163
59 96 163
60 97 172
61 97 167
59 96 170
59 95 164
59 96 168
59 95 167
58 95 164
60 97 172
81 112 178
164 187 228
203 225 255
203 225 255
203 225 255
203 225 255
203 225 255
203 225 255
203 225 255
203 225 255
203 225 255
203 225 255
203 225 255
203 225 255
203 225 255
203 225 255
203 225 255
203 225 255
203 225 255
203 225 255
203 225 255
203 225 255
203 225 255
203 225 255
203 225 255
203 225 255
203 225 255
203 225 255
203 225 255
203 225 255
203 225 255
203 225 255
203 225 255
203 225 255
203 225 255
203 225 255
203 225 255
203 225 255
203 225 255
203 225 255
203 225 255
203 225 255
203 225 255
203 225 255
203 225 255
203 225 255
203 225 255
203 225 255
203 225 255
203 225 255
203 225 255
203 225 255
203 225 255
203 225 255
199 219 240
186 194 182
173 173 127
166 168 114
164 166 114
161 165 114
159 164 114
157 163 114
156 163 114
154 162 114
153 162 114
152 161 114
150 161 114
149 160 114
148 160 114
147 159 114
147 159 114
146 159 114
145 158 114
145 158 114
144 158 114
143 158 114
143 157 114
142 157 114
142 157 114
141 157 114
141 157 114
141 157 114
140 156 114
140 156 114
140 156 114
139 156 114
139 156 114
139 156 114
139 156 114
139 156 114
138 156 114
138 156 114
138 156 114
138 155 114
138 155 114
138 155 114
138 155 114
138 155 114
138 155 114
138 155 114
138 155 114
138 155 114
138 155 114
138 155 114
138 155 114
138 155 114
138 155 114
138 155 114
138 156 114
138 156 114
138 156 114
138 156 114
139 156 114
139 156 114
139 156 114
139 156 114
139 156 114
139 156 114
140 156 114
140 156 114
140 156 114
140 156 114
141 157 114
141 157 114
141 157 114
141 157 114
142 157 114
142 157 114
142 157 114
143 157 114
143 158 114
143 158 114
144 158 114
144 158 114
145 158 114
145 158 114
145 158 114
146 159 114
146 159 114
147 159 114
147 159 114
148 159 114
148 160 114
149 160 114
149 160 114
150 160 114
150 160 114
151 161 114
151 161 114
152 161 114
153 161 114
153 162 114
154 162 114
155 162 114
155 163 114
156 163 114
157 163 114
158 164 114
158 164 114
159 164 114
160 165 114
161 165 114
162 166 114
163 166 114
161 191 228
160 190 228
159 190 228
158 189 228
157 189 228
156 188 228
156 188 228
156 188 228
155 188 228
154 187 228
152 186 228
152 186 228
152 186 228
152 186 228
152 186 228
151 186 228
149 185 228
151 186 228
148 184 228
147 184 228
148 184 228
148 184 228
146 183 228
146 184 228
145 183 228
145 183 228
146 183 228
145 183 228
146 183 228
144 182 228
144 183 228
143 182 228
142 181 228
144 183 228
142 181 228
142 181 228
142 181 228
141 181 228
141 181 228
141 181 228
140 181 228
140 181 228
141 181 228
139 180 228
141 181 228
141 181 228
138 180 228
140 180 228
139 180 228
139 180 228
139 180 228
138 180 228
139 180 228
138 179 228
137 179 228
139 180 228
139 180 228
137 179 228
138 180 228
137 179 228
136 179 228
139 180 228
137 179 228
138 179 228
136 179 228
137 179 228
139 180 228
138 179 228
136 179 228
137 179 228
138 179 228
138 180 228
137 179 228
139 180 228
139 180 228
139 180 228
139 180 228
140 180 228
140 181 228
140 180 228
140 181 228
140 180 228
140 180 228
141 181 228
142 181 228
140 181 228
140 180 228
142 182 228
143 182 228
143 182 228
145 183 228
146 183 228
145 183 228
145 183 228
148 184 228
148 184 228
149 185 228
149 185 228
151 186 228
153 187 228
153 187 228
154 187 228
157 188 228
158 189 228
159 190 228
161 191 228
161 190 226
157 183 216
148 171 200
162 182 210
196 218 247
203 225 255
203 225 255
203 225 255
203 225 255
203 225 255
203 225 255
203 225 255
203 225 255
203 225 255
203 225 255
203 225 255
203 225 255
203 225 255
203 225 255
203 225 255
203 225 255
203 225 255
203 225 255
203 225 255
203 225 255
203 225 255
203 225 255
203 225 255
203 225 255
203 225 255
203 225 255
203 225 255
203 225 255
203 225 255
203 225 255
203 225 255
203 225 255
203 225 255
203 225 255
203 225 255
203 225 255
203 225 255
203 225 255
203 225 255
203 225 255
203 225 255
203 225 255
203 225 255
203 225 255
203 225 255
203 225 255
203 225 255
203 225 255
197 219 250
135 160 208
58 95 169
59 96 166
60 97 170
60 96 166
59 96 170
60 96 166
59 96 170
59 96 163
60 96 169
60 97 165
60 97 172
59 96 163
59 95 165
59 97 170
60 96 165
59 96 165
59 96 167
59 96 166
59 96 164
60 97 161
59 96 165
59 96 164
60 97 169
60 97 167
60 97 169
59 96 165
59 96 160
60 96 162
59 96 165
59 96 160
60 97 167
58 95 159
60 97 165
59 96 164
59 95 157
60 97 166
59 96 164
59 96 163
60 97 174
60 97 165
59 96 167
60 97 165
59 96 159
59 96 164
59 95 159
60 96 158
59 96 158
59 96 163
59 96 162
59 95 156
60 97 165
59 95 160
58 95 164
59 95 159
59 96 161
59 95 163
60 96 169
58 95 166
60 97 167
59 96 165
58 94 159
58 94 158
58 95 160
60 96 167
59 96 162
59 96 163
59 95 162
59 95 160
60 96 163
59 95 158
60 96 162
60 96 162
59 96 162
60 97 172
60 97 170
58 95 164
60 96 166
132 157 204
200 222 253
203 225 255
203 225 255
203 225 255
203 225 255
203 225 255
203 225 255
203 225 255
203 225 255
203 225 255
203 225 255
203 225 255
203 225 255
203 225 255
203 225 255
203 225 255
203 225 255
203 225 255
203 225 255
203 225 255
203 225 255
203 225 255
203 225 255
203 225 255
203 225 255
203 225 255
203 225 255
203 225 255
203 225 255
203 225 255
203 225 255
203 225 255
203 225 255
203 225 255
203 225 255
203 225 255
203 225 255
203 225 255
203 225 255
203 225 255
203 225 255
203 225 255
203 225 255
203 225 255
203 225 255
203 225 255
203 225 255
203 225 255
203 225 255
201 222 248
185 192 177
171 170 116
167 168 114
164 166 114
161 165 114
159 164 114
157 163 114
156 163 114
154 162 114
153 162 114
151 161 114
151 161 114
149 160 114
149 160 114
148 159 114
147 159 114
146 159 114
145 158 114
145 158 114
144 158 114
143 158 114
143 157 114
142 157 114
142 157 114
142 157 114
141 157 114
141 157 114
140 156 114
140 156 114
140 156 114
139 156 114
139 156 114
139 156 114
139 156 114
138 156 114
138 156 114
138 156 114
138 155 114
138 155 114
138 155 114
138 155 114
138 155 114
138 155 114
138 155 114
137 155 114
137 155 114
137 155 114
137 155 114
137 155 114
138 155 114
138 155 114
138 155 114
138 155 114
138 155 114
138 155 114
138 155 114
138 156 114
138 156 114
138 156 114
138 156 114
139 156 114
139 156 114
139 156 114
139 156 114
139 156 114
140 156 114
140 156 114
140 156 114
140 156 114
141 157 114
141 157 114
141 157 114
141 157 114
142 157 114
142 157 114
142 157 114
143 157 114
143 157 114
143 158 114
144 158 114
144 158 114
144 158 114
145 158 114
145 158 114
145 159 114
146 159 114
146 159 114
147 159 114
147 159 114
148 159 114
148 160 114
149 160 114
149 160 114
150 160 114
150 160 114
151 161 114
151 161 114
152 161 114
152 161 114
153 162 114
154 162 114
154 162 114
155 163 114
156 163 114
157 163 114
157 164 114
158 164 114
159 164 114
160 165 114
161 165 114
162 165 114
159 190 228
159 189 228
158 189 228
157 189 228
157 189 228
156 188 228
155 188 228
155 188 228
154 187 228
155 188 228
153 187 228
151 186 228
150 185 228
151 186 228
150 185 228
151 186 228
150 185 228
148 184 228
149 185 228
148 184 228
148 184 228
147 184 228
147 184 228
147 184 228
145 183 228
145 183 228
145 183 228
143 182 228
144 182 228
145 183 228
143 182 228
143 182 228
143 182 228
142 182 228
142 181 228
141 181 228
141 181 228
142 181 228
141 181 228
141 181 228
140 181 228
140 180 228
139 180 228
140 181 228
139 180 228
139 180 228
137 179 228
139 180 228
138 180 228
140 180 228
137 179 228
139 180 228
138 180 228
139 180 228
139 180 228
138 179 228
137 179 228
137 179 228
138 179 228
138 179 228
139 180 228
137 179 228
136 179 228
137 179 228
137 179 228
137 179 228
137 179 228
137 179 228
137 179 228
137 179 228
136 179 228
137 179 228
138 180 228
138 179 228
136 179 228
138 179 228
138 180 228
140 180 228
138 180 228
139 180 228
140 180 228
140 180 228
141 181 228
139 180 228
141 181 228
142 181 228
142 182 228
141 181 228
141 181 228
143 182 228
144 182 228
142 181 228
144 182 228
145 183 228
145 183 228
146 183 228
147 184 228
148 184 228
149 185 228
150 185 228
151 186 228
152 186 228
153 187 228
155 188 228
156 188 228
157 188 228
158 189 228
161 191 228
161 189 225
161 187 221
153 177 207
172 193 221
197 218 247
204 226 255
204 226 255
204 226 255
204 226 255
204 226 255
204 226 255
204 226 255
204 226 255
204 226 255
204 226 255
204 226 255
204 226 255
204 226 255
204 226 255
204 226 255
204 226 255
204 226 255
204 226 255
204 226 255
204 226 255
204 226 255
204 226 255
204 226 255
204 226 255
204 226 255
204 226 255
204 226 255
204 226 255
204 226 255
204 226 255
204 226 255
204 226 255
204 226 255
204 226 255
204 226 255
204 226 255
204 226 255
204 226 255
204 226 255
204 226 255
204 226 255
204 226 255
204 226 255
204 226 255
204 226 255
191 213 245
98 126 186
59 96 175
59 96 168
60 97 167
59 96 165
59 96 171
59 95 168
58 95 166
60 96 166
58 95 163
58 95 165
58 95 163
60 96 166
59 96 166
59 96 163
61 97 169
58 95 160
59 96 168
59 96 165
59 96 168
60 96 168
58 95 161
58 94 152
59 96 160
61 97 165
60 97 165
60 97 164
60 96 166
59 96 164
59 95 158
59 96 159
60 97 168
58 95 156
59 96 162
61 98 171
58 95 158
58 96 166
60 97 157
59 96 160
61 98 169
60 97 162
60 97 165
60 96 158
59 95 159
61 98 168
60 97 168
60 97 167
59 96 161
60 96 161
58 95 160
59 96 163
60 97 166
60 97 167
60 97 165
60 97 167
60 97 163
59 96 165
59 95 163
59 96 168
59 96 165
60 97 164
60 96 165
60 97 168
60 96 160
60 97 166
58 95 160
60 97 168
59 95 165
60 96 165
60 96 162
59 96 165
59 96 169
60 96 167
60 97 170
60 97 166
59 96 167
59 96 164
60 96 165
59 95 155
59 97 173
87 117 178
189 211 245
204 226 255
204 226 255
204 226 255
204 226 255
204 226 255
204 226 255
204 226 255
204 226 255
204 226 255
204 226 255
204 226 255
204 226 255
204 226 255
204 226 255
204 226 255
204 226 255
204 226 255
204 226 255
204 226 255
204 226 255
204 226 255
204 226 255
204 226 255
204 226 255
204 226 255
204 226 255
204 226 255
204 226 255
204 226 255
204 226 255
204 226 255
204 226 255
204 226 255
204 226 255
204 226 255
204 226 255
204 226 255
204 226 255
204 226 255
204 226 255
204 226 255
204 226 255
204 226 255
204 226 255
204 226 255
202 223 250
187 195 184
172 172 121
167 168 114
164 166 114
161 165 114
159 164 114
157 164 114
156 163 114
154 162 114
153 162 114
152 161 114
151 161 114
150 160 114
149 160 114
148 160 114
147 159 114
146 159 114
146 159 114
145 158 114
144 158 114
144 158 114
143 158 114
143 157 114
142 157 114
142 157 114
141 157 114
141 157 114
141 157 114
140 156 114
140 156 114
140 156 114
139 156 114
139 156 114
139 156 114
139 156 114
138 156 114
138 156 114
138 156 114
138 155 114
138 155 114
138 155 114
138 155 114
138 155 114
138 155 114
137 155 114
137 155 114
137 155 114
137 155 114
137 155 114
137 155 114
137 155 114
138 155 114
138 155 114
138 155 114
138 155 114
138 155 114
138 155 114
138 155 114
138 156 114
138 156 114
138 156 114
139 156 114
139 156 114
139 156 114
139 156 114
139 156 114
139 156 114
140 156 114
140 156 114
140 156 114
140 156 114
141 157 114
141 157 114
141 157 114
141 157 114
142 157 114
142 157 114
142 157 114
142 157 114
143 157 114
143 158 114
143 158 114
144 158 114
144 158 114
145 158 114
145 158 114
145 158 114
146 159 114
146 159 114
147 159 114
147 159 114
147 159 114
148 160 114
148 160 114
149 160 114
149 160 114
150 160 114
150 161 114
151 161 114
151 161 114
152 161 114
153 161 114
153 162 114
154 162 114
154 162 114
155 163 114
156 163 114
156 163 114
157 163 114
158 164 114
159 164 114
160 165 114
160 165 114
159 190 228
158 189 228
157 189 228
156 188 228
157 188 228
155 187 228
155 188 228
154 187 228
154 187 228
154 187 228
151 186 228
152 186 228
151 186 228
152 186 228
150 185 228
150 185 228
150 185 228
150 185 228
148 184 228
148 184 228
148 184 228
146 183 228
146 183 228
146 183 228
145 183 228
145 183 228
145 183 228
144 182 228
144 182 228
144 182 228
143 182 228
142 181 228
143 182 228
142 181 228
143 182 228
141 181 228
142 181 228
142 182 228
140 180 228
141 181 228
141 181 228
141 181 228
138 179 228
139 180 228
140 181 228
139 180 228
140 180 228
139 180 228
138 180 228
140 180 228
139 180 228
138 180 228
138 180 228
138 180 228
137 179 228
137 179 228
138 180 228
137 179 228
137 179 228
137 179 228
138 180 228
136 179 228
137 179 228
138 180 228
137 179 228
138 180 228
137 179 228
138 179 228
138 179 228
138 179 228
137 179 228
137 179 228
137 179 228
139 180 228
140 180 228
139 180 228
137 179 228
138 180 228
139 180 228
139 180 228
139 180 228
140 180 228
139 180 228
139 180 228
140 180 228
141 181 228
139 180 228
142 182 228
142 181 228
143 182 228
143 182 228
144 182 228
144 182 228
144 183 228
145 183 228
145 183 228
146 183 228
148 184 228
148 184 228
148 184 228
150 185 228
150 185 228
151 186 228
152 186 228
153 187 228
155 188 228
156 188 228
159 190 228
160 190 228
162 191 228
164 192 227
155 181 214
157 180 209
175 196 223
200 222 251
204 226 255
204 226 255
204 226 255
204 226 255
204 226 255
204 226 255
204 226 255
204 226 255
204 226 255
204 226 255
204 226 255
204 226 255
204 226 255
204 226 255
204 226 255
204 226 255
204 226 255
204 226 255
204 226 255
204 226 255
204 226 255
204 226 255
204 226 255
204 226 255
204 226 255
204 226 255
204 226 255
204 226 255
204 226 255
204 226 255
204 226 255
204 226 255
204 226 255
204 226 255
204 226 255
204 226 255
204 226 255
204 226 255
204 226 255
204 226 255
204 226 255
204 226 255
172 194 234
82 113 180
58 95 167
59 96 170
59 96 171
60 97 170
61 97 167
58 95 161
59 95 165
59 96 168
59 96 166
60 97 165
59 96 168
61 98 168
60 97 164
59 96 160
59 95 165
61 97 168
59 96 170
59 96 161
59 96 166
61 97 167
60 97 171
60 96 161
59 96 162
58 95 159
60 97 161
58 95 161
58 95 157
58 95 157
59 96 165
60 96 163
61 97 162
58 95 162
60 97 163
59 96 167
59 96 163
60 96 162
60 97 165
59 95 161
60 97 164
59 96 162
60 96 162
60 97 166
59 96 164
59 96 158
60 96 161
59 96 162
58 95 156
59 96 164
60 96 159
60 97 162
58 95 159
60 96 162
59 96 162
58 94 157
59 96 163
59 96 167
60 97 168
59 96 166
59 96 165
61 97 168
59 96 164
60 97 167
59 96 162
60 96 165
59 95 160
59 96 162
59 96 167
59 96 165
60 97 168
60 97 168
60 96 166
59 96 166
61 97 167
58 95 158
59 96 168
59 96 169
59 96 167
59 96 161
58 95 167
60 96 169
59 95 165
81 112 178
181 203 238
204 226 255
204 226 255
204 226 255
204 226 255
204 226 255
204 226 255
204 226 255
204 226 255
204 226 255
204 226 255
204 226 255
204 226 255
204 226 255
204 226 255
204 226 255
204 226 255
204 226 255
204 226 255
204 226 255
204 226 255
204 226 255
204 226 255
204 226 255
204 226 255
204 226 255
204 226 255
204 226 255
204 226 255
204 226 255
204 226 255
204 226 255
204 226 255
204 226 255
204 226 255
204 226 255
204 226 255
204 226 255
204 226 255
204 226 255
204 226 255
204 226 255
204 226 255
202 222 247
188 197 189
173 172 121
168 168 114
165 167 114
162 166 114
160 165 114
158 164 114
156 163 114
155 162 114
154 162 114
152 161 114
151 161 114
150 161 114
149 160 114
148 160 114
147 159 114
147 159 114
146 159 114
145 158 114
145 158 114
144 158 114
144 158 114
143 158 114
143 157 114
142 157 114
142 157 114
141 157 114
141 157 114
141 156 114
140 156 114
140 156 114
140 156 114
139 156 114
139 156 114
139 156 114
139 156 114
139 156 114
138 156 114
138 156 114
138 156 114
138 155 114
138 155 114
138 155 114
138 155 114
138 155 114
138 155 114
138 155 114
138 155 114
138 155 114
138 155 114
138 155 114
138 155 114
138 155 114
138 155 114
138 155 114
138 155 114
138 155 114
138 155 114
138 156 114
138 156 114
138 156 114
138 156 114
139 156 114
139 156 114
139 156 114
139 156 114
139 156 114
139 156 114
140 156 114
140 156 114
140 156 114
140 156 114
140 156 114
141 157 114
141 157 114
141 157 114
141 157 114
142 157 114
142 157 114
142 157 114
143 157 114
143 157 114
143 158 114
144 158 114
144 158 114
144 158 114
145 158 114
145 158 114
145 158 114
146 159 114
146 159 114
146 159 114
147 159 114
147 159 114
148 159 114
148 160 114
149 160 114
149 160 114
150 160 114
150 160 114
151 161 114
151 161 114
152 161 114
152 161 114
153 162 114
153 162 114
154 162 114
155 162 114
155 163 114
156 163 114
156 163 114
157 163 114
158 164 114
159 164 114
159 164 114
157 189 228
158 189 228
157 188 228
156 188 228
155 188 228
155 187 228
154 187 228
153 187 228
154 187 228
152 186 228
152 186 228
153 187 228
152 186 228
151 186 228
150 185 228
150 185 228
148 184 228
149 185 228
147 184 228
147 184 228
145 183 228
147 184 228
145 183 228
146 183 228
146 183 228
144 182 228
145 183 228
145 183 228
145 183 228
144 182 228
143 182 228
142 182 228
143 182 228
144 182 228
142 182 228
142 181 228
142 181 228
142 181 228
142 181 228
141 181 228
141 181 228
141 181 228
140 180 228
140 181 228
140 180 228
139 180 228
140 180 228
141 181 228
139 180 228
139 180 228
140 180 228
139 180 228
138 180 228
139 180 228
138 180 228
137 179 228
140 181 228
136 179 228
137 179 228
137 179 228
139 180 228
137 179 228
138 180 228
138 179 228
138 180 228
137 179 228
138 180 228
138 180 228
138 179 228
139 180 228
138 179 228
139 180 228
138 180 228
138 180 228
139 180 228
138 179 228
139 180 228
140 181 228
139 180 228
140 180 228
139 180 228
140 181 228
140 180 228
140 180 228
140 181 228
142 181 228
143 182 228
141 181 228
140 181 228
141 181 228
141 181 228
143 182 228
143 182 228
144 182 228
145 183 228
146 183 228
146 183 228
146 183 228
146 183 228
148 184 228
148 184 228
150 185 228
151 186 228
151 186 228
152 186 228
153 187 228
154 187 228
156 188 228
159 189 228
160 190 228
161 191 228
164 192 228
163 189 223
157 182 213
160 182 211
182 202 229
202 224 252
204 226 255
204 226 255
204 226 255
204 226 255
204 226 255
204 226 255
204 226 255
204 226 255
204 226 255
204 226 255
204 226 255
204 226 255
204 226 255
204 226 255
204 226 255
204 226 255
204 226 255
204 226 255
204 226 255
204 226 255
204 226 255
204 226 255
204 226 255
204 226 255
204 226 255
204 226 255
204 226 255
204 226 255
204 226 255
204 226 255
204 226 255
204 226 255
204 226 255
204 226 255
204 226 255
204 226 255
204 226 255
204 226 255
204 226 255
177 199 235
76 108 173
59 96 166
58 96 166
60 97 173
59 96 164
59 96 166
61 97 167
59 96 164
60 97 164
60 97 172
58 95 160
60 96 162
60 97 169
59 95 160
58 95 159
58 95 161
60 96 163
60 97 164
59 96 163
60 97 166
60 97 168
59 95 158
59 95 154
60 96 159
61 97 162
59 96 163
61 98 166
61 97 160
60 97 165
59 96 162
60 97 162
59 96 160
60 97 168
60 96 162
60 96 161
59 96 166
60 97 162
60 97 166
60 97 164
58 95 154
59 95 160
60 96 162
59 96 162
59 95 156
61 97 167
59 96 159
59 96 160
61 97 166
59 96 165
60 96 161
60 96 157
60 97 165
60 96 165
59 96 162
59 95 162
59 96 168
61 98 168
60 96 162
58 95 156
59 95 154
60 96 165
59 96 159
59 96 166
59 96 163
60 96 157
62 98 170
59 95 162
60 96 161
59 96 158
59 95 160
60 97 165
59 96 167
59 96 164
59 95 156
59 95 156
59 95 164
60 96 165
59 96 166
60 96 168
58 95 163
60 96 164
59 95 162
60 97 172
59 95 159
62 98 168
165 187 225
204 226 255
204 226 255
204 226 255
204 226 255
204 226 255
204 226 255
204 226 255
204 226 255
204 226 255
204 226 255
204 226 255
204 226 255
204 226 255
204 226 255
204 226 255
204 226 255
204 226 255
204 226 255
204 226 255
204 226 255
204 226 255
204 226 255
204 226 255
204 226 255
204 226 255
204 226 255
204 226 255
204 226 255
204 226 255
204 226 255
204 226 255
204 226 255
204 226 255
204 226 255
204 226 255
204 226 255
204 226 255
204 226 255
204 226 255
204 225 254
192 204 207
178 179 141
169 169 114
165 167 114
163 166 114
161 165 114
159 164 114
157 163 114
156 163 114
154 162 114
153 162 114
152 161 114
151 161 114
150 160 114
149 160 114
148 160 114
147 159 114
147 159 114
146 159 114
145 158 114
145 158 114
144 158 114
144 158 114
143 158 114
143 157 114
142 157 114
142 157 114
141 157 114
141 157 114
141 157 114
140 156 114
140 156 114
140 156 114
140 156 114
139 156 114
139 156 114
139 156 114
139 156 114
139 156 114
138 156 114
138 156 114
138 156 114
138 156 114
138 155 114
138 155 114
138 155 114
138 155 114
138 155 114
138 155 114
138 155 114
138 155 114
138 155 114
138 155 114
138 155 114
138 155 114
138 155 114
138 155 114
138 156 114
138 156 114
138 156 114
138 156 114
138 156 114
139 156 114
139 156 114
139 156 114
139 156 114
139 156 114
139 156 114
140 156 114
140 156 114
140 156 114
140 156 114
140 156 114
141 156 114
141 157 114
141 157 114
141 157 114
141 157 114
142 157 114
142 157 114
142 157 114
143 157 114
143 157 114
143 158 114
143 158 114
144 158 114
144 158 114
144 158 114
145 158 114
145 158 114
145 158 114
146 159 114
146 159 114
147 159 114
147 159 114
147 159 114
148 159 114
148 160 114
149 160 114
149 160 114
149 160 114
150 160 114
150 161 114
151 161 114
151 161 114
152 161 114
152 161 114
153 162 114
154 162 114
154 162 114
155 162 114
155 163 114
156 163 114
157 163 114
157 164 114
158 164 114
159 164 114
157 189 228
158 189 228
156 188 228
156 188 228
155 188 228
155 187 228
154 187 228
154 187 228
153 187 228
152 186 228
152 186 228
152 186 228
150 185 228
150 185 228
149 185 228
149 185 228
149 185 228
148 184 228
148 184 228
148 184 228
146 183 228
148 184 228
146 184 228
146 183 228
147 184 228
145 183 228
145 183 228
145 183 228
145 183 228
145 183 228
145 183 228
144 183 228
142 181 228
141 181 228
143 182 228
143 182 228
143 182 228
141 181 228
143 182 228
142 181 228
142 181 228
140 181 228
140 181 228
140 181 228
140 180 228
141 181 228
140 180 228
138 179 228
140 181 228
141 181 228
140 181 228
139 180 228
138 180 228
139 180 228
139 180 228
138 180 228
139 180 228
138 179 228
139 180 228
139 180 228
140 180 228
138 180 228
138 179 228
138 180 228
138 180 228
139 180 228
139 180 228
138 179 228
138 179 228
138 180 228
138 179 228
137 179 228
138 180 228
139 180 228
139 180 228
139 180 228
140 180 228
139 180 228
138 179 228
138 180 228
138 180 228
139 180 228
140 180 228
140 180 228
139 180 228
139 180 228
141 181 228
140 180 228
140 181 228
141 181 228
142 182 228
142 182 228
143 182 228
144 182 228
143 182 228
143 182 228
144 183 228
146 183 228
146 183 228
147 184 228
147 184 228
149 185 228
148 184 228
150 185 228
150 185 228
152 186 228
153 187 228
153 187 228
156 188 228
156 188 228
156 188 228
159 190 228
161 191 228
166 193 228
161 187 221
154 178 209
165 186 214
183 202 229
205 226 255
205 226 255
205 226 255
205 226 255
205 226 255
205 226 255
205 226 255
205 226 255
205 226 255
205 226 255
205 226 255
205 226 255
205 226 255
205 226 255
205 226 255
205 226 255
205 226 255
205 226 255
205 226 255
205 226 255
205 226 255
205 226 255
205 226 255
205 226 255
205 226 255
205 226 255
205 226 255
205 226 255
205 226 255
205 226 255
205 226 255
205 226 255
205 226 255
205 226 255
205 226 255
205 226 255
205 226 255
154 177 217
58 95 169
58 94 161
60 96 163
58 95 165
57 93 152
59 95 161
60 96 166
59 95 160
61 97 168
60 96 168
59 96 164
60 97 167
60 96 165
60 97 163
60 97 164
60 97 166
59 95 163
60 97 163
60 96 165
61 98 169
59 95 158
59 95 157
59 96 159
61 97 165
60 97 165
60 96 163
59 96 160
60 96 159
59 96 161
59 95 153
60 96 158
60 97 166
59 96 160
60 96 163
58 95 157
58 95 161
60 97 161
59 96 162
59 96 161
60 96 161
60 97 166
59 96 157
59 96 156
60 97 162
59 95 161
59 96 163
60 96 159
60 96 160
59 96 160
60 96 162
60 96 160
59 96 162
61 97 167
60 96 160
58 95 161
59 95 155
60 97 169
60 96 164
59 95 161
60 97 167
59 96 163
59 95 159
60 96 159
59 95 157
59 96 164
59 96 160
58 95 158
59 95 160
58 95 155
60 97 164
59 96 162
61 97 169
59 95 160
60 96 160
60 97 166
61 97 163
58 95 159
59 96 165
59 96 161
59 96 165
60 96 165
59 95 163
59 94 158
58 94 162
60 97 170
60 97 169
63 98 162
152 175 217
205 226 255
205 226 255
205 226 255
205 226 255
205 226 255
205 226 255
205 226 255
205 226 255
205 226 255
205 226 255
205 226 255
205 226 255
205 226 255
205 226 255
205 226 255
205 226 255
205 226 255
205 226 255
205 226 255
205 226 255
205 226 255
205 226 255
205 226 255
205 226 255
205 226 255
205 226 255
205 226 255
205 226 255
205 226 255
205 226 255
205 226 255
205 226 255
205 226 255
205 226 255
205 226 255
205 226 255
205 226 255
200 217 236
181 184 153
170 169 114
167 168 114
164 166 114
162 165 114
160 165 114
158 164 114
156 163 114
155 163 114
154 162 114
153 162 114
152 161 114
151 161 114
150 160 114
149 160 114
148 160 114
147 159 114
147 159 114
146 159 114
145 158 114
145 158 114
144 158 114
144 158 114
143 158 114
143 157 114
142 157 114
142 157 114
142 157 114
141 157 114
141 157 114
141 157 114
140 156 114
140 156 114
140 156 114
140 156 114
139 156 114
139 156 114
139 156 114
139 156 114
139 156 114
139 156 114
139 156 114
138 156 114
138 156 114
138 156 114
138 156 114
138 156 114
138 156 114
138 156 114
138 156 114
138 156 114
138 156 114
138 156 114
138 156 114
138 156 114
138 156 114
138 156 114
138 156 114
138 156 114
139 156 114
139 156 114
139 156 114
139 156 114
139 156 114
139 156 114
139 156 114
139 156 114
140 156 114
140 156 114
140 156 114
140 156 114
140 156 114
140 156 114
141 157 114
141 157 114
141 157 114
141 157 114
142 157 114
142 157 114
142 157 114
142 157 114
143 157 114
143 157 114
143 158 114
143 158 114
144 158 114
144 158 114
144 158 114
145 158 114
145 158 114
145 158 114
146 159 114
146 159 114
146 159 114
147 159 114
147 159 114
147 159 114
148 160 114
148 160 114
149 160 114
149 160 114
150 160 114
150 160 114
150 161 114
151 161 114
151 161 114
152 161 114
152 161 114
153 162 114
153 162 114
154 162 114
155 162 114
155 163 114
156 163 114
156 163 114
157 163 114
158 164 114
158 164 114
158 189 228
156 188 228
157 188 228
155 188 228
155 188 228
155 188 228
154 187 228
155 188 228
152 186 228
152 186 228
153 187 228
151 186 228
151 186 228
151 186 228
149 185 228
150 185 228
150 185 228
149 185 228
148 184 228
148 184 228
148 184 228
148 184 228
146 183 228
147 184 228
146 183 228
146 183 228
147 184 228
145 183 228
146 183 228
145 183 228
144 183 228
143 182 228
144 182 228
143 182 228
145 183 228
144 183 228
143 182 228
143 182 228
141 181 228
142 181 228
143 182 228
142 181 228
141 181 228
140 180 228
141 181 228
141 181 228
141 181 228
141 181 228
139 180 228
141 181 228
139 180 228
139 180 228
140 180 228
139 180 228
139 180 228
140 180 228
141 181 228
139 180 228
139 180 228
138 179 228
138 179 228
140 181 228
139 180 228
139 180 228
138 180 228
139 180 228
139 180 228
138 180 228
138 180 228
139 180 228
138 180 228
140 180 228
138 180 228
138 180 228
139 180 228
139 180 228
138 180 228
139 180 228
138 180 228
138 180 228
138 179 228
139 180 228
141 181 228
140 180 228
141 181 228
141 181 228
141 181 228
142 181 228
141 181 228
142 181 228
142 181 228
142 181 228
143 182 228
143 182 228
143 182 228
144 182 228
144 183 228
145 183 228
146 183 228
146 183 228
147 184 228
149 185 228
149 185 228
149 185 228
149 185 228
148 184 228
152 186 228
152 186 228
155 188 228
156 188 228
157 189 228
158 189 228
159 190 228
160 190 228
163 192 228
164 191 226
161 186 218
155 178 208
171 191 218
201 222 250
205 226 255
205 226 255
205 226 255
205 226 255
205 226 255
205 226 255
205 226 255
205 226 255
205 226 255
205 226 255
205 226 255
205 226 255
205 226 255
205 226 255
205 226 255
205 226 255
205 226 255
205 226 255
205 226 255
205 226 255
205 226 255
205 226 255
205 226 255
205 226 255
205 226 255
205 226 255
205 226 255
205 226 255
205 226 255
205 226 255
205 226 255
205 226 255
205 226 255
205 226 255
140 163 207
59 96 169
59 95 164
58 95 161
59 95 160
58 95 159
60 96 163
59 96 168
59 95 164
59 95 158
60 97 169
59 96 166
58 95 153
60 97 168
60 96 169
60 97 171
59 96 166
59 96 163
58 95 155
59 96 161
59 96 164
58 95 160
60 97 166
59 96 163
58 95 155
60 97 164
59 96 164
58 95 156
59 96 158
59 95 156
61 97 161
60 97 160
59 96 167
61 97 166
59 95 157
59 95 156
59 96 160
61 97 162
58 95 159
57 94 154
60 96 165
60 97 162
59 95 156
59 95 160
59 96 160
60 97 163
60 96 158
60 96 162
61 97 166
59 96 159
60 96 167
60 97 163
58 95 163
60 96 163
59 95 154
59 95 153
61 98 167
59 95 155
59 95 152
59 96 159
60 96 163
60 97 167
60 96 161
59 95 155
60 96 166
58 95 157
60 96 164
60 96 164
58 94 153
59 95 150
59 95 158
59 95 158
60 97 166
61 97 168
61 97 164
59 95 162
59 96 161
59 95 158
60 96 161
60 96 164
60 96 163
60 96 166
60 97 168
60 96 163
59 96 163
60 96 165
60 96 162
59 95 167
60 97 168
58 94 157
145 168 207
204 225 254
205 226 255
205 226 255
205 226 255
205 226 255
205 226 255
205 226 255
205 226 255
205 226 255
205 226 255
205 226 255
205 226 255
205 226 255
205 226 255
205 226 255
205 226 255
205 226 255
205 226 255
205 226 255
205 226 255
205 226 255
205 226 255
205 226 255
205 226 255
205 226 255
205 226 255
205 226 255
205 226 255
205 226 255
205 226 255
205 226 255
205 226 255
205 226 255
205 226 255
204 225 252
191 201 199
173 172 119
168 168 114
165 167 114
163 166 114
161 165 114
159 164 114
157 164 114
156 163 114
155 162 114
154 162 114
152 161 114
151 161 114
150 161 114
150 160 114
149 160 114
148 160 114
147 159 114
147 159 114
146 159 114
145 158 114
145 158 114
144 158 114
144 158 114
143 158 114
143 158 114
143 157 114
142 157 114
142 157 114
142 157 114
141 157 114
141 157 114
141 157 114
140 156 114
140 156 114
140 156 114
140 156 114
140 156 114
139 156 114
139 156 114
139 156 114
139 156 114
139 156 114
139 156 114
139 156 114
139 156 114
139 156 114
139 156 114
139 156 114
139 156 114
139 156 114
139 156 114
139 156 114
139 156 114
139 156 114
139 156 114
139 156 114
139 156 114
139 156 114
139 156 114
139 156 114
139 156 114
139 156 114
139 156 114
139 156 114
140 156 114
140 156 114
140 156 114
140 156 114
140 156 114
140 156 114
140 156 114
141 157 114
141 157 114
141 157 114
141 157 114
141 157 114
142 157 114
142 157 114
142 157 114
142 157 114
143 157 114
143 157 114
143 158 114
143 158 114
144 158 114
144 158 114
144 158 114
144 158 114
145 158 114
145 158 114
145 158 114
146 159 114
146 159 114
146 159 114
147 159 114
147 159 114
147 159 114
148 159 114
148 160 114
148 160 114
149 160 114
149 160 114
150 160 114
150 160 114
151 161 114
151 161 114
151 161 114
152 161 114
152 161 114
153 162 114
153 162 114
154 162 114
154 162 114
155 163 114
156 163 114
156 163 114
157 163 114
157 164 114
158 164 114
157 189 228
157 189 228
156 188 228
156 188 228
155 188 228
155 188 228
154 187 228
152 186 228
154 187 228
153 187 228
153 187 228
151 186 228
151 186 228
151 186 228
152 186 228
150 185 228
149 185 228
149 185 228
149 185 228
148 184 228
147 184 228
148 184 228
148 184 228
148 184 228
147 184 228
146 183 228
146 184 228
146 183 228
146 183 228
144 183 228
144 182 228
146 183 228
143 182 228
144 183 228
143 182 228
143 182 228
143 182 228
143 182 228
144 182 228
141 181 228
142 182 228
142 181 228
141 181 228
142 181 228
141 181 228
142 181 228
141 181 228
140 181 228
143 182 228
141 181 228
141 181 228
141 181 228
141 181 228
140 181 228
140 180 228
140 180 228
139 180 228
139 180 228
140 180 228
140 180 228
140 180 228
139 180 228
139 180 228
138 179 228
138 179 228
139 180 228
140 180 228
139 180 228
140 180 228
140 180 228
138 179 228
139 180 228
139 180 228
139 180 228
139 180 228
140 180 228
141 181 228
140 181 228
140 181 228
138 179 228
141 181 228
140 181 228
141 181 228
140 181 228
142 181 228
140 181 228
141 181 228
141 181 228
141 181 228
141 181 228
141 181 228
141 181 228
144 182 228
143 182 228
143 182 228
143 182 228
145 183 228
145 183 228
143 182 228
145 183 228
145 183 228
148 184 228
147 184 228
148 184 228
149 185 228
151 186 228
151 186 228
151 186 228
152 186 228
153 186 228
154 187 228
156 188 228
157 188 228
160 190 228
160 190 228
162 191 228
164 192 228
164 190 225
161 185 216
152 173 200
186 206 233
205 227 255
205 227 255
205 227 255
205 227 255
205 227 255
205 227 255
205 227 255
205 227 255
205 227 255
205 227 255
205 227 255
205 227 255
205 227 255
205 227 255
205 227 255
205 227 255
205 227 255
205 227 255
205 227 255
205 227 255
205 227 255
205 227 255
205 227 255
205 227 255
205 227 255
205 227 255
205 227 255
205 227 255
205 227 255
205 227 255
205 227 255
205 227 255
147 170 213
58 95 167
60 96 165
60 96 166
60 97 164
59 96 170
58 95 162
59 95 161
60 96 162
60 96 164
59 96 161
59 96 164
60 96 161
60 97 168
61 98 168
60 96 161
58 95 163
59 95 159
59 96 163
59 95 160
59 96 160
60 96 164
60 96 163
58 94 156
60 97 167
58 95 153
58 95 162
60 96 164
59 96 162
59 95 160
60 97 165
58 95 162
59 96 159
59 96 164
59 95 154
59 96 158
61 98 167
60 96 160
60 96 159
59 96 159
59 96 161
59 96 163
60 96 162
59 95 158
60 96 157
60 97 165
59 96 154
59 96 156
59 96 166
60 97 171
59 96 155
60 96 163
59 96 163
59 95 156
59 95 159
59 95 158
60 97 161
59 95 155
60 96 161
58 95 156
59 95 154
60 96 161
59 96 160
60 96 159
60 96 165
60 96 160
60 97 167
60 97 169
59 96 163
60 96 160
58 95 154
58 95 157
60 96 163
60 97 163
60 96 167
60 97 165
60 97 167
59 96 162
59 96 161
58 95 157
59 95 161
58 95 157
59 96 165
61 96 158
59 96 163
60 96 157
59 95 157
60 96 161
58 94 163
59 95 163
58 95 162
58 94 159
148 171 212
205 227 255
205 227 255
205 227 255
205 227 255
205 227 255
205 227 255
205 227 255
205 227 255
205 227 255
205 227 255
205 227 255
205 227 255
205 227 255
205 227 255
205 227 255
205 227 255
205 227 255
205 227 255
205 227 255
205 227 255
205 227 255
205 227 255
205 227 255
205 227 255
205 227 255
205 227 255
205 227 255
205 227 255
205 227 255
205 227 255
205 226 255
205 227 255
197 211 221
177 175 127
170 169 114
167 168 114
164 167 114
162 166 114
160 165 114
159 164 114
157 163 114
156 163 114
155 162 114
153 162 114
152 161 114
151 161 114
151 161 114
150 160 114
149 160 114
148 160 114
147 159 114
147 159 114
146 159 114
146 159 114
145 158 114
145 158 114
144 158 114
144 158 114
143 158 114
143 158 114
143 157 114
142 157 114
142 157 114
142 157 114
141 157 114
141 157 114
141 157 114
141 157 114
141 157 114
140 156 114
140 156 114
140 156 114
140 156 114
140 156 114
140 156 114
140 156 114
139 156 114
139 156 114
139 156 114
139 156 114
139 156 114
139 156 114
139 156 114
139 156 114
139 156 114
139 156 114
139 156 114
139 156 114
139 156 114
139 156 114
139 156 114
139 156 114
139 156 114
139 156 114
140 156 114
140 156 114
140 156 114
140 156 114
140 156 114
140 156 114
140 156 114
140 156 114
141 156 114
141 157 114
141 157 114
141 157 114
141 157 114
141 157 114
142 157 114
142 157 114
142 157 114
142 157 114
142 157 114
143 157 114
143 157 114
143 158 114
143 158 114
144 158 114
144 158 114
144 158 114
144 158 114
145 158 114
145 158 114
145 158 114
145 159 114
146 159 114
146 159 114
146 159 114
147 159 114
147 159 114
147 159 114
148 159 114
148 160 114
148 160 114
149 160 114
149 160 114
150 160 114
150 160 114
150 161 114
151 161 114
151 161 114
152 161 114
152 161 114
153 161 114
153 162 114
153 162 114
154 162 114
154 162 114
155 162 114
155 163 114
156 163 114
157 163 114
157 163 114
158 164 114
156 188 228
157 189 228
156 188 228
155 188 228
156 188 228
156 188 228
154 187 228
153 187 228
152 186 228
152 186 228
151 186 228
152 186 228
151 186 228
150 185 228
152 186 228
149 185 228
150 185 228
149 185 228
148 184 228
149 185 228
149 185 228
149 185 228
147 184 228
147 184 228
145 183 228
145 183 228
146 183 228
146 183 228
144 182 228
146 183 228
147 184 228
145 183 228
146 183 228
144 183 228
145 183 228
145 183 228
143 182 228
142 181 228
143 182 228
143 182 228
143 182 228
142 181 228
143 182 228
143 182 228
141 181 228
144 182 228
142 181 228
143 182 228
140 181 228
141 181 228
141 181 228
142 181 228
141 181 228
140 181 228
140 181 228
141 181 228
142 181 228
139 180 228
139 180 228
141 181 228
139 180 228
139 180 228
140 180 228
140 180 228
141 181 228
140 180 228
140 181 228
140 181 228
138 179 228
140 180 228
140 180 228
139 180 228
140 180 228
139 180 228
140 181 228
141 181 228
141 181 228
142 181 228
140 181 228
141 181 228
142 181 228
140 180 228
141 181 228
142 181 228
141 181 228
140 180 228
140 181 228
139 180 228
142 181 228
142 181 228
142 181 228
144 182 228
144 182 228
142 181 228
143 182 228
144 183 228
144 182 228
143 182 228
144 182 228
146 183 228
146 183 228
146 183 228
145 183 228
148 184 228
149 185 228
149 185 228
152 186 228
151 186 228
151 186 228
153 186 228
154 187 228
155 188 228
155 188 228
159 190 228
159 189 228
160 190 228
161 191 228
164 192 228
165 193 228
166 191 223
162 185 215
162 182 208
204 225 253
206 227 255
206 227 255
206 227 255
206 227 255
206 227 255
206 227 255
206 227 255
206 227 255
206 227 255
206 227 255
206 227 255
206 227 255
206 227 255
206 227 255
206 227 255
206 227 255
206 227 255
206 227 255
206 227 255
206 227 255
206 227 255
206 227 255
206 227 255
206 227 255
206 227 255
206 227 255
206 227 255
206 227 255
206 227 255
149 171 215
60 97 164
59 96 165
59 95 162
59 95 156
59 95 161
60 96 164
58 95 164
61 98 171
59 95 160
59 95 161
60 96 160
60 97 165
60 96 165
61 97 164
61 97 166
61 97 166
60 96 162
60 97 166
60 97 167
60 96 157
59 95 159
59 96 160
61 97 164
60 96 158
59 96 162
59 96 162
61 97 165
58 95 156
60 96 162
59 96 156
58 95 155
59 96 158
61 97 159
59 96 162
60 96 161
61 98 170
58 95 151
60 96 161
59 96 164
57 94 152
59 96 165
59 96 157
60 96 157
59 96 164
60 96 159
58 95 153
59 95 154
60 97 166
60 96 159
59 96 163
59 96 165
59 96 159
58 94 154
60 96 157
59 96 161
59 96 160
59 95 157
60 96 161
59 96 159
59 96 157
58 94 154
60 96 160
59 96 162
60 96 158
60 96 162
60 96 160
59 95 156
59 96 161
58 95 157
59 95 159
59 95 160
59 96 164
60 96 164
59 96 161
58 94 151
60 96 164
59 95 158
61 97 165
59 96 155
60 96 162
58 94 156
59 95 161
59 96 163
60 97 167
60 97 162
58 95 163
59 97 172
59 95 163
59 96 163
59 95 159
58 94 159
59 95 164
59 94 155
137 160 204
206 227 255
206 227 255
206 227 255
206 227 255
206 227 255
206 227 255
206 227 255
206 227 255
206 227 255
206 227 255
206 227 255
206 227 255
206 227 255
206 227 255
206 227 255
206 227 255
206 227 255
206 227 255
206 227 255
206 227 255
206 227 255
206 227 255
206 227 255
206 227 255
206 227 255
206 227 255
206 227 255
206 227 255
206 227 255
204 224 250
189 195 181
173 171 114
169 169 114
166 167 114
164 166 114
162 166 114
160 165 114
159 164 114
157 163 114
156 163 114
155 162 114
154 162 114
153 161 114
152 161 114
151 161 114
150 160 114
149 160 114
149 160 114
148 160 114
147 159 114
147 159 114
146 159 114
146 159 114
145 158 114
145 158 114
144 158 114
144 158 114
144 158 114
143 158 114
143 157 114
143 157 114
142 157 114
142 157 114
142 157 114
142 157 114
141 157 114
141 157 114
141 157 114
141 157 114
141 157 114
140 156 114
140 156 114
140 156 114
140 156 114
140 156 114
140 156 114
140 156 114
140 156 114
140 156 114
140 156 114
140 156 114
140 156 114
140 156 114
140 156 114
140 156 114
140 156 114
140 156 114
140 156 114
140 156 114
140 156 114
140 156 114
140 156 114
140 156 114
140 156 114
140 156 114
140 156 114
141 157 114
141 157 114
141 157 114
141 157 114
141 157 114
141 157 114
141 157 114
142 157 114
142 157 114
142 157 114
142 157 114
142 157 114
142 157 114
143 157 114
143 157 114
143 158 114
143 158 114
143 158 114
144 158 114
144 158 114
144 158 114
144 158 114
145 158 114
145 158 114
145 158 114
145 159 114
146 159 114
146 159 114
146 159 114
147 159 114
147 159 114
147 159 114
148 159 114
148 159 114
148 160 114
148 160 114
149 160 114
149 160 114
150 160 114
150 160 114
150 161 114
151 161 114
151 161 114
151 161 114
152 161 114
152 161 114
153 162 114
153 162 114
154 162 114
154 162 114
155 162 114
155 163 114
156 163 114
156 163 114
157 163 114
157 163 114
158 164 114
157 189 228
157 188 228
156 188 228
155 188 228
156 188 228
155 188 228
154 187 228
154 187 228
153 187 228
153 186 228
153 187 228
151 186 228
152 186 228
151 186 228
153 187 228
151 185 228
150 185 228
148 184 228
151 186 228
150 185 228
148 184 228
148 184 228
148 184 228
147 184 228
148 184 228
146 183 228
147 184 228
148 184 228
147 184 228
148 184 228
147 184 228
147 184 228
145 183 228
145 183 228
145 183 228
145 183 228
145 183 228
145 183 228
144 183 228
145 183 228
144 183 228
144 182 228
143 182 228
143 182 228
143 182 228
143 182 228
141 181 228
144 182 228
142 181 228
143 182 228
142 181 228
140 181 228
142 181 228
141 181 228
141 181 228
141 181 228
141 181 228
141 181 228
140 180 228
140 181 228
140 181 228
140 181 228
141 181 228
142 181 228
140 180 228
141 181 228
141 181 228
139 180 228
139 180 228
140 180 228
140 181 228
140 180 228
140 180 228
140 181 228
140 181 228
140 180 228
140 180 228
140 180 228
141 181 228
141 181 228
140 181 228
140 180 228
141 181 228
141 181 228
141 181 228
140 181 228
142 181 228
143 182 228
142 181 228
141 181 228
143 182 228
141 181 228
143 182 228
143 182 228
143 182 228
144 182 228
145 183 228
144 182 228
146 184 228
147 184 228
145 183 228
145 183 228
146 184 228
148 184 228
149 185 228
149 185 228
149 185 228
150 185 228
151 186 228
152 186 228
153 186 228
153 186 228
155 188 228
157 189 228
157 189 228
158 189 228
161 191 228
160 190 228
164 192 228
166 193 228
168 194 227
158 182 213
151 171 197
193 213 240
206 227 255
206 227 255
206 227 255
206 227 255
206 227 255
206 227 255
206 227 255
206 227 255
206 227 255
206 227 255
206 227 255
206 227 255
206 227 255
206 227 255
206 227 255
206 227 255
206 227 255
206 227 255
206 227 255
206 227 255
206 227 255
206 227 255
206 227 255
206 227 255
206 227 255
206 227 255
206 227 255
153 175 216
58 95 164
59 95 166
58 94 163
58 94 156
59 95 166
59 96 167
60 97 165
60 96 161
60 97 164
60 97 168
60 96 162
59 95 157
59 95 163
60 96 152
60 96 160
60 96 163
59 95 153
59 95 154
59 95 158
60 96 164
58 94 154
60 96 160
59 95 159
60 96 161
60 96 163
60 97 161
59 95 163
60 96 160
59 96 160
59 95 154
60 96 162
59 96 163
60 96 161
59 96 160
59 96 158
59 96 164
60 96 163
60 96 158
61 97 165
59 95 160
59 96 159
60 97 163
59 95 159
60 96 157
59 96 160
59 95 158
60 97 162
59 96 161
59 96 155
60 96 157
58 94 150
60 96 154
59 96 154
61 97 162
60 97 168
60 96 159
60 96 163
60 97 168
60 96 163
58 95 156
58 95 155
59 95 159
60 96 164
60 97 162
60 97 163
58 95 156
59 95 157
59 95 153
60 96 158
58 94 156
60 96 160
59 96 166
60 97 166
60 96 159
60 96 158
59 95 157
60 97 163
60 96 158
61 97 166
58 95 164
60 96 165
60 97 159
59 95 155
59 96 161
59 95 159
59 96 161
60 96 170
59 95 159
60 97 166
60 95 164
60 97 167
59 95 161
60 96 162
59 95 165
59 95 167
160 182 216
206 227 255
206 227 255
206 227 255
206 227 255
206 227 255
206 227 255
206 227 255
206 227 255
206 227 255
206 227 255
206 227 255
206 227 255
206 227 255
206 227 255
206 227 255
206 227 255
206 227 255
206 227 255
206 227 255
206 227 255
206 227 255
206 227 255
206 227 255
206 227 255
206 227 255
206 227 255
206 227 255
201 216 231
179 178 133
172 170 114
168 168 114
165 167 114
163 166 114
162 165 114
160 165 114
158 164 114
157 163 114
156 163 114
155 162 114
154 162 114
153 162 114
152 161 114
151 161 114
150 161 114
150 160 114
149 160 114
148 160 114
148 159 114
147 159 114
147 159 114
146 159 114
146 159 114
145 158 114
145 158 114
144 158 114
144 158 114
144 158 114
143 158 114
143 158 114
143 157 114
143 157 114
142 157 114
142 157 114
142 157 114
142 157 114
142 157 114
141 157 114
141 157 114
141 157 114
141 157 114
141 157 114
141 157 114
141 157 114
141 157 114
141 157 114
141 157 114
141 157 114
140 156 114
140 156 114
140 156 114
140 156 114
140 156 114
140 156 114
140 156 114
140 156 114
141 157 114
141 157 114
141 157 114
141 157 114
141 157 114
141 157 114
141 157 114
141 157 114
141 157 114
141 157 114
141 157 114
141 157 114
142 157 114
142 157 114
142 157 114
142 157 114
142 157 114
142 157 114
142 157 114
143 157 114
143 157 114
143 157 114
143 158 114
143 158 114
143 158 114
144 158 114
144 158 114
144 158 114
144 158 114
145 158 114
145 158 114
145 158 114
145 158 114
146 159 114
146 159 114
146 159 114
146 159 114
147 159 114
147 159 114
147 159 114
147 159 114
148 159 114
148 160 114
148 160 114
149 160 114
149 160 114
149 160 114
150 160 114
150 160 114
150 161 114
151 161 114
151 161 114
151 161 114
152 161 114
152 161 114
153 162 114
153 162 114
154 162 114
154 162 114
154 162 114
155 162 114
155 163 114
156 163 114
156 163 114
157 163 114
157 163 114
158 164 114
157 189 228
157 189 228
156 188 228
155 188 228
155 188 228
155 188 228
156 188 228
154 187 228
153 186 228
153 187 228
153 187 228
153 187 228
152 186 228
151 186 228
152 186 228
151 186 228
151 186 228
150 185 228
150 185 228
148 184 228
148 184 228
149 185 228
148 184 228
147 184 228
149 185 228
147 184 228
148 184 228
147 184 228
149 185 228
147 184 228
147 184 228
147 184 228
146 183 228
147 184 228
147 184 228
145 183 228
147 184 228
145 183 228
145 183 228
145 183 228
144 183 228
146 183 228
144 182 228
144 182 228
144 182 228
144 182 228
142 181 228
144 183 228
144 182 228
142 181 228
143 182 228
142 182 228
141 181 228
144 182 228
142 181 228
143 182 228
142 182 228
143 182 228
141 181 228
142 181 228
141 181 228
142 181 228
141 181 228
142 181 228
141 181 228
142 182 228
142 182 228
141 181 228
141 181 228
143 182 228
141 181 228
142 181 228
142 181 228
140 180 228
141 181 228
141 181 228
142 181 228
143 182 228
142 181 228
141 181 228
142 181 228
142 181 228
141 181 228
142 182 228
142 181 228
141 181 228
143 182 228
143 182 228
143 182 228
144 182 228
142 181 228
143 182 228
143 182 228
145 183 228
142 182 228
143 182 228
145 183 228
145 183 228
144 182 228
146 183 228
147 184 228
147 184 228
148 184 228
148 184 228
148 184 228
148 184 228
148 184 228
151 186 228
150 185 228
151 186 228
154 187 228
153 187 228
154 187 228
153 187 228
156 188 228
157 189 228
158 189 228
161 190 228
161 191 228
163 192 228
166 193 228
168 194 228
166 190 221
157 179 208
181 201 228
206 227 255
206 227 255
206 227 255
206 227 255
206 227 255
206 227 255
206 227 255
206 227 255
206 227 255
206 227 255
206 227 255
206 227 255
206 227 255
206 227 255
206 227 255
206 227 255
206 227 255
206 227 255
206 227 255
206 227 255
206 227 255
206 227 255
206 227 255
206 227 255
206 227 255
165 187 226
62 98 170
58 94 165
59 95 160
59 96 164
59 96 164
58 95 160
57 94 157
60 96 162
59 95 162
61 97 165
59 95 160
59 95 150
60 96 162
60 96 157
60 97 163
59 96 160
59 95 152
60 97 163
60 97 160
60 97 162
61 97 167
61 97 166
59 96 159
59 96 160
61 97 154
59 96 160
60 96 156
59 95 150
59 96 159
60 97 159
60 97 160
61 97 162
60 96 156
60 97 162
59 95 159
59 96 157
59 95 159
60 96 165
59 95 151
60 96 162
59 95 154
59 96 163
59 96 154
58 95 154
58 94 150
59 96 160
60 96 160
60 96 166
59 95 155
60 97 164
59 95 156
59 96 158
58 95 153
59 95 152
59 96 155
61 97 161
59 95 158
61 97 165
60 96 160
60 97 165
59 96 163
60 96 160
59 96 156
60 96 161
58 95 153
60 96 162
59 96 163
60 96 158
62 97 162
61 97 158
61 97 159
59 95 155
58 94 149
60 96 166
59 95 158
59 95 161
59 95 148
60 97 164
59 95 152
60 96 164
60 95 162
59 96 162
59 96 156
59 95 151
60 96 163
60 96 164
59 95 164
59 95 155
59 96 166
60 96 161
59 95 161
60 96 162
60 96 164
59 96 163
60 97 170
58 93 155
66 101 170
166 188 223
206 227 255
206 227 255
206 227 255
206 227 255
206 227 255
206 227 255
206 227 255
206 227 255
206 227 255
206 227 255
206 227 255
206 227 255
206 227 255
206 227 255
206 227 255
206 227 255
206 227 255
206 227 255
206 227 255
206 227 255
206 227 255
206 227 255
206 227 255
206 227 255
206 227 254
195 206 207
175 172 116
171 170 114
168 168 114
165 167 114
163 166 114
162 165 114
160 165 114
159 164 114
157 164 114
156 163 114
155 163 114
154 162 114
153 162 114
152 161 114
151 161 114
151 161 114
150 160 114
149 160 114
149 160 114
148 160 114
148 159 114
147 159 114
147 159 114
146 159 114
146 159 114
146 159 114
145 158 114
145 158 114
145 158 114
144 158 114
144 158 114
144 158 114
143 158 114
143 158 114
143 157 114
143 157 114
143 157 114
142 157 114
142 157 114
142 157 114
142 157 114
142 157 114
142 157 114
142 157 114
142 157 114
141 157 114
141 157 114
141 157 114
141 157 114
141 157 114
141 157 114
141 157 114
141 157 114
141 157 114
141 157 114
141 157 114
141 157 114
141 157 114
141 157 114
141 157 114
141 157 114
142 157 114
142 157 114
142 157 114
142 157 114
142 157 114
142 157 114
142 157 114
142 157 114
142 157 114
142 157 114
142 157 114
143 157 114
143 157 114
143 157 114
143 158 114
143 158 114
143 158 114
144 158 114
144 158 114
144 158 114
144 158 114
144 158 114
144 158 114
145 158 114
145 158 114
145 158 114
145 158 114
146 159 114
146 159 114
146 159 114
146 159 114
147 159 114
147 159 114
147 159 114
147 159 114
148 159 114
148 160 114
148 160 114
148 160 114
149 160 114
149 160 114
149 160 114
150 160 114
150 160 114
150 161 114
151 161 114
151 161 114
151 161 114
152 161 114
152 161 114
152 161 114
153 162 114
153 162 114
153 162 114
154 162 114
154 162 114
155 162 114
155 163 114
156 163 114
156 163 114
156 163 114
157 163 114
157 164 114
158 164 114
159 190 228
158 189 228
156 188 228
156 188 228
155 188 228
156 188 228
154 187 228
155 188 228
154 187 228
155 188 228
153 187 228
154 187 228
152 186 228
152 186 228
152 186 228
151 186 228
151 186 228
152 186 228
152 186 228
151 186 228
151 186 228
149 185 228
150 185 228
150 185 228
152 186 228
149 185 228
149 185 228
149 185 228
149 185 228
148 184 228
147 184 228
149 185 228
146 183 228
146 183 228
146 183 228
147 184 228
146 183 228
146 183 228
145 183 228
146 183 228
145 183 228
147 184 228
144 182 228
144 182 228
144 182 228
145 183 228
144 182 228
143 182 228
144 182 228
144 182 228
145 183 228
143 182 228
144 183 228
143 182 228
144 182 228
142 182 228
142 182 228
142 182 228
142 182 228
143 182 228
142 181 228
143 182 228
143 182 228
142 182 228
143 182 228
141 181 228
144 182 228
142 181 228
142 182 228
143 182 228
142 181 228
144 182 228
143 182 228
141 181 228
141 181 228
142 181 228
144 182 228
142 182 228
142 182 228
142 182 228
142 182 228
144 182 228
143 182 228
142 181 228
142 181 228
143 182 228
144 182 228
143 182 228
143 182 228
143 182 228
144 182 228
143 182 228
142 182 228
145 183 228
145 183 228
145 183 228
145 183 228
145 183 228
147 184 228
146 183 228
146 183 228
145 183 228
149 185 228
148 184 228
149 185 228
149 185 228
149 185 228
150 185 228
150 185 228
151 186 228
151 186 228
152 186 228
154 187 228
155 188 228
155 188 228
156 188 228
157 189 228
159 190 228
160 190 228
162 191 228
163 192 228
166 193 228
167 194 228
167 192 225
156 178 207
174 194 221
202 222 250
207 227 255
207 227 255
207 227 255
207 227 255
207 227 255
207 227 255
207 227 255
207 227 255
207 227 255
207 227 255
207 227 255
207 227 255
207 227 255
207 227 255
207 227 255
207 227 255
207 227 255
207 227 255
207 227 255
207 227 255
207 227 255
207 227 255
186 207 239
74 106 174
58 94 160
58 94 160
58 95 163
60 96 164
57 93 157
60 96 158
60 97 170
60 96 155
60 96 165
59 95 160
60 97 167
60 97 162
60 96 156
60 96 159
59 95 155
61 97 169
60 96 159
59 96 161
61 97 161
60 96 163
60 96 161
58 94 158
58 95 156
59 95 153
58 94 155
58 95 158
59 95 156
61 97 159
58 95 156
60 96 159
60 96 158
61 97 164
58 94 153
60 96 156
58 95 157
59 95 159
60 96 158
59 96 159
60 96 156
60 97 164
60 96 157
60 96 157
59 96 159
58 94 151
59 95 151
60 97 164
59 95 150
59 96 159
58 94 150
60 96 158
58 95 160
60 96 158
58 95 156
58 94 145
59 96 158
58 94 150
60 97 161
60 96 156
61 96 152
60 97 160
60 96 162
59 95 156
58 95 156
60 96 158
60 96 161
60 96 162
59 96 162
61 97 161
58 94 146
59 95 154
60 96 152
58 95 162
59 95 153
59 95 155
60 96 164
60 96 156
59 95 152
59 95 157
60 97 171
59 95 155
60 96 162
59 95 156
60 96 163
59 95 154
58 94 158
58 94 149
58 94 151
60 96 159
59 95 156
59 95 154
60 96 163
60 95 155
59 95 159
58 93 154
58 94 160
59 95 166
60 95 160
70 103 160
189 210 241
207 227 255
207 227 255
207 227 255
207 227 255
207 227 255
207 227 255
207 227 255
207 227 255
207 227 255
207 227 255
207 227 255
207 227 255
207 227 255
207 227 255
207 227 255
207 227 255
207 227 255
207 227 255
207 227 255
207 227 255
207 227 255
207 227 255
204 223 245
187 190 168
173 171 114
170 169 114
167 168 114
165 167 114
163 166 114
162 165 114
160 165 114
159 164 114
158 164 114
156 163 114
155 163 114
155 162 114
154 162 114
153 162 114
152 161 114
151 161 114
151 161 114
150 160 114
149 160 114
149 160 114
148 160 114
148 160 114
147 159 114
147 159 114
147 159 114
146 159 114
146 159 114
146 159 114
145 158 114
145 158 114
145 158 114
144 158 114
144 158 114
144 158 114
144 158 114
144 158 114
143 158 114
143 158 114
143 158 114
143 157 114
143 157 114
143 157 114
143 157 114
142 157 114
142 157 114
142 157 114
142 157 114
142 157 114
142 157 114
142 157 114
142 157 114
142 157 114
142 157 114
142 157 114
142 157 114
142 157 114
142 157 114
142 157 114
142 157 114
142 157 114
142 157 114
142 157 114
142 157 114
142 157 114
143 157 114
143 157 114
143 157 114
143 157 114
143 157 114
143 158 114
143 158 114
143 158 114
143 158 114
144 158 114
144 158 114
144 158 114
144 158 114
144 158 114
144 158 114
144 158 114
145 158 114
145 158 114
145 158 114
145 158 114
145 158 114
146 159 114
146 159 114
146 159 114
146 159 114
146 159 114
147 159 114
147 159 114
147 159 114
147 159 114
148 159 114
148 159 114
148 160 114
148 160 114
149 160 114
149 160 114
149 160 114
149 160 114
150 160 114
150 160 114
150 161 114
151 161 114
151 161 114
151 161 114
152 161 114
152 161 114
152 161 114
152 161 114
153 162 114
153 162 114
154 162 114
154 162 114
154 162 114
155 162 114
155 163 114
156 163 114
156 163 114
156 163 114
157 163 114
157 164 114
158 164 114
158 164 114
158 189 228
158 189 228
158 189 228
157 189 228
159 189 228
157 189 228
155 188 228
155 188 228
153 187 228
155 188 228
154 187 228
154 187 228
154 187 228
154 187 228
153 187 228
153 187 228
150 185 228
152 186 228
150 185 228
152 186 228
150 185 228
152 186 228
150 185 228
151 186 228
149 185 228
149 185 228
150 185 228
148 184 228
149 185 228
148 184 228
149 185 228
148 184 228
149 185 228
149 185 228
147 184 228
147 184 228
147 184 228
146 183 228
147 184 228
148 184 228
147 184 228
146 183 228
147 184 228
145 183 228
146 184 228
144 182 228
145 183 228
146 183 228
146 183 228
144 182 228
144 182 228
144 182 228
144 182 228
144 182 228
144 182 228
145 183 228
144 182 228
144 183 228
143 182 228
144 182 228
143 182 228
143 182 228
145 183 228
144 182 228
143 182 228
142 182 228
142 181 228
141 181 228
144 182 228
143 182 228
141 181 228
143 182 228
143 182 228
143 182 228
143 182 228
142 181 228
143 182 228
144 182 228
144 182 228
142 182 228
144 182 228
144 182 228
143 182 228
142 182 228
143 182 228
144 182 228
144 182 228
144 182 228
144 183 228
143 182 228
145 183 228
145 183 228
143 182 228
144 182 228
145 183 228
146 183 228
146 183 228
146 183 228
145 183 228
146 183 228
147 184 228
147 184 228
147 184 228
148 184 228
148 184 228
148 184 228
150 185 228
150 185 228
152 186 228
151 186 228
151 186 228
152 186 228
154 187 228
154 187 228
155 188 228
157 189 228
157 189 228
160 190 228
160 190 228
161 190 228
162 191 228
163 192 228
166 193 228
167 194 228
167 192 225
159 181 210
168 189 218
197 216 243
207 227 255
207 227 255
207 227 255
207 227 255
207 227 255
207 227 255
207 227 255
207 227 255
207 227 255
207 227 255
207 227 255
207 227 255
207 227 255
207 227 255
207 227 255
207 227 255
207 227 255
207 227 255
207 227 255
207 227 255
200 221 250
79 110 168
56 93 167
58 94 161
59 96 165
58 95 158
59 95 156
61 97 165
59 96 164
58 95 161
60 97 160
60 96 160
60 96 159
59 95 155
59 96 164
59 96 160
59 95 156
60 96 168
59 95 151
59 96 157
60 97 164
58 94 152
60 97 163
59 95 153
60 97 167
59 96 163
58 95 156
59 96 157
58 94 146
61 97 163
59 96 160
59 95 157
59 96 155
60 97 164
60 96 158
60 96 162
59 96 158
61 97 166
59 96 158
60 96 159
60 96 162
58 94 158
59 95 155
60 96 160
59 96 160
59 96 159
59 95 156
58 94 145
61 97 160
59 95 157
59 95 152
59 95 154
59 96 161
60 96 155
59 95 156
60 96 159
59 95 157
58 95 154
60 96 158
60 97 166
59 95 156
59 95 162
60 97 162
59 95 155
59 95 158
59 96 156
59 96 162
60 96 166
60 96 156
60 96 161
60 96 156
59 95 156
61 97 161
59 96 156
58 94 152
61 97 164
61 97 162
59 95 159
59 95 156
57 93 145
61 97 162
60 96 163
59 95 158
59 95 156
59 96 155
60 97 165
60 96 167
59 95 149
60 96 159
58 94 157
59 95 157
60 96 160
60 96 157
59 94 156
59 94 150
59 95 155
59 94 160
59 94 155
59 95 156
59 95 161
60 96 164
79 109 169
194 215 245
207 227 255
207 227 255
207 227 255
207 227 255
207 227 255
207 227 255
207 227 255
207 227 255
207 227 255
207 227 255
207 227 255
207 227 255
207 227 255
207 227 255
207 227 255
207 227 255
207 227 255
207 227 255
207 227 255
207 227 255
202 217 231
182 180 139
173 171 114
170 169 114
167 168 114
165 167 114
163 166 114
162 166 114
160 165 114
159 164 114
158 164 114
157 163 114
156 163 114
155 163 114
154 162 114
153 162 114
153 162 114
152 161 114
151 161 114
151 161 114
150 160 114
150 160 114
149 160 114
149 160 114
148 160 114
148 159 114
147 159 114
147 159 114
147 159 114
146 159 114
146 159 114
146 159 114
145 159 114
145 158 114
145 158 114
145 158 114
145 158 114
144 158 114
144 158 114
144 158 114
144 158 114
144 158 114
144 158 114
144 158 114
143 158 114
143 158 114
143 158 114
143 158 114
143 158 114
143 158 114
143 158 114
143 158 114
143 158 114
143 157 114
143 157 114
143 157 114
143 158 114
143 158 114
143 157 114
143 158 114
143 158 114
143 158 114
143 158 114
143 158 114
143 158 114
143 158 114
143 158 114
144 158 114
144 158 114
144 158 114
144 158 114
144 158 114
144 158 114
144 158 114
144 158 114
144 158 114
144 158 114
145 158 114
145 158 114
145 158 114
145 158 114
145 158 114
145 158 114
146 159 114
146 159 114
146 159 114
146 159 114
146 159 114
146 159 114
147 159 114
147 159 114
147 159 114
147 159 114
147 159 114
148 159 114
148 160 114
148 160 114
148 160 114
149 160 114
149 160 114
149 160 114
149 160 114
150 160 114
150 160 114
150 160 114
150 161 114
151 161 114
151 161 114
151 161 114
152 161 114
152 161 114
152 161 114
152 161 114
153 162 114
153 162 114
153 162 114
154 162 114
154 162 114
155 162 114
155 162 114
155 163 114
156 163 114
156 163 114
156 163 114
157 163 114
157 163 114
158 164 114
158 164 114
159 164 114
158 189 228
157 189 228
157 189 228
157 189 228
156 188 228
156 188 228
156 188 228
156 188 228
155 187 228
155 188 228
154 187 228
155 188 228
155 187 228
154 187 228
154 187 228
153 187 228
153 187 228
152 186 228
153 187 228
151 186 228
151 186 228
153 187 228
151 186 228
151 186 228
150 185 228
150 185 228
151 186 228
151 186 228
149 185 228
149 185 228
148 184 228
149 185 228
149 185 228
148 184 228
147 184 228
148 184 228
148 184 228
149 185 228
148 184 228
148 184 228
147 184 228
146 183 228
148 184 228
147 184 228
147 184 228
145 183 228
148 184 228
146 183 228
146 184 228
145 183 228
145 183 228
146 183 228
146 183 228
146 183 228
144 182 228
143 182 228
144 182 228
145 183 228
144 183 228
143 182 228
144 182 228
143 182 228
145 183 228
144 182 228
144 182 228
144 182 228
145 183 228
145 183 228
144 182 228
145 183 228
144 182 228
145 183 228
144 182 228
143 182 228
144 182 228
143 182 228
144 182 228
146 183 228
144 183 228
144 182 228
144 182 228
146 183 228
144 182 228
144 183 228
146 183 228
143 182 228
144 182 228
144 182 228
144 182 228
145 183 228
145 183 228
147 184 228
146 183 228
145 183 228
148 184 228
146 184 228
147 184 228
146 183 228
148 184 228
147 184 228
147 184 228
147 184 228
148 184 228
150 185 228
148 184 228
150 185 228
150 185 228
151 186 228
151 186 228
152 186 228
152 186 228
154 187 228
153 187 228
156 188 228
155 188 228
157 189 228
156 188 228
157 189 228
159 190 228
161 191 228
160 190 228
162 191 228
163 192 228
166 193 228
167 194 228
170 196 228
164 187 218
158 178 204
188 207 233
207 228 255
207 228 255
207 228 255
207 228 255
207 228 255
207 228 255
207 228 255
207 228 255
207 228 255
207 228 255
207 228 255
207 228 255
207 228 255
207 228 255
207 228 255
207 228 255
207 228 255
207 228 255
207 228 255
115 141 193
59 95 153
59 95 158
60 96 166
60 96 162
59 95 156
59 95 159
59 95 159
58 95 163
59 95 155
59 95 148
59 95 156
59 95 156
59 96 156
60 96 161
59 95 148
59 95 155
59 95 154
60 97 160
60 96 166
60 96 159
59 94 154
59 96 158
60 96 161
59 96 165
59 95 162
59 96 156
60 96 161
61 97 162
59 95 156
60 96 163
59 95 157
59 94 150
60 96 160
60 97 163
59 96 163
59 96 156
59 96 161
61 98 164
59 96 154
58 95 157
59 96 160
61 97 163
60 96 158
60 96 162
61 96 156
58 95 155
59 95 148
61 97 161
60 96 158
60 96 155
60 96 159
59 96 161
61 97 154
59 95 155
60 96 157
59 95 153
59 95 158
58 95 154
61 97 161
61 97 160
59 96 156
59 96 157
59 95 151
58 95 155
60 96 158
60 97 164
59 96 154
58 95 159
59 96 162
61 98 164
59 96 162
60 96 161
59 95 157
57 94 151
60 95 153
59 95 156
58 95 154
58 94 154
59 95 158
61 97 158
59 95 156
60 96 158
59 95 158
59 95 148
58 95 153
59 96 155
59 96 159
59 95 151
59 95 151
59 95 158
58 94 148
58 95 161
59 95 151
60 96 161
58 94 155
58 94 161
59 96 160
60 95 164
59 94 161
59 94 160
59 94 156
91 119 176
205 225 252
207 228 255
207 228 255
207 228 255
207 228 255
207 228 255
207 228 255
207 228 255
207 228 255
207 228 255
207 228 255
207 228 255
207 228 255
207 228 255
207 228 255
207 228 255
207 228 255
207 228 255
207 228 255
200 212 221
178 175 123
173 170 114
170 169 114
168 168 114
165 167 114
164 166 114
162 166 114
161 165 114
160 165 114
159 164 114
157 164 114
156 163 114
156 163 114
155 162 114
154 162 114
153 162 114
153 162 114
152 161 114
152 161 114
151 161 114
150 161 114
150 160 114
149 160 114
149 160 114
149 160 114
148 160 114
148 160 114
148 159 114
147 159 114
147 159 114
147 159 114
146 159 114
146 159 114
146 159 114
146 159 114
146 159 114
145 158 114
145 158 114
145 158 114
145 158 114
145 158 114
145 158 114
145 158 114
144 158 114
144 158 114
144 158 114
144 158 114
144 158 114
144 158 114
144 158 114
144 158 114
144 158 114
144 158 114
144 158 114
144 158 114
144 158 114
144 158 114
144 158 114
144 158 114
144 158 114
144 158 114
144 158 114
144 158 114
144 158 114
144 158 114
144 158 114
144 158 114
144 158 114
145 158 114
145 158 114
145 158 114
145 158 114
145 158 114
145 158 114
145 158 114
145 158 114
145 159 114
146 159 114
146 159 114
146 159 114
146 159 114
146 159 114
146 159 114
146 159 114
147 159 114
147 159 114
147 159 114
147 159 114
147 159 114
148 159 114
148 159 114
148 160 114
148 160 114
148 160 114
149 160 114
149 160 114
149 160 114
149 160 114
149 160 114
150 160 114
150 160 114
150 160 114
150 161 114
151 161 114
151 161 114
151 161 114
151 161 114
152 161 114
152 161 114
152 161 114
153 161 114
153 162 114
153 162 114
153 162 114
154 162 114
154 162 114
154 162 114
155 162 114
155 163 114
155 163 114
156 163 114
156 163 114
157 163 114
157 163 114
157 164 114
158 164 114
158 164 114
159 164 114
159 164 114
159 190 228
159 190 228
159 189 228
157 189 228
157 189 228
157 189 228
158 189 228
157 189 228
157 188 228
156 188 228
156 188 228
155 188 228
155 187 228
155 187 228
155 188 228
153 187 228
155 187 228
153 187 228
154 187 228
152 186 228
152 186 228
154 187 228
153 187 228
152 186 228
152 186 228
152 186 228
150 185 228
151 186 228
150 185 228
150 185 228
149 185 228
150 185 228
150 185 228
150 185 228
150 185 228
150 185 228
149 185 228
148 184 228
148 184 228
149 185 228
149 185 228
149 185 228
148 184 228
148 184 228
147 184 228
146 183 228
147 184 228
147 184 228
146 183 228
147 184 228
147 184 228
147 184 228
147 184 228
146 183 228
147 184 228
146 183 228
146 183 228
145 183 228
146 184 228
146 183 228
145 183 228
146 183 228
146 183 228
144 182 228
146 183 228
145 183 228
146 183 228
144 183 228
145 183 228
144 182 228
145 183 228
145 183 228
146 183 228
145 183 228
144 182 228
146 183 228
145 183 228
146 183 228
145 183 228
146 184 228
144 182 228
146 183 228
146 183 228
145 183 228
145 183 228
146 183 228
146 183 228
145 183 228
145 183 228
146 183 228
146 183 228
147 184 228
147 184 228
147 184 228
146 183 228
147 184 228
146 184 228
147 184 228
147 184 228
148 184 228
147 184 228
148 184 228
149 185 228
149 185 228
150 185 228
150 185 228
152 186 228
150 185 228
151 186 228
151 186 228
152 186 228
153 187 228
153 187 228
153 187 228
155 188 228
157 189 228
156 188 228
156 188 228
158 189 228
159 190 228
160 190 228
162 191 228
161 191 228
164 192 228
166 193 228
168 194 228
170 194 226
169 193 225
159 179 206
179 198 223
208 228 255
208 228 255
208 228 255
208 228 255
208 228 255
208 228 255
208 228 255
208 228 255
208 228 255
208 228 255
208 228 255
208 228 255
208 228 255
208 228 255
208 228 255
208 228 255
208 228 255
144 166 209
58 95 164
59 95 161
60 96 165
60 96 161
58 95 160
58 94 157
59 95 156
60 96 160
59 95 160
59 95 165
59 95 157
59 95 158
59 96 159
60 96 154
60 96 163
59 95 152
59 96 157
58 94 153
58 94 153
58 95 155
59 95 155
60 97 162
61 97 167
58 94 153
60 96 153
60 96 156
60 96 156
60 97 161
60 96 155
60 96 160
60 97 161
61 97 163
59 96 158
60 96 158
61 97 165
59 96 156
58 94 150
60 96 159
58 95 150
60 96 156
59 96 153
59 95 158
59 95 154
59 96 155
59 96 156
58 94 153
58 94 151
59 95 157
60 96 161
59 95 155
58 95 150
59 95 149
59 95 157
59 95 148
61 97 160
58 94 153
60 96 159
59 95 153
60 97 159
59 95 151
60 97 160
59 96 159
60 96 155
58 95 152
59 96 153
58 94 150
61 97 166
59 96 160
59 95 159
59 95 156
61 97 160
59 95 154
59 95 152
59 95 159
60 96 158
59 95 157
59 95 152
58 95 153
58 94 151
60 96 159
59 95 156
59 95 152
60 97 164
59 95 155
58 93 146
61 97 163
60 96 156
60 96 156
60 96 165
59 95 156
59 94 152
59 95 154
60 96 162
60 96 158
59 94 155
59 95 154
59 96 163
59 94 154
60 95 153
59 95 162
58 94 157
60 96 164
60 95 160
153 174 211
208 228 255
208 228 255
208 228 255
208 228 255
208 228 255
208 228 255
208 228 255
208 228 255
208 228 255
208 228 255
208 228 255
208 228 255
208 228 255
208 228 255
208 228 255
208 228 255
208 228 255
197 207 209
177 173 116
173 170 114
170 169 114
168 168 114
166 167 114
164 167 114
163 166 114
161 165 114
160 165 114
159 164 114
158 164 114
157 163 114
156 163 114
156 163 114
155 162 114
154 162 114
153 162 114
153 162 114
152 161 114
152 161 114
151 161 114
151 161 114
150 161 114
150 160 114
150 160 114
149 160 114
149 160 114
149 160 114
148 160 114
148 160 114
148 159 114
147 159 114
147 159 114
147 159 114
147 159 114
147 159 114
146 159 114
146 159 114
146 159 114
146 159 114
146 159 114
146 159 114
146 159 114
145 158 114
145 159 114
145 158 114
145 158 114
145 158 114
145 158 114
145 158 114
145 158 114
145 158 114
145 158 114
145 158 114
145 158 114
145 158 114
145 158 114
145 158 114
145 158 114
145 158 114
145 158 114
145 158 114
145 158 114
145 158 114
145 158 114
145 158 114
145 158 114
145 159 114
145 159 114
146 159 114
146 159 114
146 159 114
146 159 114
146 159 114
146 159 114
146 159 114
146 159 114
146 159 114
147 159 114
147 159 114
147 159 114
147 159 114
147 159 114
147 159 114
147 159 114
148 159 114
148 159 114
148 160 114
148 160 114
148 160 114
149 160 114
149 160 114
149 160 114
149 160 114
149 160 114
149 160 114
150 160 114
150 160 114
150 160 114
150 161 114
151 161 114
151 161 114
151 161 114
151 161 114
152 161 114
152 161 114
152 161 114
152 161 114
153 161 114
153 162 114
153 162 114
153 162 114
154 162 114
154 162 114
154 162 114
155 162 114
155 162 114
155 163 114
155 163 114
156 163 114
156 163 114
156 163 114
157 163 114
157 163 114
158 164 114
158 164 114
158 164 114
159 164 114
159 164 114
159 164 114
159 190 228
159 189 228
158 189 228
158 189 228
159 189 228
157 189 228
157 188 228
156 188 228
158 189 228
156 188 228
158 189 228
157 189 228
157 188 228
156 188 228
155 188 228
154 187 228
155 188 228
155 188 228
153 187 228
155 188 228
153 187 228
153 187 228
152 186 228
152 186 228
153 187 228
153 186 228
152 186 228
151 186 228
151 186 228
152 186 228
149 185 228
151 186 228
150 185 228
151 186 228
152 186 228
148 184 228
150 185 228
149 185 228
150 185 228
149 185 228
149 185 228
149 185 228
150 185 228
148 184 228
150 185 228
148 184 228
148 184 228
148 184 228
148 184 228
147 184 228
147 184 228
147 184 228
147 184 228
148 184 228
148 184 228
148 184 228
148 184 228
147 184 228
147 184 228
147 184 228
148 184 228
147 184 228
147 184 228
146 183 228
145 183 228
146 183 228
146 183 228
145 183 228
146 183 228
146 183 228
145 183 228
147 184 228
146 183 228
146 183 228
144 182 228
146 183 228
146 183 228
146 183 228
145 183 228
146 183 228
145 183 228
146 183 228
145 183 228
146 183 228
147 184 228
146 183 228
146 183 228
146 183 228
146 183 228
147 184 228
147 184 228
147 184 228
147 184 228
147 184 228
149 185 228
148 184 228
147 184 228
148 184 228
147 184 228
149 185 228
147 184 228
149 185 228
149 185 228
150 185 228
150 185 228
151 186 228
150 185 228
150 185 228
151 186 228
153 186 228
152 186 228
154 187 228
154 187 228
154 187 228
155 188 228
156 188 228
158 189 228
157 189 228
157 189 228
159 190 228
159 190 228
161 191 228
162 191 228
164 192 228
165 193 228
166 193 228
168 194 228
170 195 228
168 192 222
158 179 205
174 192 216
208 228 255
208 228 255
208 228 255
208 228 255
208 228 255
208 228 255
208 228 255
208 228 255
208 228 255
208 228 255
208 228 255
208 228 255
208 228 255
208 228 255
208 228 255
174 194 229
58 94 165
58 94 159
58 94 158
59 96 164
58 94 156
60 96 158
59 95 159
59 95 156
59 96 164
59 96 161
59 96 158
60 96 158
59 95 149
60 96 156
58 94 151
60 96 162
58 94 152
59 96 161
60 97 164
60 96 162
59 95 155
59 95 153
59 95 157
59 94 152
59 95 159
59 96 154
59 95 158
59 95 158
59 96 155
59 95 158
59 94 148
59 95 157
57 93 153
59 95 155
58 95 150
58 95 157
59 95 156
58 95 153
59 95 150
59 95 149
60 96 157
59 96 159
59 95 153
58 95 152
58 94 148
60 96 159
61 97 159
59 95 149
59 95 155
60 97 157
60 97 162
58 95 148
60 96 155
60 97 162
59 95 153
59 95 154
61 97 165
61 96 160
59 96 156
59 95 153
59 95 152
59 96 158
59 95 154
59 96 153
59 95 155
61 97 157
59 95 148
60 96 155
59 95 154
59 95 149
59 96 156
58 95 152
60 96 152
59 95 157
59 96 155
59 95 156
59 96 160
59 96 160
58 94 148
60 96 157
60 96 162
60 95 150
59 95 154
61 97 162
58 95 153
61 97 162
60 96 156
60 95 155
60 96 160
59 95 159
62 98 170
58 94 150
59 95 154
59 95 156
58 94 159
58 94 156
59 95 155
60 96 158
59 95 156
60 96 157
59 95 153
59 94 156
60 96 166
60 96 164
65 98 159
175 195 225
208 228 255
208 228 255
208 228 255
208 228 255
208 228 255
208 228 255
208 228 255
208 228 255
208 228 255
208 228 255
208 228 255
208 228 255
208 228 255
208 228 255
208 228 255
196 205 203
177 172 114
173 170 114
170 169 114
168 168 114
166 167 114
165 167 114
163 166 114
162 166 114
161 165 114
160 165 114
159 164 114
158 164 114
157 163 114
156 163 114
156 163 114
155 163 114
154 162 114
154 162 114
153 162 114
153 162 114
152 161 114
152 161 114
151 161 114
151 161 114
151 161 114
150 160 114
150 160 114
150 160 114
149 160 114
149 160 114
149 160 114
148 160 114
148 160 114
148 160 114
148 159 114
148 159 114
147 159 114
147 159 114
147 159 114
147 159 114
147 159 114
147 159 114
147 159 114
147 159 114
146 159 114
146 159 114
146 159 114
146 159 114
146 159 114
146 159 114
146 159 114
146 159 114
146 159 114
146 159 114
146 159 114
146 159 114
146 159 114
146 159 114
146 159 114
146 159 114
146 159 114
146 159 114
146 159 114
146 159 114
146 159 114
146 159 114
146 159 114
146 159 114
147 159 114
147 159 114
147 159 114
147 159 114
147 159 114
147 159 114
147 159 114
147 159 114
147 159 114
147 159 114
147 159 114
148 159 114
148 159 114
148 160 114
148 160 114
148 160 114
148 160 114
148 160 114
149 160 114
149 160 114
149 160 114
149 160 114
149 160 114
150 160 114
150 160 114
150 160 114
150 160 114
150 161 114
150 161 114
151 161 114
151 161 114
151 161 114
151 161 114
151 161 114
152 161 114
152 161 114
152 161 114
152 161 114
153 162 114
153 162 114
153 162 114
153 162 114
154 162 114
154 162 114
154 162 114
154 162 114
155 162 114
155 163 114
155 163 114
156 163 114
156 163 114
156 163 114
157 163 114
157 163 114
157 163 114
157 164 114
158 164 114
158 164 114
159 164 114
159 164 114
159 164 114
160 165 114
160 165 114
159 190 228
160 190 228
159 190 228
159 190 228
158 189 228
159 190 228
159 190 228
158 189 228
157 189 228
158 189 228
157 189 228
154 187 228
157 189 228
154 187 228
157 189 228
155 188 228
157 189 228
155 188 228
154 187 228
155 188 228
155 188 228
154 187 228
154 187 228
154 187 228
154 187 228
154 187 228
154 187 228
154 187 228
152 186 228
151 186 228
152 186 228
152 186 228
152 186 228
152 186 228
152 186 228
152 186 228
151 186 228
150 185 228
151 186 228
149 185 228
151 186 228
150 185 228
149 185 228
150 185 228
149 185 228
148 184 228
149 185 228
150 185 228
149 185 228
149 185 228
149 185 228
149 185 228
148 184 228
149 185 228
150 185 228
149 185 228
148 184 228
149 185 228
148 184 228
148 184 228
148 184 228
147 184 228
148 184 228
147 184 228
147 184 228
147 184 228
148 184 228
146 183 228
147 184 228
147 184 228
146 184 228
148 184 228
148 184 228
147 184 228
147 184 228
147 184 228
146 183 228
147 184 228
147 184 228
147 184 228
146 183 228
146 183 228
147 184 228
147 184 228
146 184 228
148 184 228
148 184 228
148 184 228
148 184 228
149 185 228
148 184 228
148 184 228
149 185 228
147 184 228
147 184 228
147 184 228
150 185 228
147 184 228
149 185 228
149 185 228
150 185 228
150 185 228
150 185 228
151 186 228
151 186 228
151 186 228
151 186 228
154 187 228
152 186 228
154 187 228
153 186 228
155 188 228
154 187 228
153 187 228
156 188 228
155 188 228
157 189 228
159 189 228
157 189 228
158 189 228
160 190 228
160 190 228
161 191 228
162 191 228
164 192 228
165 193 228
166 193 228
168 194 228
171 196 228
169 192 222
162 183 210
168 186 210
208 228 255
208 228 255
209 228 255
208 228 255
208 228 255
209 228 255
208 228 255
209 228 255
208 228 255
208 228 255
208 228 255
208 228 255
208 228 255
201 220 248
79 110 169
60 96 161
59 95 162
58 95 160
60 96 163
59 95 157
57 93 152
59 96 162
59 94 158
60 96 164
59 96 161
59 95 162
59 95 156
58 94 151
60 96 161
59 95 158
59 95 157
60 97 168
59 95 155
61 97 159
59 95 154
60 96 162
60 97 161
59 96 161
60 96 159
58 93 146
59 95 158
59 95 151
60 96 154
58 95 153
60 97 160
60 96 156
60 96 160
58 95 156
60 96 157
59 94 150
59 95 145
60 96 157
59 95 157
59 95 145
61 97 157
60 96 161
58 94 149
59 95 151
59 95 154
61 97 162
61 96 156
59 94 153
58 95 150
60 96 159
58 94 146
59 95 157
59 95 152
59 95 153
59 95 144
59 95 150
60 97 160
61 98 166
59 95 151
59 95 154
58 94 153
60 96 160
59 95 149
59 95 153
59 95 150
59 95 150
59 95 155
60 97 159
60 96 157
61 97 160
59 95 160
59 95 151
60 96 153
61 97 155
58 94 159
59 95 156
60 95 148
59 96 157
59 95 145
59 96 161
60 96 155
61 97 160
57 93 142
60 96 162
60 96 159
60 96 159
60 95 152
59 95 155
58 93 148
58 93 143
59 95 154
59 95 153
59 96 161
61 97 163
59 95 158
59 96 157
58 94 152
59 95 158
59 94 151
60 96 163
60 96 161
60 96 161
58 94 154
60 96 159
59 93 155
59 95 163
91 118 171
198 217 244
209 228 255
209 228 255
209 228 255
208 228 255
209 228 255
209 228 255
209 228 255
208 228 255
209 228 255
208 228 255
209 228 255
209 228 255
208 228 255
191 195 178
177 172 114
173 171 114
171 170 114
169 169 114
167 168 114
165 167 114
164 166 114
163 166 114
162 165 114
161 165 114
160 165 114
159 164 114
158 164 114
157 163 114
157 163 114
156 163 114
155 163 114
155 162 114
154 162 114
154 162 114
153 162 114
153 162 114
152 161 114
152 161 114
152 161 114
151 161 114
151 161 114
151 161 114
150 161 114
150 160 114
150 160 114
150 160 114
149 160 114
149 160 114
149 160 114
149 160 114
149 160 114
148 160 114
148 160 114
148 160 114
148 160 114
148 160 114
148 159 114
148 159 114
148 159 114
147 159 114
147 159 114
147 159 114
147 159 114
147 159 114
147 159 114
147 159 114
147 159 114
147 159 114
147 159 114
147 159 114
147 159 114
147 159 114
147 159 114
147 159 114
147 159 114
147 159 114
147 159 114
147 159 114
147 159 114
147 159 114
147 159 114
147 159 114
148 159 114
148 159 114
148 159 114
148 160 114
148 159 114
148 160 114
148 160 114
148 160 114
148 160 114
148 160 114
149 160 114
149 160 114
149 160 114
149 160 114
149 160 114
149 160 114
149 160 114
149 160 114
150 160 114
150 160 114
150 160 114
150 160 114
150 161 114
150 161 114
151 161 114
151 161 114
151 161 114
151 161 114
151 161 114
151 161 114
152 161 114
152 161 114
152 161 114
152 161 114
153 161 114
153 162 114
153 162 114
153 162 114
153 162 114
154 162 114
154 162 114
154 162 114
154 162 114
155 162 114
155 162 114
155 163 114
155 163 114
156 163 114
156 163 114
156 163 114
156 163 114
157 163 114
157 163 114
157 164 114
158 164 114
158 164 114
158 164 114
159 164 114
159 164 114
159 164 114
160 165 114
160 165 114
160 165 114
161 165 114
160 190 228
162 191 228
160 190 228
159 190 228
162 191 228
159 190 228
158 189 228
158 189 228
159 190 228
157 189 228
158 189 228
156 188 228
156 188 228
156 188 228
156 188 228
157 189 228
157 189 228
155 188 228
156 188 228
155 187 228
156 188 228
156 188 228
156 188 228
154 187 228
155 187 228
154 187 228
154 187 228
153 187 228
154 187 228
153 187 228
152 186 228
153 187 228
154 187 228
152 186 228
153 187 228
152 186 228
152 186 228
152 186 228
152 186 228
151 186 228
151 186 228
151 186 228
150 185 228
151 186 228
151 186 228
150 185 228
150 185 228
150 185 228
151 186 228
150 185 228
148 184 228
151 186 228
150 185 228
151 186 228
149 185 228
150 185 228
149 185 228
149 185 228
149 185 228
150 185 228
148 184 228
148 184 228
147 184 228
148 184 228
149 185 228
148 184 228
148 184 228
149 185 228
148 184 228
149 185 228
149 185 228
149 185 228
147 184 228
148 184 228
148 184 228
147 184 228
148 184 228
148 184 228
149 185 228
148 184 228
148 184 228
148 184 228
148 184 228
149 185 228
147 184 228
149 185 228
147 184 228
149 185 228
148 184 228
148 184 228
148 184 228
149 185 228
150 185 228
149 185 228
150 185 228
149 185 228
148 184 228
150 185 228
151 186 228
152 186 228
150 185 228
150 185 228
151 186 228
152 186 228
151 186 228
152 186 228
151 186 228
152 186 228
153 187 228
155 188 228
153 187 228
153 187 228
155 188 228
156 188 228
155 188 228
155 188 228
157 189 228
158 189 228
159 190 228
159 190 228
160 190 228
160 190 228
161 191 228
164 192 228
162 191 228
166 193 228
166 193 228
167 194 228
170 195 228
171 196 228
170 193 223
157 178 205
174 192 216
209 228 255
209 228 255
209 228 255
209 228 255
209 228 255
209 228 255
209 228 255
209 228 255
209 228 255
209 228 255
209 228 255
209 228 255
128 151 199
59 95 162
57 93 155
60 97 164
60 96 160
60 96 164
60 96 159
59 96 159
58 94 157
59 95 156
60 96 166
60 97 164
60 96 159
58 94 153
58 94 142
59 95 151
59 95 158
60 97 159
60 96 161
60 96 161
60 96 160
59 95 157
60 96 159
59 95 153
59 96 159
58 95 159
59 95 159
60 96 160
60 96 155
60 96 158
60 96 159
60 96 153
57 93 143
59 95 152
59 96 151
59 95 149
60 96 155
59 95 158
59 95 148
60 96 152
59 95 159
61 97 162
60 96 156
60 96 156
59 95 149
59 96 154
60 96 155
60 97 165
60 96 154
60 96 158
60 96 157
59 95 154
59 96 154
58 95 150
59 95 153
58 94 150
60 96 155
60 96 156
59 96 157
58 95 151
60 96 156
59 95 153
60 96 154
58 94 143
60 96 159
59 95 156
59 95 151
60 96 156
59 95 153
60 96 160
60 96 153
59 96 159
58 94 152
58 95 159
60 96 160
58 95 156
61 97 158
60 96 156
59 95 156
60 97 161
60 95 154
60 96 160
60 96 155
59 95 152
59 96 159
59 95 154
61 97 165
60 95 144
60 95 148
60 96 159
59 95 151
59 95 156
59 95 151
58 94 149
59 95 152
60 96 155
60 95 160
60 96 155
59 94 153
60 96 161
60 96 157
59 95 157
59 93 144
59 96 163
59 94 154
60 95 154
58 94 158
60 95 160
137 159 200
209 228 255
209 228 255
209 228 255
209 228 255
209 228 255
209 228 255
209 228 255
209 228 255
209 228 255
209 228 255
209 228 255
209 228 255
193 198 184
178 173 114
174 171 114
171 170 114
169 169 114
168 168 114
166 167 114
165 167 114
164 166 114
162 166 114
161 165 114
160 165 114
160 165 114
159 164 114
158 164 114
157 164 114
157 163 114
156 163 114
156 163 114
155 163 114
155 162 114
154 162 114
154 162 114
153 162 114
153 162 114
153 162 114
152 161 114
152 161 114
152 161 114
151 161 114
151 161 114
151 161 114
151 161 114
150 161 114
150 160 114
150 160 114
150 160 114
150 160 114
150 160 114
149 160 114
149 160 114
149 160 114
149 160 114
149 160 114
149 160 114
149 160 114
149 160 114
149 160 114
148 160 114
148 160 114
148 160 114
148 160 114
148 160 114
148 160 114
148 160 114
148 160 114
148 160 114
148 160 114
148 160 114
148 160 114
148 160 114
148 160 114
148 160 114
148 160 114
148 160 114
148 160 114
149 160 114
149 160 114
149 160 114
149 160 114
149 160 114
149 160 114
149 160 114
149 160 114
149 160 114
149 160 114
149 160 114
149 160 114
149 160 114
150 160 114
150 160 114
150 160 114
150 160 114
150 160 114
150 160 114
150 161 114
150 161 114
151 161 114
151 161 114
151 161 114
151 161 114
151 161 114
151 161 114
152 161 114
152 161 114
152 161 114
152 161 114
152 161 114
152 161 114
153 162 114
153 162 114
153 162 114
153 162 114
153 162 114
153 162 114
154 162 114
154 162 114
154 162 114
154 162 114
155 162 114
155 162 114
155 163 114
155 163 114
156 163 114
156 163 114
156 163 114
156 163 114
156 163 114
157 163 114
157 163 114
157 164 114
158 164 114
158 164 114
158 164 114
158 164 114
159 164 114
159 164 114
159 164 114
160 165 114
160 165 114
160 165 114
161 165 114
161 165 114
161 165 114
162 191 228
161 191 228
161 191 228
161 191 228
161 191 228
161 190 228
160 190 228
159 190 228
160 190 228
159 190 228
159 190 228
159 190 228
159 190 228
158 189 228
157 189 228
159 190 228
157 188 228
156 188 228
157 188 228
156 188 228
157 188 228
156 188 228
156 188 228
155 188 228
156 188 228
156 188 228
154 187 228
154 187 228
155 188 228
154 187 228
156 188 228
153 187 228
155 187 228
153 187 228
153 187 228
153 187 228
154 187 228
154 187 228
153 187 228
152 186 228
153 187 228
152 186 228
153 187 228
150 185 228
151 186 228
152 186 228
153 187 228
152 186 228
151 186 228
151 186 228
150 185 228
151 186 228
151 186 228
151 186 228
151 186 228
150 185 228
149 185 228
150 185 228
150 185 228
150 185 228
151 186 228
152 186 228
150 185 228
150 185 228
149 185 228
150 185 228
150 185 228
149 185 228
151 186 228
149 185 228
149 185 228
150 185 228
149 185 228
149 185 228
149 185 228
150 185 228
150 185 228
150 185 228
149 185 228
149 185 228
150 185 228
151 186 228
148 184 228
148 184 228
148 184 228
149 185 228
149 185 228
150 185 228
151 186 228
149 185 228
150 185 228
151 186 228
149 185 228
150 185 228
150 185 228
151 186 228
152 186 228
152 186 228
151 186 228
152 186 228
152 186 228
151 186 228
153 187 228
152 186 228
152 186 228
154 187 228
153 187 228
152 186 228
154 187 228
153 187 228
154 187 228
156 188 228
155 188 228
154 187 228
157 189 228
157 189 228
158 189 228
158 189 228
159 190 228
159 189 228
160 190 228
161 190 228
162 191 228
161 191 228
164 192 228
165 193 228
166 193 228
166 193 228
168 194 228
170 195 228
171 196 228
171 194 223
155 175 200
176 195 219
209 229 255
209 229 255
209 229 255
209 229 255
209 229 255
209 229 255
209 229 255
209 229 255
209 229 255
209 229 255
180 200 233
59 95 166
57 93 156
58 95 163
60 96 158
59 95 156
59 95 159
59 94 159
60 96 161
60 96 155
58 94 147
60 96 157
59 94 153
60 96 156
61 97 163
59 95 154
58 94 146
59 95 163
60 95 154
59 95 160
60 96 159
59 95 151
59 95 156
60 96 159
60 95 157
59 95 147
59 95 146
59 96 157
59 95 155
60 96 156
59 96 155
60 96 153
57 93 146
60 96 153
58 94 146
59 95 153
61 97 156
59 96 157
59 95 156
61 97 161
60 96 154
58 94 154
60 96 154
60 96 154
59 95 145
60 96 161
57 94 150
60 96 158
60 96 153
59 96 155
59 95 149
59 95 143
60 96 154
58 94 145
59 94 148
60 96 153
60 96 154
59 95 152
60 96 153
60 96 155
59 95 149
60 96 159
59 95 153
59 95 153
58 94 149
60 96 159
60 96 155
60 96 159
58 94 146
59 95 151
58 95 155
61 97 161
58 94 147
59 96 156
60 96 155
59 95 148
59 95 155
60 96 157
59 95 154
59 94 148
59 95 155
59 94 150
61 97 160
59 95 148
57 93 148
59 95 151
59 94 150
60 97 161
61 97 155
60 96 158
59 95 155
58 94 148
60 96 156
59 95 157
61 96 159
60 95 151
60 96 155
60 95 155
60 95 154
59 94 156
58 94 148
60 96 160
59 95 158
59 93 143
60 95 159
58 94 155
58 94 156
59 94 163
58 93 155
58 92 152
175 195 227
209 229 255
209 229 255
209 229 255
209 229 255
209 229 255
209 229 255
209 229 255
209 229 255
209 229 255
209 229 255
195 202 194
178 173 114
174 171 114
172 170 114
170 169 114
168 168 114
167 168 114
166 167 114
164 167 114
163 166 114
162 166 114
161 165 114
161 165 114
160 165 114
159 164 114
158 164 114
158 164 114
157 163 114
157 163 114
156 163 114
156 163 114
155 163 114
155 162 114
154 162 114
154 162 114
154 162 114
153 162 114
153 162 114
153 162 114
153 161 114
152 161 114
152 161 114
152 161 114
152 161 114
151 161 114
151 161 114
151 161 114
151 161 114
151 161 114
151 161 114
150 161 114
150 161 114
150 160 114
150 160 114
150 160 114
150 160 114
150 160 114
150 160 114
150 160 114
150 160 114
150 160 114
149 160 114
149 160 114
149 160 114
149 160 114
149 160 114
149 160 114
149 160 114
149 160 114
149 160 114
149 160 114
149 160 114
150 160 114
150 160 114
150 160 114
150 160 114
150 160 114
150 160 114
150 160 114
150 160 114
150 160 114
150 160 114
150 160 114
150 160 114
150 160 114
150 161 114
150 161 114
150 161 114
151 161 114
151 161 114
151 161 114
151 161 114
151 161 114
151 161 114
151 161 114
151 161 114
152 161 114
152 161 114
152 161 114
152 161 114
152 161 114
152 161 114
152 161 114
152 161 114
153 162 114
153 162 114
153 162 114
153 162 114
153 162 114
153 162 114
154 162 114
154 162 114
154 162 114
154 162 114
154 162 114
155 162 114
155 162 114
155 163 114
155 163 114
155 163 114
155 163 114
156 163 114
156 163 114
156 163 114
156 163 114
157 163 114
157 163 114
157 163 114
157 164 114
158 164 114
158 164 114
158 164 114
158 164 114
159 164 114
159 164 114
159 164 114
159 164 114
160 165 114
160 165 114
160 165 114
161 165 114
161 165 114
161 165 114
162 165 114
162 166 114
163 192 228
161 191 228
161 190 228
161 191 228
161 191 228
161 191 228
160 190 228
162 191 228
160 190 228
159 190 228
159 190 228
158 189 228
159 190 228
159 190 228
159 190 228
159 190 228
158 189 228
157 189 228
157 189 228
157 189 228
157 189 228
156 188 228
157 189 228
158 189 228
156 188 228
157 189 228
156 188 228
156 188 228
156 188 228
156 188 228
155 188 228
155 188 228
155 188 228
155 187 228
154 187 228
155 188 228
155 188 228
155 188 228
154 187 228
154 187 228
154 187 228
153 187 228
154 187 228
152 186 228
153 187 228
153 187 228
153 187 228
152 186 228
153 187 228
153 187 228
153 187 228
152 186 228
153 187 228
152 186 228
154 187 228
153 187 228
152 186 228
151 186 228
152 186 228
149 185 228
151 186 228
153 187 228
152 186 228
151 186 228
151 186 228
151 186 228
151 186 228
152 186 228
150 185 228
151 186 228
150 185 228
151 186 228
152 186 228
151 186 228
151 186 228
152 186 228
151 186 228
150 185 228
150 185 228
150 185 228
152 186 228
151 186 228
152 186 228
151 185 228
151 186 228
151 186 228
151 186 228
152 186 228
151 186 228
151 186 228
152 186 228
152 186 228
151 186 228
151 186 228
150 185 228
152 186 228
153 186 228
152 186 228
153 187 228
153 187 228
152 186 228
153 187 228
153 187 228
154 187 228
153 187 228
154 187 228
154 187 228
154 187 228
154 187 228
155 188 228
156 188 228
156 188 228
155 188 228
156 188 228
157 189 228
157 189 228
157 189 228
159 190 228
160 190 228
160 190 228
159 190 228
161 191 228
162 191 228
163 191 228
164 192 228
165 193 228
166 193 228
165 193 228
168 194 228
169 195 228
171 196 228
173 197 228
173 196 226
159 178 204
178 196 220
210 229 255
210 229 255
210 229 255
210 229 255
210 229 255
210 229 255
210 229 255
210 229 255
210 229 255
102 128 177
60 96 161
60 96 162
58 94 153
57 92 153
56 92 145
59 94 153
59 95 157
59 95 156
59 95 158
61 97 161
60 96 157
60 96 159
60 96 160
60 96 159
59 95 156
61 97 158
60 97 160
59 95 156
59 95 156
59 94 151
58 94 148
60 96 153
59 95 150
58 94 152
59 95 152
60 96 158
60 97 163
59 95 154
58 94 150
60 96 158
58 94 145
60 96 160
58 95 152
58 94 152
59 95 151
59 95 151
61 97 154
59 95 155
59 96 156
59 95 156
59 94 155
60 96 157
61 97 154
60 97 161
60 96 156
59 96 154
59 95 159
59 95 152
61 97 157
60 96 157
60 96 156
60 96 157
61 97 164
60 96 154
58 94 149
60 95 151
59 95 152
60 96 158
59 95 148
61 97 158
59 95 149
59 95 152
59 95 152
60 97 159
59 96 153
59 95 151
59 96 153
58 95 158
58 93 154
59 95 154
60 96 159
58 94 153
59 95 150
60 97 161
60 96 161
59 96 157
60 96 151
59 95 155
59 95 149
59 95 153
60 96 160
58 94 143
60 97 157
60 95 154
59 96 153
61 97 161
61 97 160
60 96 159
58 94 150
60 95 156
60 97 162
59 95 154
60 95 154
60 95 154
59 95 155
59 94 144
60 96 159
58 93 148
60 95 155
60 96 161
61 97 160
60 97 160
58 94 156
59 94 152
58 94 148
60 95 158
59 94 154
59 94 156
59 93 151
93 119 167
205 224 251
210 229 255
210 229 255
210 229 255
210 229 255
210 229 255
210 229 255
210 229 255
210 229 255
197 204 199
179 173 114
175 172 114
173 170 114
171 170 114
169 169 114
168 168 114
166 167 114
165 167 114
164 167 114
163 166 114
162 166 114
162 165 114
161 165 114
160 165 114
159 164 114
159 164 114
158 164 114
158 164 114
157 163 114
157 163 114
156 163 114
156 163 114
156 163 114
155 163 114
155 162 114
155 162 114
154 162 114
154 162 114
154 162 114
153 162 114
153 162 114
153 162 114
153 162 114
153 162 114
152 161 114
152 161 114
152 161 114
152 161 114
152 161 114
152 161 114
152 161 114
151 161 114
151 161 114
151 161 114
151 161 114
151 161 114
151 161 114
151 161 114
151 161 114
151 161 114
151 161 114
151 161 114
151 161 114
151 161 114
151 161 114
151 161 114
151 161 114
151 161 114
151 161 114
151 161 114
151 161 114
151 161 114
151 161 114
151 161 114
151 161 114
151 161 114
151 161 114
151 161 114
151 161 114
151 161 114
151 161 114
151 161 114
151 161 114
151 161 114
151 161 114
151 161 114
152 161 114
152 161 114
152 161 114
152 161 114
152 161 114
152 161 114
152 161 114
152 161 114
152 161 114
153 161 114
153 162 114
153 162 114
153 162 114
153 162 114
153 162 114
153 162 114
153 162 114
154 162 114
154 162 114
154 162 114
154 162 114
154 162 114
154 162 114
155 162 114
155 162 114
155 162 114
155 163 114
155 163 114
155 163 114
156 163 114
156 163 114
156 163 114
156 163 114
156 163 114
157 163 114
157 163 114
157 163 114
157 164 114
157 164 114
158 164 114
158 164 114
158 164 114
158 164 114
159 164 114
159 164 114
159 164 114
159 164 114
160 165 114
160 165 114
160 165 114
160 165 114
161 165 114
161 165 114
161 165 114
161 165 114
162 165 114
162 166 114
162 166 114
163 166 114
164 192 228
164 192 228
162 191 228
163 192 228
162 191 228
162 191 228
162 191 228
162 191 228
161 190 228
161 191 228
161 191 228
160 190 228
160 190 228
159 190 228
161 191 228
159 190 228
158 189 228
159 190 228
160 190 228
158 189 228
158 189 228
159 190 228
158 189 228
158 189 228
157 189 228
157 189 228
156 188 228
158 189 228
158 189 228
158 189 228
157 188 228
156 188 228
156 188 228
156 188 228
156 188 228
155 188 228
156 188 228
155 188 228
155 188 228
155 188 228
156 188 228
155 188 228
155 188 228
155 188 228
156 188 228
154 187 228
154 187 228
154 187 228
153 187 228
154 187 228
153 187 228
154 187 228
152 186 228
153 187 228
153 187 228
153 187 228
152 186 228
154 187 228
153 187 228
153 186 228
152 186 228
152 186 228
153 187 228
153 187 228
153 186 228
152 186 228
153 187 228
151 186 228
151 186 228
151 186 228
152 186 228
152 186 228
152 186 228
152 186 228
152 186 228
153 187 228
153 186 228
152 186 228
153 187 228
153 187 228
150 185 228
152 186 228
152 186 228
152 186 228
151 186 228
152 186 228
151 186 228
153 186 228
153 187 228
151 186 228
153 187 228
153 187 228
153 186 228
153 187 228
152 186 228
152 186 228
152 186 228
153 187 228
153 187 228
154 187 228
153 187 228
153 187 228
154 187 228
153 187 228
153 187 228
155 188 228
155 188 228
154 187 228
156 188 228
156 188 228
156 188 228
155 188 228
156 188 228
158 189 228
158 189 228
158 189 228
158 189 228
159 190 228
159 190 228
160 190 228
161 190 228
160 190 228
162 191 228
163 192 228
164 192 228
165 193 228
166 193 228
166 193 228
168 194 228
169 195 228
170 195 228
171 196 228
174 197 228
171 193 222
159 177 201
184 202 227
210 229 255
210 229 255
210 229 255
210 229 255
210 229 255
210 229 255
210 229 255
172 192 227
58 94 155
58 94 160
60 96 158
58 95 158
59 95 155
59 95 164
58 94 156
58 94 152
59 95 159
60 96 166
59 95 154
58 94 151
58 94 148
59 95 157
59 95 154
60 96 160
58 93 147
59 95 151
58 93 142
59 95 154
58 94 150
59 95 154
60 96 154
59 95 155
61 97 157
60 96 155
59 94 151
60 96 157
58 94 150
61 97 161
59 95 151
60 96 154
60 96 160
60 96 154
59 94 144
58 94 149
58 94 155
59 95 149
61 97 154
59 94 150
59 95 159
60 96 159
60 96 153
60 96 156
59 94 146
57 92 141
61 97 161
60 95 152
60 95 150
59 95 146
59 95 153
59 95 151
60 96 160
60 95 151
60 96 158
59 95 146
60 96 149
60 96 153
59 94 148
58 94 143
59 95 151
58 94 150
60 96 155
59 95 150
59 95 146
58 94 149
59 95 149
58 94 156
59 95 150
60 96 159
59 95 152
59 95 151
59 94 147
61 97 156
60 96 153
59 95 154
58 95 154
58 95 150
59 95 157
60 96 152
59 95 153
60 96 158
60 96 153
59 95 149
60 96 159
59 94 140
59 94 145
60 96 153
60 96 153
61 97 160
58 93 143
59 95 154
59 95 153
59 94 152
60 95 153
59 95 156
60 96 157
59 95 144
57 93 148
60 95 154
59 94 151
60 95 152
59 95 158
60 95 148
60 95 156
57 93 145
59 94 153
60 96 164
58 93 145
58 93 155
57 91 149
158 179 215
210 229 255
210 229 255
210 229 255
210 229 255
210 229 255
210 229 255
210 229 255
199 208 208
180 174 114
176 172 114
174 171 114
172 170 114
170 169 114
168 168 114
167 168 114
166 167 114
165 167 114
164 167 114
163 166 114
163 166 114
162 166 114
161 165 114
160 165 114
160 165 114
159 164 114
159 164 114
158 164 114
158 164 114
158 164 114
157 163 114
157 163 114
156 163 114
156 163 114
156 163 114
155 163 114
155 163 114
155 163 114
155 162 114
154 162 114
154 162 114
154 162 114
154 162 114
154 162 114
153 162 114
153 162 114
153 162 114
153 162 114
153 162 114
153 162 114
153 162 114
153 161 114
152 161 114
152 161 114
152 161 114
152 161 114
152 161 114
152 161 114
152 161 114
152 161 114
152 161 114
152 161 114
152 161 114
152 161 114
152 161 114
152 161 114
152 161 114
152 161 114
152 161 114
152 161 114
152 161 114
152 161 114
152 161 114
152 161 114
152 161 114
152 161 114
152 161 114
152 161 114
152 161 114
152 161 114
152 161 114
152 161 114
153 161 114
153 161 114
153 162 114
153 162 114
153 162 114
153 162 114
153 162 114
153 162 114
153 162 114
153 162 114
153 162 114
153 162 114
154 162 114
154 162 114
154 162 114
154 162 114
154 162 114
154 162 114
154 162 114
155 162 114
155 162 114
155 162 114
155 163 114
155 163 114
155 163 114
155 163 114
156 163 114
156 163 114
156 163 114
156 163 114
156 163 114
156 163 114
157 163 114
157 163 114
157 163 114
157 163 114
157 164 114
157 164 114
158 164 114
158 164 114
158 164 114
158 164 114
158 164 114
159 164 114
159 164 114
159 164 114
159 164 114
160 165 114
160 165 114
160 165 114
160 165 114
161 165 114
161 165 114
161 165 114
161 165 114
162 165 114
162 166 114
162 166 114
162 166 114
163 166 114
163 166 114
163 166 114
164 166 114
165 193 228
164 192 228
165 192 228
163 192 228
163 192 228
162 191 228
163 192 228
164 192 228
163 192 228
162 191 228
161 191 228
161 191 228
162 191 228
160 190 228
161 191 228
161 191 228
160 190 228
160 190 228
159 190 228
159 190 228
159 190 228
160 190 228
159 190 228
158 189 228
158 189 228
159 190 228
158 189 228
157 189 228
159 189 228
157 189 228
158 189 228
156 188 228
157 189 228
156 188 228
157 189 228
156 188 228
157 188 228
156 188 228
156 188 228
155 188 228
155 188 228
155 188 228
156 188 228
156 188 228
156 188 228
156 188 228
156 188 228
156 188 228
155 188 228
155 187 228
154 187 228
154 187 228
156 188 228
154 187 228
154 187 228
154 187 228
154 187 228
154 187 228
153 187 228
154 187 228
154 187 228
154 187 228
154 187 228
154 187 228
154 187 228
153 186 228
154 187 228
152 186 228
153 187 228
154 187 228
154 187 228
152 186 228
154 187 228
152 186 228
152 186 228
153 187 228
153 187 228
154 187 228
153 187 228
154 187 228
155 188 228
154 187 228
154 187 228
152 186 228
153 187 228
154 187 228
153 187 228
155 187 228
154 187 228
154 187 228
153 187 228
154 187 228
154 187 228
154 187 228
153 187 228
155 188 228
154 187 228
154 187 228
154 187 228
155 188 228
154 187 228
155 188 228
155 188 228
155 188 228
155 188 228
156 188 228
156 188 228
157 189 228
156 188 228
155 188 228
158 189 228
158 189 228
157 189 228
157 189 228
158 189 228
158 189 228
159 190 228
159 189 228
159 190 228
161 191 228
161 191 228
162 191 228
162 191 228
163 192 228
164 192 228
165 193 228
166 193 228
167 194 228
168 194 228
168 194 228
170 195 228
171 196 228
173 197 228
174 197 227
169 190 218
160 179 203
188 206 230
210 229 255
210 229 255
210 229 255
210 229 255
210 229 255
195 215 244
73 104 161
57 93 157
59 95 162
60 96 160
59 95 158
60 96 160
59 95 152
58 93 147
60 95 150
60 96 156
60 95 153
58 94 152
59 95 158
60 96 162
60 96 156
60 96 154
60 97 160
58 94 150
60 95 153
59 95 148
59 95 156
59 95 144
59 94 150
61 97 161
58 93 145
56 92 139
60 95 151
59 95 154
58 94 154
58 94 151
58 94 150
58 94 143
59 95 151
61 97 159
60 96 160
60 96 158
59 95 151
59 95 148
60 95 153
61 97 156
59 95 148
60 96 154
59 95 150
58 94 151
58 94 149
58 94 148
60 96 159
60 97 160
58 94 152
59 95 152
59 95 151
61 97 153
59 94 146
60 97 162
58 94 148
60 96 156
58 94 152
60 96 155
61 97 162
59 96 153
58 94 150
59 95 149
57 93 143
59 95 153
59 95 153
59 95 156
59 95 151
59 95 145
60 96 152
60 96 156
58 94 149
58 94 149
59 95 149
60 96 150
59 95 150
59 95 150
59 95 155
59 95 150
60 96 158
59 95 146
59 95 148
60 96 161
60 96 156
60 96 158
59 94 151
59 95 154
59 95 151
59 95 146
59 95 155
59 95 149
58 93 134
59 94 149
60 96 150
60 96 156
59 95 151
60 95 152
60 96 154
60 96 156
60 96 158
59 94 148
60 96 161
60 95 155
60 95 153
59 94 150
59 94 153
59 95 159
59 94 153
58 92 143
61 96 160
59 94 155
58 92 148
58 93 150
65 97 156
195 214 240
210 229 255
210 229 255
210 229 255
210 229 255
210 229 255
201 210 212
181 174 114
177 172 114
175 171 114
173 170 114
171 170 114
169 169 114
168 168 114
167 168 114
166 167 114
165 167 114
164 167 114
164 166 114
163 166 114
162 166 114
162 165 114
161 165 114
160 165 114
160 165 114
160 164 114
159 164 114
159 164 114
158 164 114
158 164 114
158 164 114
157 164 114
157 163 114
157 163 114
156 163 114
156 163 114
156 163 114
156 163 114
155 163 114
155 163 114
155 163 114
155 162 114
155 162 114
155 162 114
154 162 114
154 162 114
154 162 114
154 162 114
154 162 114
154 162 114
154 162 114
154 162 114
154 162 114
153 162 114
153 162 114
153 162 114
153 162 114
153 162 114
153 162 114
153 162 114
153 162 114
153 162 114
153 162 114
153 162 114
153 162 114
153 162 114
153 162 114
153 162 114
153 162 114
153 162 114
153 162 114
153 162 114
153 162 114
153 162 114
153 162 114
153 162 114
154 162 114
154 162 114
154 162 114
154 162 114
154 162 114
154 162 114
154 162 114
154 162 114
154 162 114
154 162 114
154 162 114
154 162 114
154 162 114
154 162 114
155 162 114
155 162 114
155 162 114
155 162 114
155 163 114
155 163 114
155 163 114
155 163 114
156 163 114
156 163 114
156 163 114
156 163 114
156 163 114
156 163 114
156 163 114
156 163 114
157 163 114
157 163 114
157 163 114
157 163 114
157 163 114
157 164 114
157 164 114
158 164 114
158 164 114
158 164 114
158 164 114
158 164 114
159 164 114
159 164 114
159 164 114
159 164 114
159 164 114
160 164 114
160 165 114
160 165 114
160 165 114
160 165 114
161 165 114
161 165 114
161 165 114
161 165 114
162 165 114
162 165 114
162 166 114
162 166 114
162 166 114
163 166 114
163 166 114
163 166 114
164 166 114
164 166 114
164 166 114
164 167 114
165 193 228
165 193 228
165 193 228
163 192 228
164 192 228
163 192 228
164 192 228
163 192 228
162 191 228
164 192 228
163 192 228
162 191 228
163 192 228
162 191 228
161 191 228
160 190 228
161 191 228
161 190 228
161 191 228
160 190 228
162 191 228
159 190 228
161 191 228
160 190 228
159 190 228
160 190 228
160 190 228
160 190 228
159 189 228
158 189 228
158 189 228
158 189 228
159 190 228
158 189 228
158 189 228
158 189 228
158 189 228
156 188 228
157 189 228
157 189 228
159 189 228
156 188 228
157 189 228
157 189 228
156 188 228
157 189 228
157 189 228
156 188 228
157 188 228
156 188 228
155 188 228
155 188 228
156 188 228
155 188 228
156 188 228
155 188 228
156 188 228
155 188 228
155 188 228
155 188 228
156 188 228
155 188 228
155 188 228
155 187 228
156 188 228
154 187 228
155 188 228
155 188 228
154 187 228
154 187 228
155 188 228
154 187 228
156 188 228
154 187 228
154 187 228
155 187 228
154 187 228
155 188 228
154 187 228
153 187 228
154 187 228
154 187 228
153 187 228
154 187 228
154 187 228
155 187 228
154 187 228
156 188 228
154 187 228
156 188 228
154 187 228
155 187 228
156 188 228
155 188 228
156 188 228
155 188 228
154 187 228
155 187 228
156 188 228
156 188 228
157 189 228
156 188 228
156 188 228
156 188 228
156 188 228
157 189 228
156 188 228
157 188 228
157 189 228
157 189 228
156 188 228
159 190 228
157 189 228
160 190 228
159 190 228
160 190 228
159 190 228
161 191 228
161 191 228
162 191 228
163 191 228
162 191 228
162 191 228
164 192 228
165 193 228
165 193 228
166 193 228
166 193 228
167 194 228
169 195 228
169 195 228
170 195 228
173 197 228
173 197 228
176 199 228
170 190 218
164 182 207
199 217 242
211 229 255
211 229 255
211 229 255
211 229 255
139 161 202
57 93 151
58 94 159
59 95 157
58 93 143
59 94 152
59 95 153
59 95 153
58 94 150
59 94 154
60 96 158
58 94 150
58 93 150
59 95 157
60 96 159
59 96 155
58 94 146
60 95 154
59 94 149
60 96 158
59 95 153
59 95 159
60 95 152
59 95 153
61 97 163
60 96 154
59 96 158
59 95 150
60 96 152
59 95 150
59 95 157
60 96 159
60 97 164
60 96 155
59 95 154
60 95 151
60 96 156
59 95 151
60 96 151
58 94 149
60 96 151
57 93 141
59 94 148
60 96 156
59 95 152
60 96 157
59 95 152
59 95 152
59 96 157
59 95 152
60 96 161
60 96 155
60 96 156
59 95 146
60 96 153
59 95 152
58 94 141
60 95 145
59 95 148
60 96 154
59 96 156
60 95 153
59 95 156
59 96 160
58 94 154
60 95 153
61 96 152
59 94 142
60 96 151
59 94 150
60 96 156
58 95 155
60 96 155
61 97 155
61 97 156
59 95 150
60 96 154
60 96 157
60 96 153
58 94 147
58 94 146
60 96 157
61 96 150
60 96 152
59 95 154
59 95 149
60 95 151
59 95 152
60 97 164
59 94 147
59 95 154
61 96 153
59 94 148
59 95 152
59 95 158
58 94 146
60 96 159
58 94 146
58 94 144
59 94 150
60 95 151
59 95 151
61 97 161
58 93 147
60 96 156
59 94 147
58 93 153
58 93 145
58 94 153
57 92 144
58 93 149
58 93 150
59 94 154
57 92 148
132 154 195
211 229 255
211 229 255
211 229 255
211 229 255
206 219 233
183 176 121
178 173 114
175 172 114
174 171 114
172 170 114
170 169 114
169 169 114
168 168 114
167 168 114
166 167 114
165 167 114
165 167 114
164 166 114
163 166 114
163 166 114
162 166 114
162 165 114
161 165 114
161 165 114
160 165 114
160 165 114
159 164 114
159 164 114
159 164 114
158 164 114
158 164 114
158 164 114
158 164 114
157 164 114
157 163 114
157 163 114
157 163 114
157 163 114
156 163 114
156 163 114
156 163 114
156 163 114
156 163 114
156 163 114
155 163 114
155 163 114
155 163 114
155 163 114
155 163 114
155 163 114
155 163 114
155 162 114
155 162 114
155 162 114
155 162 114
155 162 114
155 162 114
155 162 114
155 162 114
154 162 114
155 162 114
154 162 114
154 162 114
154 162 114
155 162 114
154 162 114
155 162 114
154 162 114
154 162 114
155 162 114
155 162 114
155 162 114
155 162 114
155 162 114
155 162 114
155 162 114
155 162 114
155 163 114
155 163 114
155 163 114
155 163 114
155 163 114
155 163 114
155 163 114
155 163 114
155 163 114
156 163 114
156 163 114
156 163 114
156 163 114
156 163 114
156 163 114
156 163 114
156 163 114
156 163 114
156 163 114
157 163 114
157 163 114
157 163 114
157 163 114
157 163 114
157 163 114
157 164 114
158 164 114
158 164 114
158 164 114
158 164 114
158 164 114
158 164 114
158 164 114
159 164 114
159 164 114
159 164 114
159 164 114
159 164 114
159 164 114
160 164 114
160 165 114
160 165 114
160 165 114
160 165 114
160 165 114
161 165 114
161 165 114
161 165 114
161 165 114
161 165 114
162 165 114
162 165 114
162 166 114
162 166 114
163 166 114
163 166 114
163 166 114
163 166 114
163 166 114
164 166 114
164 166 114
164 167 114
164 167 114
165 167 114
165 167 114
165 167 114
167 194 228
167 194 228
166 193 228
166 193 228
165 193 228
164 192 228
164 192 228
164 192 228
164 192 228
166 193 228
164 192 228
164 192 228
163 192 228
163 192 228
163 192 228
163 191 228
163 191 228
163 192 228
162 191 228
162 191 228
162 191 228
161 190 228
162 191 228
162 191 228
160 190 228
162 191 228
160 190 228
160 190 228
161 191 228
161 191 228
158 189 228
160 190 228
159 190 228
159 189 228
159 190 228
159 190 228
158 189 228
159 190 228
159 190 228
158 189 228
158 189 228
160 190 228
157 189 228
159 190 228
159 189 228
157 189 228
158 189 228
157 189 228
158 189 228
157 189 228
157 189 228
158 189 228
157 189 228
157 189 228
156 188 228
156 188 228
157 189 228
157 188 228
157 188 228
155 188 228
157 189 228
156 188 228
155 188 228
156 188 228
156 188 228
155 188 228
156 188 228
156 188 228
156 188 228
157 189 228
156 188 228
157 188 228
155 188 228
155 188 228
156 188 228
156 188 228
157 189 228
157 188 228
156 188 228
156 188 228
156 188 228
156 188 228
156 188 228
157 189 228
155 188 228
155 188 228
157 188 228
156 188 228
156 188 228
156 188 228
157 189 228
155 188 228
157 188 228
155 188 228
157 189 228
157 189 228
157 189 228
156 188 228
157 189 228
155 188 228
157 189 228
157 189 228
157 189 228
157 189 228
158 189 228
158 189 228
157 189 228
159 190 228
158 189 228
158 189 228
161 191 228
160 190 228
161 191 228
158 189 228
160 190 228
160 190 228
161 191 228
162 191 228
161 191 228
162 191 228
163 192 228
162 191 228
162 191 228
164 192 228
165 193 228
165 193 228
165 193 228
167 194 228
167 194 228
168 194 228
169 195 228
171 196 228
172 196 228
174 197 228
175 198 228
176 198 227
170 191 219
157 174 196
206 224 249
211 230 255
211 230 255
198 216 244
62 96 160
58 93 148
59 94 161
59 95 157
59 96 163
60 95 153
59 95 161
59 95 158
58 94 146
58 94 147
59 94 151
58 94 147
60 96 162
60 96 159
60 96 160
60 96 157
59 94 149
60 96 160
60 96 157
61 97 161
59 95 156
58 93 151
60 96 156
59 96 151
60 96 153
59 96 157
59 94 145
59 95 151
60 96 153
59 95 154
58 93 152
59 95 149
60 96 154
58 94 151
60 95 148
58 94 148
60 96 146
57 93 143
59 95 152
60 96 159
59 95 155
60 96 151
58 94 144
59 95 152
59 95 144
60 96 156
60 96 152
59 95 149
60 95 149
60 96 159
59 95 155
59 95 149
59 96 153
60 96 156
59 96 155
59 94 148
58 95 152
59 95 152
59 95 153
60 96 154
61 97 158
59 95 148
58 94 143
59 96 156
59 95 152
59 94 152
60 95 148
59 94 144
59 95 152
60 96 158
60 96 157
60 96 154
59 96 159
58 94 149
59 95 151
59 95 151
60 96 154
60 96 152
60 95 152
59 95 153
59 95 155
59 95 148
60 95 153
58 93 142
60 96 156
59 95 152
58 94 148
59 94 145
60 96 163
57 93 143
59 95 153
60 96 159
59 95 158
60 96 156
59 95 153
59 94 152
60 95 151
59 95 158
59 94 149
59 95 146
59 95 153
60 95 153
60 96 151
60 96 158
59 95 151
60 96 161
60 96 162
58 94 151
59 94 148
59 94 150
59 92 148
58 92 148
60 95 156
58 92 144
62 95 155
198 217 242
211 230 255
211 230 255
209 226 247
187 183 141
179 173 114
177 172 114
175 171 114
173 171 114
172 170 114
170 169 114
169 169 114
168 168 114
167 168 114
167 168 114
166 167 114
165 167 114
165 167 114
164 166 114
163 166 114
163 166 114
162 166 114
162 166 114
162 165 114
161 165 114
161 165 114
160 165 114
160 165 114
160 165 114
159 164 114
159 164 114
159 164 114
159 164 114
159 164 114
158 164 114
158 164 114
158 164 114
158 164 114
157 164 114
157 164 114
157 163 114
157 163 114
157 163 114
157 163 114
157 163 114
157 163 114
156 163 114
156 163 114
156 163 114
156 163 114
156 163 114
156 163 114
156 163 114
156 163 114
156 163 114
156 163 114
156 163 114
156 163 114
156 163 114
156 163 114
156 163 114
156 163 114
156 163 114
156 163 114
156 163 114
156 163 114
156 163 114
156 163 114
156 163 114
156 163 114
156 163 114
156 163 114
156 163 114
156 163 114
156 163 114
156 163 114
156 163 114
156 163 114
156 163 114
156 163 114
156 163 114
156 163 114
157 163 114
157 163 114
157 163 114
157 163 114
157 163 114
157 163 114
157 163 114
157 163 114
157 163 114
157 164 114
157 164 114
158 164 114
158 164 114
158 164 114
158 164 114
158 164 114
158 164 114
158 164 114
158 164 114
158 164 114
159 164 114
159 164 114
159 164 114
159 164 114
159 164 114
159 164 114
159 164 114
160 165 114
160 165 114
160 165 114
160 165 114
160 165 114
160 165 114
160 165 114
161 165 114
161 165 114
161 165 114
161 165 114
161 165 114
162 165 114
162 165 114
162 166 114
162 166 114
162 166 114
162 166 114
163 166 114
163 166 114
163 166 114
163 166 114
164 166 114
164 166 114
164 166 114
164 167 114
164 167 114
165 167 114
165 167 114
165 167 114
165 167 114
166 167 114
166 167 114
166 167 114
167 194 228
166 193 228
167 194 228
165 193 228
167 194 228
166 193 228
166 193 228
165 193 228
164 192 228
165 193 228
164 192 228
164 192 228
164 192 228
163 192 228
163 192 228
163 192 228
165 193 228
164 192 228
163 192 228
162 191 228
163 192 228
163 192 228
164 192 228
162 191 228
163 191 228
162 191 228
162 191 228
162 191 228
161 191 228
162 191 228
160 190 228
161 191 228
161 191 228
160 190 228
160 190 228
159 190 228
161 190 228
159 190 228
159 190 228
161 190 228
160 190 228
160 190 228
160 190 228
160 190 228
159 190 228
160 190 228
160 190 228
158 189 228
158 189 228
160 190 228
159 190 228
157 189 228
160 190 228
158 189 228
159 190 228
159 190 228
158 189 228
158 189 228
158 189 228
158 189 228
159 189 228
158 189 228
156 188 228
158 189 228
157 189 228
158 189 228
158 189 228
157 188 228
157 189 228
157 188 228
158 189 228
157 189 228
157 189 228
157 189 228
158 189 228
156 188 228
157 189 228
157 189 228
158 189 228
156 188 228
157 189 228
157 189 228
158 189 228
157 189 228
159 190 228
157 188 228
157 189 228
157 189 228
157 189 228
157 189 228
156 188 228
157 189 228
157 189 228
157 189 228
158 189 228
157 189 228
158 189 228
157 189 228
158 189 228
158 189 228
159 190 228
158 189 228
158 189 228
160 190 228
158 189 228
159 190 228
160 190 228
160 190 228
159 190 228
160 190 228
159 190 228
159 190 228
161 191 228
161 191 228
160 190 228
163 192 228
162 191 228
163 192 228
162 191 228
162 191 228
163 192 228
164 192 228
163 192 228
163 192 228
165 192 228
166 193 228
166 193 228
167 194 228
169 195 228
169 195 228
169 195 228
170 195 228
171 196 228
172 196 228
174 197 228
175 198 228
177 199 227
166 185 210
176 193 217
211 230 255
211 230 255
119 143 190
58 94 158
60 96 158
57 92 147
57 93 147
58 94 150
58 94 149
59 95 151
59 94 143
59 94 154
59 95 154
59 95 154
58 94 152
57 92 137
59 95 147
61 96 157
59 95 154
59 95 154
59 95 152
60 95 153
60 96 155
59 94 147
60 96 157
58 93 141
60 96 156
59 95 151
59 95 155
60 96 150
59 96 154
60 96 153
57 92 141
59 95 150
59 95 152
61 97 156
60 96 152
60 96 157
60 96 154
59 95 152
59 95 151
60 96 156
60 95 149
60 96 149
60 96 149
59 95 148
60 96 154
59 95 144
58 94 153
61 97 157
60 96 152
59 95 142
58 94 143
58 94 149
59 95 149
60 96 155
59 95 148
59 94 148
59 95 155
60 96 157
59 95 153
59 95 153
60 96 154
59 95 148
59 94 144
60 96 152
58 95 153
59 94 145
59 95 150
60 95 156
59 96 153
58 94 146
58 93 136
58 94 150
58 94 150
59 95 151
60 96 154
59 94 148
59 95 149
61 97 159
59 95 149
60 96 152
58 95 150
60 96 154
58 94 145
58 93 147
60 96 155
58 94 144
61 96 157
60 96 157
58 94 150
60 96 152
59 94 144
59 94 150
61 97 162
58 93 146
58 93 146
58 93 147
59 94 145
59 95 150
58 94 144
59 94 146
59 94 146
58 94 147
59 94 143
58 93 148
58 94 148
59 93 146
60 95 150
59 95 150
59 95 156
59 95 153
58 93 142
59 93 147
60 95 154
58 92 142
59 94 155
57 92 145
147 167 200
211 230 255
211 230 255
191 189 156
180 174 114
178 173 114
176 172 114
174 171 114
173 170 114
172 170 114
170 169 114
169 169 114
169 168 114
168 168 114
167 168 114
166 167 114
166 167 114
165 167 114
165 167 114
164 166 114
164 166 114
163 166 114
163 166 114
162 166 114
162 166 114
162 165 114
161 165 114
161 165 114
161 165 114
160 165 114
160 165 114
160 165 114
160 165 114
160 164 114
159 164 114
159 164 114
159 164 114
159 164 114
159 164 114
158 164 114
158 164 114
158 164 114
158 164 114
158 164 114
158 164 114
158 164 114
158 164 114
158 164 114
158 164 114
157 164 114
157 164 114
157 164 114
157 164 114
157 163 114
157 163 114
157 163 114
157 163 114
157 163 114
157 163 114
157 163 114
157 163 114
157 163 114
157 163 114
157 163 114
157 163 114
157 163 114
157 163 114
157 163 114
157 163 114
157 163 114
157 163 114
157 164 114
157 164 114
157 164 114
157 164 114
157 164 114
157 164 114
158 164 114
158 164 114
158 164 114
158 164 114
158 164 114
158 164 114
158 164 114
158 164 114
158 164 114
158 164 114
158 164 114
158 164 114
158 164 114
159 164 114
159 164 114
159 164 114
159 164 114
159 164 114
159 164 114
159 164 114
159 164 114
159 164 114
159 164 114
160 165 114
160 165 114
160 165 114
160 165 114
160 165 114
160 165 114
160 165 114
161 165 114
161 165 114
161 165 114
161 165 114
161 165 114
161 165 114
161 165 114
162 165 114
162 165 114
162 166 114
162 166 114
162 166 114
162 166 114
163 166 114
163 166 114
163 166 114
163 166 114
163 166 114
163 166 114
164 166 114
164 166 114
164 166 114
164 167 114
164 167 114
165 167 114
165 167 114
165 167 114
165 167 114
165 167 114
166 167 114
166 167 114
166 167 114
166 167 114
167 168 114
167 168 114
167 168 114
168 194 228
167 194 228
167 194 228
167 194 228
167 194 228
166 193 228
166 193 228
165 193 228
167 194 228
166 193 228
166 193 228
166 193 228
166 193 228
165 193 228
165 193 228
163 192 228
162 191 228
164 192 228
164 192 228
163 192 228
163 192 228
164 192 228
165 192 228
163 191 228
164 192 228
163 192 228
163 192 228
163 192 228
163 192 228
163 192 228
163 192 228
162 191 228
161 191 228
161 191 228
162 191 228
162 191 228
161 191 228
162 191 228
160 190 228
161 190 228
161 191 228
160 190 228
160 190 228
160 190 228
160 190 228
161 191 228
161 191 228
158 189 228
161 191 228
161 191 228
160 190 228
159 190 228
159 190 228
161 191 228
159 190 228
159 190 228
159 190 228
159 190 228
159 190 228
160 190 228
158 189 228
160 190 228
160 190 228
159 190 228
159 190 228
159 190 228
158 189 228
159 190 228
158 189 228
158 189 228
159 190 228
159 190 228
160 190 228
158 189 228
158 189 228
159 190 228
159 190 228
160 190 228
159 190 228
158 189 228
158 189 228
158 189 228
158 189 228
160 190 228
159 189 228
158 189 228
159 190 228
159 190 228
159 190 228
159 190 228
158 189 228
159 190 228
159 189 228
159 190 228
160 190 228
159 190 228
158 189 228
159 190 228
159 190 228
159 190 228
159 190 228
159 190 228
160 190 228
160 190 228
160 190 228
161 191 228
160 190 228
161 191 228
160 190 228
161 191 228
161 191 228
161 191 228
161 191 228
162 191 228
164 192 228
163 192 228
162 191 228
162 191 228
163 192 228
165 193 228
164 192 228
165 193 228
165 193 228
167 194 228
167 194 228
166 193 228
166 193 228
167 194 228
168 194 228
170 195 228
170 195 228
170 196 228
171 196 228
174 197 228
173 197 228
175 198 228
178 200 228
176 197 225
169 188 213
182 198 221
194 213 242
58 94 157
58 94 152
58 94 153
59 95 158
57 92 144
58 94 146
59 95 159
58 93 145
59 95 159
59 95 153
58 94 148
58 94 144
61 97 164
60 96 151
60 95 150
60 95 153
60 95 151
57 93 149
58 95 154
59 95 152
59 95 148
59 95 153
61 97 157
58 94 155
59 95 149
59 95 157
59 95 152
59 94 146
59 94 146
60 96 154
60 96 154
59 95 153
59 95 148
59 94 141
60 96 159
59 96 152
59 95 157
59 96 155
60 95 148
60 96 153
59 95 153
61 97 158
58 93 144
58 93 141
59 95 146
59 94 146
60 96 150
59 94 145
58 94 148
59 95 150
58 94 141
60 96 154
58 93 140
60 96 153
60 96 153
60 96 154
59 95 144
60 96 156
59 95 148
60 96 151
59 94 142
60 96 152
60 95 144
59 95 149
59 95 148
60 96 156
58 94 146
58 94 149
60 96 153
59 95 153
59 95 152
60 96 156
59 95 146
58 94 146
61 96 154
59 95 151
58 94 148
58 94 153
59 96 153
59 95 150
58 94 148
58 94 136
59 94 149
58 94 141
60 96 152
60 96 149
60 96 150
60 96 152
60 95 150
58 94 144
59 95 151
59 95 147
60 95 150
57 92 142
59 94 147
60 95 152
59 95 149
58 93 144
58 93 144
59 94 153
58 94 141
58 94 150
59 93 142
61 97 160
58 93 144
58 94 146
58 93 141
58 93 147
57 93 144
59 94 147
59 93 154
59 94 152
59 92 143
59 94 150
59 93 149
58 92 150
61 94 139
193 212 238
199 206 200
182 175 114
179 173 114
177 172 114
175 172 114
174 171 114
173 170 114
172 170 114
171 169 114
170 169 114
169 169 114
168 168 114
167 168 114
167 168 114
166 167 114
166 167 114
165 167 114
165 167 114
164 167 114
164 166 114
164 166 114
163 166 114
163 166 114
163 166 114
162 166 114
162 166 114
162 165 114
161 165 114
161 165 114
161 165 114
161 165 114
161 165 114
160 165 114
160 165 114
160 165 114
160 165 114
160 165 114
160 165 114
160 165 114
159 164 114
159 164 114
159 164 114
159 164 114
159 164 114
159 164 114
159 164 114
159 164 114
159 164 114
159 164 114
159 164 114
159 164 114
159 164 114
159 164 114
159 164 114
159 164 114
158 164 114
158 164 114
158 164 114
158 164 114
158 164 114
158 164 114
158 164 114
158 164 114
158 164 114
159 164 114
159 164 114
158 164 114
159 164 114
159 164 114
159 164 114
159 164 114
159 164 114
159 164 114
159 164 114
159 164 114
159 164 114
159 164 114
159 164 114
159 164 114
159 164 114
159 164 114
159 164 114
159 164 114
159 164 114
160 165 114
160 165 114
160 165 114
160 165 114
160 165 114
160 165 114
160 165 114
160 165 114
160 165 114
160 165 114
160 165 114
161 165 114
161 165 114
161 165 114
161 165 114
161 165 114
161 165 114
161 165 114
161 165 114
161 165 114
162 165 114
162 165 114
162 166 114
162 166 114
162 166 114
162 166 114
162 166 114
163 166 114
163 166 114
163 166 114
163 166 114
163 166 114
163 166 114
163 166 114
164 166 114
164 166 114
164 166 114
164 167 114
164 167 114
164 167 114
165 167 114
165 167 114
165 167 114
165 167 114
165 167 114
166 167 114
166 167 114
166 167 114
166 167 114
166 168 114
167 168 114
167 168 114
167 168 114
167 168 114
168 168 114
168 168 114
168 168 114
169 195 228
168 194 228
169 195 228
168 194 228
168 194 228
168 194 228
167 194 228
167 194 228
167 194 228
168 194 228
166 193 228
167 194 228
166 193 228
166 193 228
167 194 228
167 194 228
165 193 228
166 193 228
165 193 228
166 193 228
165 193 228
164 192 228
163 192 228
165 193 228
164 192 228
165 193 228
165 193 228
163 192 228
165 192 228
164 192 228
164 192 228
163 192 228
163 192 228
162 191 228
163 192 228
163 191 228
163 192 228
163 192 228
162 191 228
162 191 228
163 191 228
163 192 228
161 191 228
162 191 228
162 191 228
161 191 228
162 191 228
162 191 228
162 191 228
161 191 228
160 190 228
162 191 228
160 190 228
161 191 228
163 191 228
160 190 228
161 191 228
160 190 228
160 190 228
160 190 228
160 190 228
161 190 228
159 190 228
160 190 228
161 191 228
160 190 228
161 191 228
160 190 228
160 190 228
160 190 228
160 190 228
159 190 228
160 190 228
159 189 228
160 190 228
159 190 228
159 190 228
159 189 228
160 190 228
161 191 228
160 190 228
160 190 228
160 190 228
159 190 228
160 190 228
159 190 228
159 190 228
161 191 228
161 191 228
161 191 228
159 190 228
160 190 228
161 190 228
159 190 228
159 190 228
160 190 228
160 190 228
160 190 228
161 191 228
160 190 228
159 189 228
162 191 228
163 191 228
160 190 228
161 191 228
162 191 228
161 191 228
163 192 228
161 191 228
162 191 228
163 192 228
162 191 228
163 191 228
163 192 228
164 192 228
163 192 228
163 191 228
164 192 228
163 191 227
163 190 226
164 192 228
162 190 225
160 188 224
162 189 225
167 194 228
165 193 227
167 194 228
168 195 228
170 195 228
170 195 228
170 195 228
172 197 228
171 196 228
171 196 228
173 197 228
176 198 228
177 199 228
178 199 228
176 196 223
158 175 197
136 157 197
58 94 155
57 91 149
59 95 155
57 93 148
58 93 144
59 95 152
59 95 153
59 95 151
59 95 152
60 95 153
58 94 155
59 96 160
58 94 150
58 93 146
58 94 151
58 94 151
59 94 151
59 95 154
59 94 147
61 96 154
59 95 147
60 96 155
59 95 145
58 93 142
60 96 156
59 95 146
58 93 146
59 95 149
59 95 146
59 94 145
59 95 149
57 93 141
60 96 156
59 94 145
57 93 131
60 95 152
60 96 151
61 97 163
61 97 155
58 94 149
59 95 150
61 97 156
59 95 149
61 97 159
58 94 149
58 94 148
59 95 146
61 96 157
59 95 146
60 96 156
59 95 150
59 95 150
60 95 156
59 95 150
58 93 139
60 96 155
60 96 155
59 94 143
61 96 154
58 93 137
59 95 151
58 94 146
60 96 158
61 96 156
60 96 160
58 94 146
59 94 148
60 96 155
59 95 149
59 95 153
60 95 149
59 94 143
59 95 143
58 93 144
59 94 144
60 95 141
59 95 152
60 95 158
59 95 149
58 93 139
60 96 153
59 95 153
58 94 148
60 96 157
60 95 154
60 95 154
58 94 153
59 95 148
58 94 141
59 95 142
59 94 141
59 95 154
58 93 142
59 94 144
57 93 146
58 94 151
59 95 149
57 93 136
58 93 137
57 92 135
57 93 144
60 95 155
58 93 146
58 93 140
59 95 153
58 93 140
59 95 151
58 93 148
59 95 144
60 96 157
59 94 149
59 94 151
59 93 142
59 92 144
60 94 153
59 94 151
57 91 147
147 162 187
184 176 116
180 174 114
178 173 114
176 172 114
175 171 114
174 171 114
173 170 114
172 170 114
171 170 114
170 169 114
169 169 114
169 169 114
168 168 114
168 168 114
167 168 114
167 168 114
166 167 114
166 167 114
165 167 114
165 167 114
165 167 114
164 167 114
164 166 114
164 166 114
163 166 114
163 166 114
163 166 114
163 166 114
162 166 114
162 166 114
162 166 114
162 166 114
162 165 114
161 165 114
161 165 114
161 165 114
161 165 114
161 165 114
161 165 114
161 165 114
161 165 114
161 165 114
160 165 114
160 165 114
160 165 114
160 165 114
160 165 114
160 165 114
160 165 114
160 165 114
160 165 114
160 165 114
160 165 114
160 165 114
160 165 114
160 165 114
160 165 114
160 165 114
160 165 114
160 165 114
160 165 114
160 165 114
160 165 114
160 165 114
160 165 114
160 165 114
160 165 114
160 165 114
160 165 114
160 165 114
160 165 114
160 165 114
160 165 114
160 165 114
160 165 114
160 165 114
160 165 114
160 165 114
160 165 114
161 165 114
161 165 114
161 165 114
161 165 114
161 165 114
161 165 114
161 165 114
161 165 114
161 165 114
161 165 114
161 165 114
161 165 114
161 165 114
162 165 114
162 165 114
162 165 114
162 166 114
162 166 114
162 166 114
162 166 114
162 166 114
162 166 114
163 166 114
163 166 114
163 166 114
163 166 114
163 166 114
163 166 114
163 166 114
163 166 114
163 166 114
164 166 114
164 166 114
164 166 114
164 166 114
164 167 114
164 167 114
165 167 114
165 167 114
165 167 114
165 167 114
165 167 114
165 167 114
165 167 114
166 167 114
166 167 114
166 167 114
166 167 114
166 168 114
166 168 114
167 168 114
167 168 114
167 168 114
167 168 114
167 168 114
168 168 114
168 168 114
168 168 114
168 168 114
169 168 114
169 169 114
169 169 114
169 195 228
169 195 228
169 195 228
169 195 228
170 195 228
169 195 228
169 195 228
168 194 228
168 194 228
167 194 228
166 193 228
167 194 228
167 194 228
167 194 228
168 194 228
167 194 228
169 195 228
166 193 228
166 193 228
166 193 228
166 193 228
164 192 228
166 193 228
167 194 228
166 193 228
165 193 228
164 192 228
166 193 228
166 193 228
164 192 228
166 193 228
165 193 228
165 193 228
164 192 228
165 193 228
164 192 228
164 192 228
162 191 228
165 193 228
164 192 228
163 192 228
164 192 228
164 192 228
164 192 228
163 192 228
163 192 228
163 192 228
163 192 228
163 192 228
162 191 228
163 192 228
161 191 228
162 191 228
163 191 228
161 191 228
162 191 228
162 191 228
163 192 228
161 191 228
162 191 228
161 191 228
161 191 228
163 192 228
162 191 228
162 191 228
161 191 228
161 191 228
162 191 228
162 191 228
162 191 228
161 191 228
161 191 228
162 191 228
161 191 228
161 191 228
162 191 228
163 192 228
161 191 228
162 191 228
161 191 228
161 191 228
160 190 228
162 191 228
160 190 228
161 191 228
162 191 228
161 191 228
162 191 228
161 191 228
162 191 228
162 191 228
162 191 228
162 191 228
162 191 228
161 191 228
160 190 228
162 191 228
163 192 228
162 191 228
163 192 228
163 192 228
162 191 228
162 191 228
162 191 228
162 191 228
162 191 228
162 191 228
162 191 228
162 191 228
164 192 228
164 192 228
164 192 228
164 192 228
164 192 228
164 192 227
163 191 227
160 188 225
158 186 223
155 182 220
159 186 222
156 184 221
153 180 218
153 180 218
158 184 221
154 181 219
159 186 222
164 190 225
161 187 223
165 191 225
170 195 228
170 195 228
172 196 228
172 196 228
173 197 228
174 198 228
174 197 228
178 200 228
179 200 228
178 199 227
166 185 213
64 98 166
56 90 150
58 93 144
57 92 151
59 94 151
57 92 142
57 92 138
57 92 142
59 94 148
57 93 144
58 94 154
60 95 155
60 95 150
59 95 157
59 95 155
57 92 140
59 95 154
59 94 148
60 96 153
57 93 148
58 94 149
59 95 154
58 93 148
61 97 158
60 96 156
59 94 149
59 94 146
59 96 155
59 95 154
59 94 146
59 95 151
58 93 139
59 95 151
60 95 154
59 95 150
59 94 141
59 95 142
60 96 150
59 94 142
59 94 150
58 93 139
58 94 143
58 94 146
59 95 148
59 94 144
58 94 145
61 96 152
58 94 143
59 95 149
59 95 149
60 95 153
59 95 146
60 95 149
58 95 152
59 95 151
58 94 144
60 96 153
58 94 142
60 96 151
59 95 155
59 94 153
59 95 149
59 94 143
59 95 146
60 96 150
59 95 143
58 94 148
60 95 144
58 95 148
60 95 152
58 93 136
59 95 150
59 95 143
60 96 154
60 96 155
59 94 149
60 96 157
58 94 150
60 95 150
58 94 142
60 96 146
59 95 152
58 94 148
60 95 152
58 94 148
59 95 152
59 94 142
59 95 149
59 95 149
59 95 151
59 95 155
59 95 149
61 96 150
58 94 143
59 95 151
60 95 148
59 95 148
60 96 158
60 95 153
59 94 148
58 93 143
60 96 153
58 94 148
59 94 152
59 94 154
60 95 148
57 93 144
58 94 148
59 94 149
58 93 148
59 94 148
60 95 152
59 94 152
58 93 145
58 93 147
58 92 151
60 94 151
58 92 145
66 96 144
176 170 116
180 174 114
178 173 114
176 172 114
175 171 114
174 171 114
173 170 114
172 170 114
171 170 114
171 169 114
170 169 114
169 169 114
169 169 114
168 168 114
168 168 114
167 168 114
167 168 114
167 168 114
166 167 114
166 167 114
166 167 114
165 167 114
165 167 114
165 167 114
164 167 114
164 167 114
164 166 114
164 166 114
164 166 114
163 166 114
163 166 114
163 166 114
163 166 114
163 166 114
163 166 114
162 166 114
162 166 114
162 166 114
162 166 114
162 166 114
162 166 114
162 166 114
162 165 114
162 165 114
162 165 114
162 165 114
161 165 114
161 165 114
161 165 114
161 165 114
161 165 114
161 165 114
161 165 114
161 165 114
161 165 114
161 165 114
161 165 114
161 165 114
161 165 114
161 165 114
161 165 114
161 165 114
161 165 114
161 165 114
161 165 114
161 165 114
161 165 114
161 165 114
161 165 114
161 165 114
161 165 114
162 165 114
161 165 114
162 165 114
162 165 114
162 165 114
162 165 114
162 165 114
162 165 114
162 166 114
162 166 114
162 166 114
162 166 114
162 166 114
162 166 114
162 166 114
162 166 114
162 166 114
163 166 114
163 166 114
163 166 114
163 166 114
163 166 114
163 166 114
163 166 114
163 166 114
163 166 114
163 166 114
164 166 114
164 166 114
164 166 114
164 166 114
164 166 114
164 166 114
164 167 114
164 167 114
164 167 114
165 167 114
165 167 114
165 167 114
165 167 114
165 167 114
165 167 114
165 167 114
165 167 114
166 167 114
166 167 114
166 167 114
166 167 114
166 167 114
166 168 114
166 168 114
167 168 114
167 168 114
167 168 114
167 168 114
167 168 114
167 168 114
168 168 114
168 168 114
168 168 114
168 168 114
168 168 114
168 168 114
169 169 114
169 169 114
169 169 114
169 169 114
170 169 114
170 169 114
170 169 114
169 195 228
171 196 228
171 196 228
170 195 228
170 196 228
170 195 228
170 195 228
170 195 228
168 194 228
170 195 228
169 195 228
168 194 228
169 195 228
168 194 228
167 194 228
168 194 228
168 194 228
168 194 228
168 194 228
168 194 228
168 194 228
167 194 228
168 194 228
167 194 228
166 193 228
165 193 228
167 194 228
166 193 228
167 194 228
166 193 228
166 193 228
166 193 228
165 193 228
166 193 228
165 193 228
165 193 228
166 193 228
165 193 228
166 193 228
164 192 228
166 193 228
165 193 228
165 193 228
165 193 228
165 193 228
165 193 228
163 192 228
164 192 228
165 193 228
165 193 228
164 192 228
164 192 228
164 192 228
163 192 228
164 192 228
163 192 228
162 191 228
163 192 228
162 191 228
162 191 228
164 192 228
163 192 228
164 192 228
163 192 228
164 192 228
163 192 228
163 192 228
162 191 228
163 191 228
165 193 228
163 192 228
164 192 228
163 191 228
163 192 228
163 192 228
163 192 228
162 191 228
162 191 228
163 192 228
163 192 228
163 192 228
161 191 228
162 191 228
163 192 228
162 191 228
162 191 228
163 192 228
162 191 228
162 191 228
163 192 228
163 192 228
163 192 228
162 191 228
162 191 228
162 191 228
162 191 228
163 192 228
163 192 228
164 192 228
164 192 228
163 192 228
164 192 228
164 192 228
164 192 228
164 192 228
163 192 228
163 192 228
164 192 228
164 192 228
163 192 228
164 192 228
165 193 228
164 192 228
159 187 224
162 189 224
160 188 223
148 175 214
153 181 219
153 180 219
143 170 212
155 182 219
144 171 210
149 176 216
150 176 215
154 181 218
150 176 215
155 181 218
148 173 211
156 182 218
159 184 219
165 189 223
171 195 227
172 196 228
174 197 228
175 198 228
176 199 228
176 199 228
177 199 228
179 200 228
138 160 196
59 94 155
57 93 154
58 93 144
59 95 156
60 96 161
60 95 158
58 94 154
59 94 149
59 95 154
57 93 144
58 94 145
58 93 151
58 93 141
59 95 150
60 95 151
60 96 153
60 95 149
60 96 154
58 94 151
60 96 159
60 95 151
60 95 156
60 96 155
57 92 139
59 94 145
58 94 148
60 96 154
59 95 153
58 95 148
59 95 154
60 96 152
59 94 150
60 95 153
60 95 152
58 94 143
59 94 145
58 93 151
59 95 153
59 95 148
60 96 148
60 95 150
61 97 154
59 95 144
61 96 157
59 95 148
59 95 150
59 95 149
60 95 146
59 95 146
60 96 154
59 94 139
60 96 151
59 95 146
59 95 150
59 95 145
61 96 154
60 95 150
59 94 146
59 95 146
60 95 151
60 96 152
58 94 141
58 94 140
60 95 145
58 94 143
57 92 135
61 96 154
59 95 145
59 95 143
58 94 142
59 95 148
60 95 151
60 96 160
58 94 149
58 94 139
58 94 149
60 96 151
59 94 147
59 95 151
60 96 155
59 95 150
59 94 150
58 94 144
60 95 146
60 95 150
60 95 154
57 93 142
60 96 155
59 95 150
59 95 149
58 94 143
59 94 147
58 93 146
59 93 142
59 95 151
59 94 149
59 95 148
60 95 147
60 95 142
59 94 146
58 93 142
59 93 142
60 95 152
59 95 156
58 94 150
59 94 141
58 94 150
60 95 150
58 94 150
60 95 151
59 92 143
59 94 150
60 95 152
60 94 154
59 94 153
60 95 154
57 91 139
58 93 150
58 92 145
145 147 124
179 173 114
178 173 114
176 172 114
175 171 114
174 171 114
173 171 114
173 170 114
172 170 114
171 170 114
171 169 114
170 169 114
170 169 114
169 169 114
169 169 114
168 168 114
168 168 114
168 168 114
167 168 114
167 168 114
167 168 114
166 167 114
166 167 114
166 167 114
166 167 114
165 167 114
165 167 114
165 167 114
165 167 114
165 167 114
164 167 114
164 167 114
164 167 114
164 166 114
164 166 114
164 166 114
164 166 114
164 166 114
163 166 114
163 166 114
163 166 114
163 166 114
163 166 114
163 166 114
163 166 114
163 166 114
163 166 114
163 166 114
163 166 114
163 166 114
163 166 114
163 166 114
163 166 114
163 166 114
163 166 114
163 166 114
163 166 114
163 166 114
163 166 114
163 166 114
163 166 114
163 166 114
163 166 114
163 166 114
163 166 114
163 166 114
163 166 114
163 166 114
163 166 114
163 166 114
163 166 114
163 166 114
163 166 114
163 166 114
163 166 114
163 166 114
163 166 114
163 166 114
163 166 114
163 166 114
163 166 114
163 166 114
163 166 114
164 166 114
164 166 114
164 166 114
164 166 114
164 166 114
164 166 114
164 166 114
164 166 114
164 167 114
164 167 114
164 167 114
164 167 114
165 167 114
165 167 114
165 167 114
165 167 114
165 167 114
165 167 114
165 167 114
165 167 114
165 167 114
165 167 114
166 167 114
166 167 114
166 167 114
166 167 114
166 167 114
166 167 114
166 167 114
166 168 114
167 168 114
167 168 114
167 168 114
167 168 114
167 168 114
167 168 114
167 168 114
167 168 114
168 168 114
168 168 114
168 168 114
168 168 114
168 168 114
168 168 114
169 168 114
169 169 114
169 169 114
169 169 114
169 169 114
169 169 114
170 169 114
170 169 114
170 169 114
170 169 114
170 169 114
170 169 114
171 169 114
171 170 114
171 196 228
172 196 228
171 196 228
171 196 228
170 195 228
171 196 228
171 196 228
171 196 228
171 196 228
170 195 228
171 196 228
169 195 228
169 195 228
169 195 228
169 195 228
168 194 228
169 195 228
169 195 228
169 195 228
168 194 228
169 195 228
168 194 228
169 195 228
168 194 228
167 194 228
169 195 228
169 195 228
168 194 228
167 194 228
167 194 228
167 194 228
167 194 228
166 193 228
168 194 228
167 194 228
167 194 228
167 194 228
166 193 228
165 193 228
167 194 228
166 193 228
166 193 228
166 193 228
166 193 228
165 193 228
167 194 228
166 193 228
165 193 228
167 194 228
166 193 228
165 193 228
166 193 228
166 193 228
165 193 228
164 192 228
165 193 228
164 192 228
165 193 228
165 193 228
165 193 228
166 193 228
164 192 228
164 192 228
163 192 228
164 192 228
164 192 228
164 192 228
164 192 228
166 193 228
164 192 228
164 192 228
163 192 228
164 192 228
163 192 228
165 192 228
165 193 228
164 192 228
164 192 228
163 192 228
163 192 228
164 192 228
164 192 228
163 192 228
163 192 228
165 193 228
163 192 228
163 192 228
165 193 228
163 192 228
164 192 228
166 193 228
164 192 228
164 192 228
165 193 228
165 193 228
164 192 228
164 192 228
165 193 228
165 193 228
163 192 228
165 192 228
165 193 228
165 193 228
165 193 228
165 193 228
165 193 228
165 193 228
166 193 228
165 193 228
167 194 228
163 190 226
162 188 224
155 182 219
158 185 222
154 182 220
150 177 216
148 175 213
147 174 214
145 171 211
139 166 206
139 166 207
142 169 210
135 162 202
134 161 202
138 165 206
133 159 202
136 161 204
140 166 206
145 171 210
151 176 213
156 181 216
154 178 214
166 190 222
169 192 224
176 198 228
175 198 228
176 198 228
178 199 228
178 199 227
82 112 167
58 93 147
58 94 150
58 94 156
58 93 146
59 95 152
59 95 160
58 93 149
59 95 152
58 94 152
59 94 149
58 93 148
59 95 152
58 94 149
60 96 153
59 95 146
60 96 156
59 95 154
59 94 147
57 93 139
59 94 145
58 93 141
60 95 150
58 94 152
59 94 148
59 95 143
60 96 154
60 96 156
58 94 151
60 96 153
58 93 145
59 94 151
58 93 144
59 95 153
59 94 149
58 94 148
60 96 152
58 94 144
59 94 143
59 95 149
61 97 157
59 95 144
60 96 152
59 95 152
59 94 150
59 94 144
58 94 140
58 94 152
59 95 154
59 95 144
60 96 155
58 94 154
60 96 156
60 95 150
60 96 154
60 95 149
60 96 153
59 95 144
59 95 148
58 94 140
60 95 145
58 94 141
60 96 153
59 94 148
59 95 150
60 96 152
61 97 152
58 92 136
58 94 143
59 95 143
59 95 144
60 95 150
59 95 153
57 93 138
58 93 150
60 96 152
60 97 157
60 95 151
59 96 157
60 96 156
60 95 148
60 95 155
59 95 145
59 95 150
59 94 140
58 93 148
57 91 134
59 95 148
59 93 143
60 96 155
59 95 150
60 95 151
59 95 151
59 95 150
59 95 150
59 95 149
60 96 156
60 95 153
59 95 153
57 93 139
59 94 144
58 93 138
58 93 144
59 95 156
59 94 141
59 95 150
60 96 155
59 93 147
61 97 154
56 90 128
59 93 145
59 94 150
57 92 143
59 94 150
60 95 155
59 94 153
60 94 152
58 93 146
58 92 143
58 92 149
88 108 134
179 173 114
178 173 114
176 172 114
175 172 114
175 171 114
174 171 114
173 171 114
173 170 114
172 170 114
171 170 114
171 170 114
170 169 114
170 169 114
170 169 114
169 169 114
169 169 114
168 168 114
168 168 114
168 168 114
168 168 114
167 168 114
167 168 114
167 168 114
167 168 114
167 168 114
166 167 114
166 167 114
166 167 114
166 167 114
166 167 114
166 167 114
165 167 114
165 167 114
165 167 114
165 167 114
165 167 114
165 167 114
165 167 114
165 167 114
165 167 114
165 167 114
164 167 114
164 167 114
164 167 114
164 167 114
164 167 114
164 167 114
164 167 114
164 167 114
164 167 114
164 166 114
164 166 114
164 166 114
164 166 114
164 166 114
164 166 114
164 166 114
164 166 114
164 166 114
164 166 114
164 166 114
164 166 114
164 166 114
164 166 114
164 167 114
164 166 114
164 167 114
164 167 114
164 167 114
164 167 114
164 167 114
164 167 114
164 167 114
164 167 114
165 167 114
164 167 114
165 167 114
165 167 114
165 167 114
165 167 114
165 167 114
165 167 114
165 167 114
165 167 114
165 167 114
165 167 114
165 167 114
165 167 114
165 167 114
165 167 114
166 167 114
166 167 114
166 167 114
166 167 114
166 167 114
166 167 114
166 167 114
166 167 114
166 167 114
166 167 114
166 168 114
167 168 114
167 168 114
167 168 114
167 168 114
167 168 114
167 168 114
167 168 114
167 168 114
167 168 114
168 168 114
168 168 114
168 168 114
168 168 114
168 168 114
168 168 114
168 168 114
168 168 114
168 168 114
169 169 114
169 169 114
169 169 114
169 169 114
169 169 114
169 169 114
170 169 114
170 169 114
170 169 114
170 169 114
170 169 114
170 169 114
171 169 114
171 169 114
171 170 114
171 170 114
171 170 114
171 170 114
172 170 114
172 170 114
172 170 114
172 196 228
172 197 228
173 197 228
173 197 228
171 196 228
173 197 228
172 196 228
172 197 228
171 196 228
171 196 228
172 197 228
170 196 228
171 196 228
170 196 228
171 196 228
170 196 228
169 195 228
170 195 228
170 195 228
170 195 228
171 196 228
169 195 228
169 195 228
169 195 228
169 195 228
169 195 228
170 195 228
170 195 228
169 195 228
167 194 228
168 194 228
169 195 228
169 195 228
168 194 228
168 195 228
169 195 228
167 194 228
169 195 228
167 194 228
167 194 228
168 194 228
169 195 228
168 194 228
167 194 228
167 194 228
167 194 228
167 194 228
168 194 228
166 193 228
167 194 228
167 194 228
167 194 228
166 193 228
167 194 228
167 194 228
167 194 228
166 193 228
167 194 228
167 194 228
166 193 228
167 194 228
165 193 228
167 194 228
166 193 228
166 193 228
167 194 228
166 193 228
165 193 228
165 193 228
165 193 228
166 193 228
164 192 228
164 192 228
167 194 228
166 193 228
165 193 228
165 193 228
167 194 228
166 193 228
166 193 228
165 193 228
165 193 228
164 192 228
165 193 228
165 193 228
165 193 228
165 193 228
166 193 228
165 193 228
167 194 228
165 193 228
167 194 228
166 193 228
166 193 228
165 193 228
167 194 228
166 193 228
164 192 228
166 193 228
165 193 228
166 193 228
167 194 228
166 193 228
167 194 228
166 193 228
167 194 228
167 194 228
167 194 228
165 192 227
163 191 226
159 186 222
153 180 218
154 181 218
149 175 215
151 178 217
146 173 212
140 167 207
139 165 207
141 167 209
137 165 206
127 154 199
125 152 196
133 159 202
130 156 199
120 146 191
119 144 190
131 157 200
126 152 196
139 164 204
138 162 203
143 168 207
146 170 209
153 177 212
152 175 210
172 195 226
175 197 226
177 199 228
178 200 228
157 178 209
58 93 156
58 94 153
57 93 146
58 94 155
58 94 155
57 93 144
58 94 145
58 94 153
58 94 146
60 96 159
59 94 151
59 95 153
59 95 147
58 94 149
59 94 144
58 93 144
60 96 154
60 95 151
58 93 142
59 94 139
59 95 151
58 94 148
59 95 148
59 95 146
58 93 135
58 93 139
57 93 142
59 94 145
59 95 141
58 93 142
59 94 149
58 93 142
59 95 148
60 96 152
59 95 148
60 96 150
59 94 150
59 95 149
60 96 153
59 94 143
59 94 143
58 94 144
58 94 141
60 96 152
59 95 140
59 95 145
59 94 143
58 94 142
59 95 151
60 96 154
59 96 152
60 96 154
58 94 139
59 95 152
59 94 146
59 94 148
59 95 153
59 95 142
58 94 141
60 95 153
59 95 151
59 95 148
58 94 143
58 94 137
59 94 141
60 95 151
59 94 142
60 95 148
60 95 150
60 96 150
59 95 155
58 94 153
58 94 144
59 94 150
59 94 144
58 93 145
62 97 155
61 96 154
59 94 145
59 94 144
57 92 128
61 97 154
61 97 160
59 95 148
60 96 156
59 95 148
59 94 146
59 94 143
59 95 146
59 95 156
59 94 147
59 95 151
59 94 148
59 94 144
60 95 153
60 95 153
58 94 142
58 94 139
60 96 155
60 96 154
60 96 155
59 94 142
58 94 148
59 94 139
59 94 147
59 94 146
58 93 146
59 94 146
59 95 153
59 95 151
59 93 148
59 94 148
58 93 148
59 94 149
59 94 150
59 93 146
59 94 150
59 93 146
59 93 155
57 89 136
58 91 146
161 159 120
178 173 114
177 172 114
176 172 114
175 171 114
174 171 114
174 171 114
173 171 114
173 170 114
172 170 114
172 170 114
168 167 113
159 159 109
150 151 106
151 153 107
156 157 108
156 157 109
169 168 114
169 169 114
169 169 114
168 168 114
168 168 114
168 168 114
168 168 114
168 168 114
168 168 114
167 168 114
167 168 114
167 168 114
167 168 114
167 168 114
167 168 114
167 168 114
166 168 114
166 168 114
166 167 114
166 167 114
166 167 114
166 167 114
166 167 114
166 167 114
166 167 114
166 167 114
166 167 114
166 167 114
166 167 114
166 167 114
166 167 114
166 167 114
165 167 114
165 167 114
165 167 114
165 167 114
165 167 114
165 167 114
165 167 114
165 167 114
165 167 114
165 167 114
165 167 114
165 167 114
165 167 114
165 167 114
165 167 114
165 167 114
166 167 114
166 167 114
166 167 114
166 167 114
166 167 114
166 167 114
166 167 114
166 167 114
166 167 114
166 167 114
166 167 114
166 167 114
166 167 114
166 167 114
166 167 114
166 167 114
166 167 114
166 168 114
166 168 114
166 168 114
166 168 114
167 168 114
167 168 114
167 168 114
167 168 114
167 168 114
167 168 114
167 168 114
167 168 114
167 168 114
167 168 114
167 168 114
167 168 114
168 168 114
168 168 114
168 168 114
168 168 114
168 168 114
168 168 114
168 168 114
168 168 114
168 168 114
168 168 114
169 169 114
169 169 114
169 169 114
169 169 114
169 169 114
169 169 114
169 169 114
169 169 114
169 169 114
170 169 114
170 169 114
170 169 114
170 169 114
170 169 114
170 169 114
170 169 114
171 169 114
171 169 114
171 170 114
171 170 114
171 170 114
171 170 114
171 170 114
172 170 114
172 170 114
172 170 114
172 170 114
172 170 114
172 170 114
173 170 114
173 170 114
173 170 114
174 197 228
174 197 228
174 197 228
174 197 228
174 198 228
173 197 228
172 196 228
173 197 228
173 197 228
173 197 228
172 196 228
172 196 228
171 196 228
172 196 228
172 197 228
172 196 228
171 196 228
170 196 228
170 196 228
172 196 228
171 196 228
171 196 228
170 195 228
170 195 228
170 195 228
170 196 228
172 196 228
170 195 228
170 196 228
170 195 228
170 195 228
169 195 228
169 195 228
169 195 228
171 196 228
169 195 228
169 195 228
168 194 228
169 195 228
170 195 228
168 194 228
168 194 228
169 195 228
168 194 228
169 195 228
169 195 228
167 194 228
168 194 228
168 194 228
167 194 228
168 195 228
167 194 228
168 194 228
167 194 228
167 194 228
168 194 228
168 194 228
169 195 228
168 194 228
168 194 228
167 194 228
169 195 228
166 193 228
167 194 228
165 193 228
168 194 228
166 193 228
167 194 228
167 194 228
167 194 228
168 194 228
166 193 228
167 194 228
168 194 228
168 194 228
166 193 228
167 194 228
168 194 228
167 194 228
167 194 228
166 193 228
167 194 228
167 194 228
166 193 228
167 194 228
166 193 228
167 194 228
167 194 228
166 193 228
168 194 228
167 194 228
167 194 228
167 194 228
167 194 228
166 193 228
167 194 228
167 194 228
167 194 228
167 194 228
169 195 228
167 194 228
168 194 228
168 194 228
166 193 228
168 194 228
168 194 228
168 194 228
167 193 228
161 188 223
160 187 223
161 188 223
152 179 215
147 174 213
153 180 217
139 165 205
138 164 205
124 151 195
130 156 198
127 153 198
128 154 197
124 150 197
120 145 189
105 131 181
100 127 178
118 144 191
112 137 185
117 142 186
121 146 190
125 150 195
124 149 194
128 153 196
131 155 196
145 168 206
148 171 207
151 173 208
171 192 222
174 197 227
178 199 228
114 138 180
58 93 153
58 93 157
59 95 156
58 94 153
57 93 148
57 92 141
57 92 138
59 94 151
58 93 148
59 94 146
58 94 141
58 94 137
59 95 152
59 94 152
60 96 148
59 94 146
58 94 148
59 94 150
58 94 143
59 94 149
60 95 150
59 95 148
60 96 151
59 95 148
59 95 152
58 94 147
60 96 152
60 96 145
59 95 149
59 95 150
57 93 141
59 95 150
57 92 139
59 95 152
59 94 145
60 95 144
59 94 145
60 95 148
59 94 146
60 95 143
60 95 150
59 95 154
60 96 152
60 95 151
59 95 152
59 94 139
62 98 163
58 93 141
58 94 143
59 95 148
59 95 144
60 96 154
60 96 151
57 93 137
59 94 150
60 95 143
60 96 159
59 95 148
59 95 148
60 96 150
59 95 143
57 93 143
60 96 152
59 95 146
59 95 148
59 94 140
59 95 154
59 95 152
59 95 148
59 95 149
58 94 143
58 94 148
60 96 153
61 96 156
59 94 150
59 95 149
58 93 136
59 95 143
60 96 151
57 93 137
58 94 145
59 95 145
59 95 143
59 95 150
58 94 143
60 95 148
59 95 146
58 93 139
59 94 143
60 95 151
58 94 147
60 96 150
60 95 150
59 95 152
59 94 150
58 93 139
58 94 145
58 93 144
58 92 141
59 95 151
59 94 143
58 94 146
59 94 149
59 94 144
59 93 142
59 94 149
59 94 146
59 95 147
59 94 145
60 95 152
58 93 146
59 93 147
58 93 140
56 91 143
59 93 142
59 94 143
59 93 140
59 94 147
57 91 136
59 95 157
57 91 140
116 126 123
178 173 114
177 172 114
176 172 114
176 172 114
175 171 114
175 171 114
173 170 114
142 142 99
104 110 86
80 91 78
56 74 73
50 70 69
51 70 70
52 71 71
51 71 70
51 70 71
65 81 76
96 105 87
129 133 99
156 157 109
169 169 114
169 169 114
169 169 114
169 169 114
169 169 114
169 169 114
168 168 114
168 168 114
168 168 114
168 168 114
168 168 114
168 168 114
168 168 114
168 168 114
168 168 114
168 168 114
167 168 114
167 168 114
167 168 114
167 168 114
167 168 114
167 168 114
167 168 114
167 168 114
167 168 114
167 168 114
167 168 114
167 168 114
167 168 114
167 168 114
167 168 114
167 168 114
167 168 114
167 168 114
167 168 114
167 168 114
167 168 114
167 168 114
167 168 114
167 168 114
167 168 114
167 168 114
167 168 114
167 168 114
167 168 114
167 168 114
167 168 114
167 168 114
167 168 114
167 168 114
167 168 114
167 168 114
167 168 114
167 168 114
167 168 114
167 168 114
168 168 114
168 168 114
168 168 114
168 168 114
168 168 114
168 168 114
168 168 114
168 168 114
168 168 114
168 168 114
168 168 114
168 168 114
168 168 114
168 168 114
168 168 114
168 168 114
168 168 114
169 169 114
169 169 114
169 169 114
169 169 114
169 169 114
169 169 114
169 169 114
169 169 114
169 169 114
169 169 114
169 169 114
169 169 114
170 169 114
170 169 114
170 169 114
170 169 114
170 169 114
170 169 114
170 169 114
170 169 114
171 169 114
171 169 114
171 169 114
171 170 114
171 170 114
171 170 114
171 170 114
171 170 114
171 170 114
172 170 114
172 170 114
172 170 114
172 170 114
172 170 114
172 170 114
172 170 114
173 170 114
173 170 114
173 170 114
173 170 114
173 171 114
173 171 114
173 171 114
174 171 114
174 171 114
174 171 114
174 198 228
175 198 228
174 197 228
174 197 228
174 198 228
174 197 228
173 197 228
174 197 228
173 197 228
173 197 228
174 197 228
173 197 228
172 196 228
172 196 228
173 197 228
172 197 228
173 197 228
173 197 228
173 197 228
173 197 228
173 197 228
172 197 228
172 196 228
172 197 228
173 197 228
171 196 228
171 196 228
171 196 228
170 195 228
171 196 228
171 196 228
171 196 228
171 196 228
172 196 228
171 196 228
171 196 228
171 196 228
170 196 228
170 195 228
171 196 228
171 196 228
170 195 228
169 195 228
170 195 228
171 196 228
170 195 228
170 195 228
171 196 228
169 195 228
171 196 228
170 195 228
169 195 228
169 195 228
170 195 228
169 195 228
169 195 228
171 196 228
168 194 228
168 194 228
169 195 228
169 195 228
170 195 228
169 195 228
171 196 228
170 195 228
168 194 228
168 194 228
168 194 228
168 194 228
167 194 228
167 194 228
168 194 228
168 194 228
170 196 228
167 194 228
168 194 228
167 194 228
168 194 228
168 194 228
168 194 228
169 195 228
168 194 228
167 194 228
167 194 228
168 194 228
168 194 228
169 195 228
169 195 228
169 195 228
168 194 228
170 195 228
167 194 228
168 194 228
169 195 228
169 195 228
170 195 228
169 195 228
169 195 228
169 195 228
169 195 228
169 195 228
169 195 228
170 196 228
167 194 228
169 195 228
169 195 228
169 195 228
166 192 226
160 185 221
160 186 221
152 178 213
149 175 211
150 177 213
138 164 203
140 166 206
128 154 197
143 169 209
117 143 188
119 145 189
121 147 188
117 144 192
117 143 188
117 143 188
108 133 181
89 115 167
106 131 180
98 124 176
99 124 173
104 128 176
117 142 187
114 138 183
119 142 187
135 158 197
134 157 197
136 159 199
150 172 209
163 185 218
173 194 224
68 100 150
57 93 147
58 94 150
58 93 147
57 92 143
58 94 147
60 96 153
61 96 153
59 94 149
59 95 152
59 95 156
58 93 143
59 95 151
59 96 156
59 94 149
60 96 155
59 94 145
58 93 137
58 94 150
60 96 156
59 95 154
60 95 147
61 97 154
58 94 142
60 95 148
60 95 152
60 96 155
60 95 155
58 94 143
59 95 148
58 94 149
59 94 150
58 94 143
59 95 149
59 95 146
62 97 158
59 95 149
59 94 136
59 95 152
59 95 145
59 94 139
59 95 150
60 96 155
59 95 149
59 95 145
61 97 156
59 94 143
60 96 150
57 93 143
59 94 144
59 94 140
60 95 150
59 95 146
58 95 148
58 94 143
60 95 146
59 95 153
59 95 146
60 97 159
59 95 144
59 95 145
59 95 146
59 95 150
60 96 154
60 95 149
58 95 146
60 96 149
59 95 143
58 93 135
61 96 156
61 96 151
60 95 149
59 95 148
61 97 157
60 96 152
59 95 144
58 94 143
59 94 141
60 96 153
60 96 148
59 95 142
58 94 150
58 94 143
59 95 150
60 95 152
60 96 149
58 94 137
58 94 143
59 94 139
59 95 152
61 96 154
60 95 154
59 95 148
60 95 150
59 94 139
58 94 146
60 95 152
58 92 132
58 93 142
59 93 143
59 94 142
59 95 151
58 92 144
59 94 146
59 95 151
59 94 143
59 95 152
58 94 144
58 92 142
59 95 148
57 92 142
59 94 144
58 93 143
58 93 140
59 93 145
58 94 144
59 95 154
59 93 144
59 93 148
57 91 145
59 93 144
58 92 146
71 98 139
175 170 115
178 173 114
177 172 114
176 172 114
160 158 107
115 118 89
69 81 68
50 68 67
50 69 67
49 68 66
51 70 69
49 69 69
50 70 69
48 67 64
51 70 67
51 70 70
51 70 68
53 72 71
51 72 72
53 74 74
88 99 83
144 146 103
170 169 114
170 169 114
170 169 114
170 169 114
170 169 114
170 169 114
170 169 114
169 169 114
169 169 114
169 169 114
169 169 114
169 169 114
169 169 114
169 169 114
169 169 114
169 169 114
169 169 114
169 169 114
169 169 114
169 168 114
168 168 114
168 168 114
168 168 114
168 168 114
168 168 114
168 168 114
168 168 114
168 168 114
168 168 114
168 168 114
168 168 114
168 168 114
168 168 114
168 168 114
168 168 114
168 168 114
168 168 114
168 168 114
168 168 114
168 168 114
168 168 114
168 168 114
168 168 114
168 168 114
169 168 114
169 168 114
169 169 114
169 168 114
169 169 114
169 169 114
169 169 114
169 169 114
169 169 114
169 169 114
169 169 114
169 169 114
169 169 114
169 169 114
169 169 114
169 169 114
169 169 114
169 169 114
169 169 114
169 169 114
169 169 114
169 169 114
170 169 114
170 169 114
170 169 114
170 169 114
170 169 114
170 169 114
170 169 114
170 169 114
170 169 114
170 169 114
170 169 114
170 169 114
170 169 114
171 169 114
171 169 114
171 169 114
171 170 114
171 170 114
171 170 114
171 170 114
171 170 114
171 170 114
171 170 114
172 170 114
172 170 114
172 170 114
172 170 114
172 170 114
172 170 114
172 170 114
172 170 114
172 170 114
173 170 114
173 170 114
173 170 114
173 170 114
173 171 114
173 171 114
173 171 114
173 171 114
174 171 114
174 171 114
174 171 114
174 171 114
174 171 114
174 171 114
174 171 114
175 171 114
175 171 114
175 171 114
175 171 114
175 198 228
177 199 228
175 198 228
175 198 228
175 198 228
175 198 228
175 198 228
176 199 228
176 198 228
175 198 228
174 198 228
175 198 228
174 198 228
174 197 228
175 198 228
174 197 228
174 197 228
174 198 228
173 197 228
173 197 228
173 197 228
174 197 228
174 197 228
173 197 228
174 197 228
174 197 228
172 196 228
173 197 228
173 197 228
170 196 228
173 197 228
172 196 228
173 197 228
172 196 228
172 196 228
172 196 228
172 196 228
171 196 228
172 196 228
173 197 228
171 196 228
171 196 228
172 196 228
172 196 228
171 196 228
172 196 228
170 196 228
170 195 228
171 196 228
170 195 228
172 196 228
171 196 228
170 195 228
170 195 228
171 196 228
171 196 228
172 196 228
171 196 228
171 196 228
171 196 228
171 196 228
170 195 228
170 195 228
170 195 228
170 195 228
170 196 228
170 195 228
170 195 228
170 195 228
171 196 228
170 195 228
171 196 228
170 196 228
169 195 228
170 195 228
169 195 228
171 196 228
170 195 228
171 196 228
170 195 228
169 195 228
170 195 228
170 195 228
171 196 228
169 195 228
171 196 228
169 195 228
169 195 228
172 196 228
170 195 228
169 195 228
169 195 228
170 195 228
169 195 228
169 195 228
170 195 228
169 195 228
170 195 228
171 196 228
171 196 228
170 195 228
170 195 228
171 196 228
171 196 228
170 195 228
169 194 226
167 192 226
163 189 223
157 183 218
153 179 215
151 176 212
143 168 205
141 166 204
132 157 198
133 159 197
124 150 192
114 139 186
125 150 193
119 145 188
107 133 181
100 126 177
92 118 166
95 120 172
94 119 170
84 110 163
91 117 171
87 112 166
97 122 174
98 123 172
95 120 174
96 119 168
92 116 169
107 132 182
109 131 177
130 152 192
146 168 204
156 177 212
142 164 201
55 90 141
59 94 152
58 93 150
59 95 154
57 93 147
58 93 149
57 92 143
59 95 148
59 94 151
58 93 145
58 93 139
57 93 144
60 95 149
59 95 150
60 95 148
60 95 152
58 92 129
59 94 153
60 96 153
59 95 147
59 94 150
59 94 144
59 95 153
57 92 136
60 96 153
59 94 151
60 96 152
59 95 152
59 95 150
60 96 150
61 97 155
60 95 146
60 96 154
58 93 137
60 95 150
59 95 149
59 95 142
59 94 151
60 96 148
58 94 139
59 94 144
60 95 142
59 95 140
59 94 143
61 97 156
57 92 139
59 95 150
59 94 143
59 94 144
60 95 152
59 95 151
60 96 151
59 94 151
56 92 137
58 94 134
59 95 147
59 95 149
59 95 149
59 94 148
59 95 153
58 94 145
60 95 148
59 94 144
60 95 150
57 93 135
61 96 152
59 95 146
60 96 154
59 94 148
61 96 154
59 95 146
59 95 145
60 96 143
60 95 148
59 94 141
59 95 148
58 93 141
59 94 144
58 94 146
61 96 157
59 95 146
58 94 140
58 93 141
59 95 146
59 95 149
58 94 143
59 94 146
60 95 146
59 94 145
58 94 141
58 93 139
59 95 148
58 94 140
58 93 143
59 95 149
59 95 149
59 94 149
58 94 144
57 92 135
59 94 148
58 93 144
60 95 150
60 95 150
59 94 148
60 95 142
58 93 141
60 95 150
59 94 146
60 95 149
60 94 144
59 94 148
58 93 145
60 95 148
58 93 143
59 94 145
58 92 139
58 92 146
57 91 136
57 92 147
59 93 146
58 92 143
59 92 146
57 90 143
148 149 119
178 173 114
174 169 112
120 122 88
51 69 66
47 66 66
48 67 66
47 66 64
48 67 65
49 67 66
49 68 68
48 66 64
48 66 65
49 68 67
51 70 69
50 68 66
52 70 68
52 71 70
51 70 69
53 73 73
51 72 71
51 72 75
91 101 83
160 160 110
171 170 114
171 170 114
171 170 114
171 170 114
171 170 114
171 169 114
171 169 114
171 169 114
170 169 114
170 169 114
170 169 114
170 169 114
170 169 114
170 169 114
170 169 114
170 169 114
170 169 114
170 169 114
170 169 114
170 169 114
170 169 114
170 169 114
170 169 114
170 169 114
170 169 114
170 169 114
170 169 114
170 169 114
170 169 114
170 169 114
170 169 114
170 169 114
170 169 114
170 169 114
170 169 114
170 169 114
170 169 114
170 169 114
170 169 114
170 169 114
170 169 114
170 169 114
170 169 114
170 169 114
170 169 114
170 169 114
170 169 114
170 169 114
170 169 114
170 169 114
170 169 114
170 169 114
170 169 114
170 169 114
170 169 114
171 169 114
170 169 114
170 169 114
171 169 114
171 169 114
171 169 114
171 170 114
171 169 114
171 170 114
171 170 114
171 170 114
171 170 114
171 170 114
171 170 114
171 170 114
171 170 114
171 170 114
172 170 114
172 170 114
172 170 114
172 170 114
172 170 114
172 170 114
172 170 114
172 170 114
172 170 114
172 170 114
172 170 114
172 170 114
173 170 114
173 170 114
173 170 114
173 170 114
173 170 114
173 171 114
173 171 114
173 171 114
173 171 114
173 171 114
174 171 114
174 171 114
174 171 114
174 171 114
174 171 114
174 171 114
174 171 114
174 171 114
174 171 114
175 171 114
175 171 114
175 171 114
175 171 114
175 171 114
175 172 114
175 172 114
176 172 114
176 172 114
176 172 114
176 172 114
176 172 114
177 199 228
177 199 228
178 200 228
176 199 228
176 199 228
177 199 228
177 199 228
176 198 228
176 198 228
177 199 228
175 198 228
175 198 228
176 198 228
176 198 228
175 198 228
175 198 228
175 198 228
175 198 228
175 198 228
172 196 228
175 198 228
175 198 228
173 197 228
174 198 228
175 198 228
175 198 228
174 197 228
175 198 228
174 197 228
173 197 228
173 197 228
175 198 228
174 198 228
174 197 228
173 197 228
173 197 228
173 197 228
172 196 228
173 197 228
173 197 228
173 197 228
173 197 228
173 197 228
172 196 228
173 197 228
171 196 228
173 197 228
172 196 228
173 197 228
173 197 228
173 197 228
172 196 228
172 197 228
173 197 228
172 196 228
172 197 228
172 196 228
172 196 228
171 196 228
173 197 228
171 196 228
171 196 228
172 196 228
172 196 228
171 196 228
171 196 228
171 196 228
170 195 228
171 196 228
171 196 228
171 196 228
172 196 228
171 196 228
171 196 228
171 196 228
171 196 228
171 196 228
171 196 228
171 196 228
171 196 228
171 196 228
170 195 228
171 196 228
171 196 228
172 196 228
172 197 228
171 196 228
170 195 228
171 196 228
171 196 228
170 195 228
170 195 228
172 196 228
171 196 228
171 196 228
172 196 228
172 196 228
172 196 228
171 196 228
171 196 228
172 196 228
172 196 228
171 196 228
172 196 228
172 196 228
166 191 223
161 185 219
159 184 219
146 171 207
145 170 206
145 170 208
131 156 197
136 161 201
122 147 188
121 147 192
116 141 184
107 132 179
103 129 181
102 127 175
105 131 179
86 113 169
82 108 159
82 109 162
84 111 167
62 91 150
66 94 153
71 98 154
53 83 149
66 93 151
80 106 161
85 109 163
92 116 168
96 120 171
105 128 175
111 134 179
131 152 190
142 164 199
99 123 170
56 90 139
57 92 153
58 92 144
57 92 148
59 95 152
58 94 150
57 92 140
58 92 140
56 91 131
60 95 151
59 94 145
59 95 153
61 95 145
59 94 137
57 92 135
59 94 141
59 94 150
57 92 137
59 94 142
60 95 151
58 93 140
60 96 150
57 93 149
59 95 148
58 94 148
59 94 148
58 94 148
59 94 142
58 93 143
61 96 154
59 94 149
57 92 137
59 94 148
59 94 140
60 95 148
59 95 150
59 95 151
58 94 141
58 94 141
58 93 141
58 94 144
59 95 148
57 92 131
60 95 149
59 95 154
59 95 146
59 95 153
58 94 140
61 97 156
59 95 151
59 94 142
59 95 152
60 95 146
58 93 145
59 94 146
58 93 143
58 94 145
57 91 128
60 96 150
58 93 142
58 94 142
59 95 145
59 95 145
59 95 145
59 94 150
59 95 145
58 93 141
61 97 151
58 94 144
59 95 148
60 96 151
59 94 140
59 94 143
58 94 141
60 96 155
60 96 152
57 93 141
60 96 152
58 93 151
59 95 146
60 96 145
60 96 149
59 95 149
59 94 143
59 95 145
59 95 152
59 94 151
59 95 143
60 95 148
60 95 150
59 94 142
58 92 141
59 95 149
60 96 153
57 92 133
60 95 149
58 93 137
60 95 148
60 95 150
57 93 141
60 95 146
58 93 140
59 95 151
58 93 140
61 96 154
59 95 151
59 94 141
57 92 143
59 93 145
58 93 142
58 93 139
58 93 144
58 93 145
58 93 131
59 93 142
58 93 135
59 93 147
60 94 144
59 94 142
56 90 138
59 92 144
56 89 136
57 91 143
115 125 133
154 151 102
76 86 73
47 65 63
48 67 67
45 63 60
47 65 60
45 62 59
47 64 60
47 65 63
48 65 61
48 65 61
48 65 60
48 66 62
49 67 64
49 67 64
51 70 66
50 69 65
50 68 65
51 71 69
52 71 69
52 71 70
52 72 68
61 78 74
115 121 92
172 170 114
172 170 114
172 170 114
172 170 114
172 170 114
172 170 114
172 170 114
172 170 114
172 170 114
172 170 114
172 170 114
172 170 114
171 170 114
172 170 114
171 170 114
171 170 114
171 170 114
171 170 114
171 170 114
171 170 114
171 170 114
171 170 114
171 170 114
171 170 114
171 170 114
171 170 114
171 170 114
171 170 114
171 170 114
171 170 114
171 170 114
171 170 114
171 170 114
171 170 114
171 170 114
171 170 114
171 170 114
171 170 114
171 170 114
171 170 114
171 170 114
171 170 114
171 170 114
171 170 114
171 170 114
171 170 114
171 170 114
172 170 114
172 170 114
172 170 114
172 170 114
172 170 114
172 170 114
172 170 114
172 170 114
172 170 114
172 170 114
172 170 114
172 170 114
172 170 114
172 170 114
172 170 114
172 170 114
172 170 114
172 170 114
172 170 114
173 170 114
173 170 114
173 170 114
173 170 114
173 170 114
173 170 114
173 171 114
173 171 114
173 171 114
173 171 114
173 171 114
173 171 114
173 171 114
173 171 114
173 171 114
174 171 114
174 171 114
174 171 114
174 171 114
174 171 114
174 171 114
174 171 114
174 171 114
174 171 114
174 171 114
175 171 114
175 171 114
175 171 114
175 171 114
175 171 114
175 171 114
175 171 114
175 172 114
175 172 114
176 172 114
176 172 114
176 172 114
176 172 114
176 172 114
176 172 114
176 172 114
176 172 114
177 172 114
177 172 114
177 172 114
177 172 114
177 172 114
177 172 114
177 199 228
179 200 228
177 199 228
177 199 228
177 199 228
178 200 228
177 199 228
178 199 228
176 198 228
178 199 228
178 199 228
176 199 228
177 199 228
176 199 228
177 199 228
176 198 228
177 199 228
176 199 228
176 199 228
176 198 228
175 198 228
177 199 228
177 199 228
176 198 228
176 198 228
176 199 228
176 198 228
175 198 228
175 198 228
175 198 228
175 198 228
175 198 228
175 198 228
174 197 228
173 197 228
175 198 228
175 198 228
174 197 228
174 197 228
174 197 228
176 198 228
175 198 228
174 198 228
175 198 228
174 198 228
174 197 228
174 197 228
173 197 228
174 197 228
174 197 228
174 197 228
173 197 228
174 197 228
173 197 228
173 197 228
174 198 228
174 197 228
174 197 228
172 197 228
172 197 228
174 197 228
173 197 228
173 197 228
172 196 228
173 197 228
173 197 228
174 198 228
172 196 228
173 197 228
172 196 228
173 197 228
173 197 228
173 197 228
173 197 228
173 197 228
173 197 228
172 196 228
173 197 228
174 197 228
173 197 228
173 197 228
173 197 228
173 197 228
172 196 228
173 197 228
171 196 228
173 197 228
174 197 228
172 196 228
172 196 228
173 197 228
173 197 228
172 196 228
173 197 228
174 198 228
173 197 228
172 196 228
173 197 228
172 196 228
172 196 228
172 196 228
174 197 228
173 197 228
174 197 228
170 193 225
162 186 219
158 183 217
156 180 215
146 170 205
145 169 207
134 158 198
127 151 191
136 161 196
131 155 191
109 134 182
107 131 177
107 132 178
101 127 172
97 123 167
72 100 158
79 105 157
71 100 159
63 91 149
54 85 149
52 82 145
49 80 143
50 80 140
56 83 140
53 84 148
58 85 146
52 81 145
64 90 148
70 96 154
80 104 159
98 119 163
114 135 178
119 141 182
61 94 147
56 90 143
58 93 157
57 93 140
60 95 151
58 93 142
57 93 146
59 94 146
59 95 150
59 95 150
59 94 147
60 95 150
58 94 143
58 94 145
60 95 152
60 95 152
58 93 136
59 94 148
58 93 139
58 93 140
58 94 143
59 95 151
58 94 142
59 95 148
57 93 141
57 92 140
58 94 141
60 95 152
58 94 142
60 95 148
58 93 145
59 94 144
59 94 149
61 97 155
59 95 145
59 95 143
58 94 145
57 93 139
59 95 149
59 94 146
58 94 144
58 94 139
60 96 153
57 93 135
59 95 146
59 94 144
57 92 134
60 96 145
58 94 143
59 95 146
57 93 133
58 94 142
59 95 143
59 95 143
58 93 141
61 97 149
58 94 139
59 94 139
60 95 148
58 94 139
59 95 152
59 95 144
58 94 143
59 94 148
58 93 143
59 95 148
58 94 145
59 94 144
57 92 142
59 94 142
58 94 143
59 95 149
59 94 148
59 94 149
58 93 139
59 95 146
59 95 150
57 93 142
60 95 145
60 96 153
58 94 142
57 93 135
60 95 148
57 93 133
60 96 152
58 94 145
59 95 156
60 95 150
59 94 146
61 97 153
58 94 143
60 95 149
59 94 143
58 93 141
61 97 157
59 95 143
60 95 145
59 94 140
60 95 150
58 93 133
60 96 150
59 94 140
58 92 132
60 95 152
59 94 147
59 94 144
59 94 151
58 93 134
59 93 144
60 95 148
58 93 144
59 95 144
57 91 139
60 95 152
58 93 146
59 93 145
59 93 140
59 93 142
58 92 143
57 91 134
59 94 149
57 90 135
58 92 144
57 90 144
78 101 135
53 67 59
46 64 60
44 60 58
44 60 55
46 63 60
45 62 56
46 63 60
46 63 59
48 65 59
46 62 59
46 64 57
49 67 62
49 67 64
49 68 63
48 66 64
49 68 66
49 67 63
52 71 70
52 71 68
51 70 67
50 70 69
53 73 72
52 73 74
52 72 71
102 110 88
173 170 113
174 171 114
174 171 114
173 171 114
173 171 114
173 171 114
173 171 114
173 171 114
173 171 114
173 171 114
173 171 114
173 170 114
173 170 114
173 170 114
173 170 114
173 170 114
173 170 114
173 170 114
173 170 114
173 170 114
173 170 114
173 170 114
173 170 114
173 170 114
173 170 114
173 170 114
173 170 114
173 170 114
173 170 114
173 170 114
173 170 114
173 170 114
173 170 114
173 170 114
173 170 114
173 170 114
173 170 114
173 170 114
173 170 114
173 170 114
173 170 114
173 170 114
173 170 114
173 170 114
173 170 114
173 170 114
173 171 114
173 171 114
173 171 114
173 171 114
173 171 114
173 171 114
173 171 114
173 171 114
173 171 114
173 171 114
173 171 114
173 171 114
173 171 114
174 171 114
174 171 114
174 171 114
174 171 114
174 171 114
174 171 114
174 171 114
174 171 114
174 171 114
174 171 114
174 171 114
174 171 114
174 171 114
174 171 114
174 171 114
175 171 114
175 171 114
175 171 114
175 171 114
175 171 114
175 171 114
175 171 114
175 171 114
175 171 114
175 171 114
175 172 114
175 172 114
175 172 114
176 172 114
176 172 114
176 172 114
176 172 114
176 172 114
176 172 114
176 172 114
176 172 114
176 172 114
176 172 114
177 172 114
177 172 114
177 172 114
177 172 114
177 172 114
177 172 114
177 172 114
177 172 114
177 173 114
177 173 114
178 173 114
178 173 114
178 173 114
178 173 114
178 173 114
178 173 114
178 199 228
180 201 228
179 200 228
178 199 228
179 200 228
179 200 228
179 200 228
179 200 228
179 200 228
178 200 228
179 200 228
178 200 228
177 199 228
178 199 228
177 199 228
177 199 228
177 199 228
178 200 228
178 200 228
177 199 228
177 199 228
176 199 228
177 199 228
177 199 228
177 199 228
176 199 228
178 199 228
178 199 228
176 199 228
174 198 228
176 199 228
176 198 228
176 199 228
176 198 228
177 199 228
175 198 228
177 199 228
175 198 228
175 198 228
176 198 228
177 199 228
175 198 228
176 198 228
176 198 228
175 198 228
176 198 228
175 198 228
176 198 228
176 199 228
175 198 228
175 198 228
175 198 228
175 198 228
174 197 228
175 198 228
175 198 228
174 198 228
175 198 228
174 198 228
175 198 228
174 198 228
174 198 228
175 198 228
174 197 228
173 197 228
175 198 228
174 197 228
174 198 228
174 198 228
175 198 228
175 198 228
175 198 228
175 198 228
173 197 228
175 198 228
174 197 228
175 198 228
174 197 228
174 197 228
173 197 228
175 198 228
174 197 228
174 197 228
173 197 228
174 197 228
174 197 228
174 197 228
174 197 228
175 198 228
175 198 228
174 198 228
174 198 228
174 198 228
175 198 228
175 198 228
174 198 228
175 198 228
176 198 228
173 197 228
174 198 228
174 197 228
176 198 228
174 197 228
173 197 228
169 193 224
164 188 220
155 178 210
157 180 214
147 171 207
140 164 200
123 147 188
128 152 190
122 147 187
116 140 180
99 124 169
101 126 170
96 121 168
83 110 163
63 91 147
72 99 154
57 87 149
50 82 145
50 82 146
47 79 144
48 80 146
47 78 143
46 76 140
47 77 141
45 75 141
45 76 138
44 74 135
48 77 144
53 80 142
53 80 142
68 92 147
88 109 157
97 120 170
57 92 147
57 92 152
58 92 139
57 92 144
58 94 146
59 94 150
58 93 145
59 94 144
56 91 138
58 93 149
59 94 146
58 93 141
58 93 144
57 92 132
57 92 134
58 93 149
58 93 146
59 94 144
59 94 142
59 95 148
59 94 143
58 93 139
59 95 145
59 94 139
59 95 146
57 93 137
58 93 136
59 94 144
58 93 137
58 94 147
57 92 129
59 94 145
60 95 151
57 92 137
60 95 151
59 95 146
58 94 144
58 94 139
59 95 148
59 94 144
60 95 146
60 95 148
61 96 151
59 94 140
59 94 145
58 93 136
58 93 141
59 94 139
59 94 140
58 94 142
59 94 151
57 92 134
60 95 145
58 94 142
59 94 145
59 94 144
60 96 151
57 92 130
59 95 149
59 94 142
58 94 141
59 95 152
59 95 145
58 93 146
59 95 150
59 94 139
58 94 140
57 91 131
59 95 146
59 94 141
59 94 148
57 93 139
60 95 146
59 94 140
59 95 148
58 94 136
58 94 142
59 95 149
57 92 125
61 97 153
58 94 146
59 95 143
60 95 150
58 93 139
59 94 145
58 93 139
58 93 137
61 96 154
60 96 153
59 94 144
59 94 148
58 93 134
59 95 151
58 94 141
58 93 134
58 93 139
58 94 143
58 94 143
60 95 152
59 94 144
59 95 149
58 93 143
59 93 137
59 95 147
59 94 143
59 94 144
58 93 134
60 94 144
59 94 142
59 94 147
59 93 143
59 93 144
60 95 144
59 94 146
58 94 143
57 91 135
58 93 143
60 95 156
60 94 145
59 94 146
58 90 133
55 88 130
59 93 147
57 90 142
57 90 134
48 67 76
43 60 54
41 57 54
43 58 51
44 60 56
44 60 54
44 60 53
45 61 55
46 62 55
47 64 60
45 62 58
47 64 57
48 66 59
49 67 62
50 67 60
49 67 62
51 69 66
50 68 63
50 69 63
51 71 69
52 70 68
53 72 70
52 71 67
53 73 72
53 74 75
106 112 85
172 169 113
175 171 114
175 171 114
175 171 114
175 171 114
175 171 114
175 171 114
174 171 114
174 171 114
174 171 114
174 171 114
174 171 114
174 171 114
174 171 114
174 171 114
174 171 114
174 171 114
174 171 114
174 171 114
174 171 114
174 171 114
174 171 114
174 171 114
174 171 114
174 171 114
174 171 114
174 171 114
174 171 114
174 171 114
174 171 114
174 171 114
174 171 114
174 171 114
174 171 114
174 171 114
174 171 114
174 171 114
174 171 114
174 171 114
174 171 114
174 171 114
174 171 114
174 171 114
174 171 114
174 171 114
174 171 114
174 171 114
175 171 114
175 171 114
175 171 114
175 171 114
175 171 114
175 171 114
175 171 114
175 171 114
175 171 114
175 171 114
175 171 114
175 171 114
175 171 114
175 171 114
175 171 114
175 171 114
175 171 114
175 172 114
175 172 114
175 172 114
175 172 114
176 172 114
176 172 114
176 172 114
176 172 114
176 172 114
176 172 114
176 172 114
176 172 114
176 172 114
176 172 114
176 172 114
176 172 114
176 172 114
176 172 114
176 172 114
176 172 114
177 172 114
177 172 114
177 172 114
177 172 114
177 172 114
177 172 114
177 172 114
177 172 114
177 172 114
177 173 114
178 173 114
178 173 114
178 173 114
178 173 114
178 173 114
178 173 114
178 173 114
178 173 114
178 173 114
178 173 114
178 173 114
179 173 114
179 173 114
179 173 114
179 173 114
179 173 114
179 173 114
179 173 114
181 201 228
180 201 228
178 200 228
180 201 228
181 201 228
180 201 228
180 201 228
179 200 228
179 200 228
179 200 228
180 201 228
178 200 228
178 199 228
179 200 228
179 200 228
179 200 228
179 200 228
179 200 228
180 200 228
178 200 228
179 200 228
178 200 228
178 200 228
180 200 228
177 199 228
179 200 228
178 199 228
177 199 228
177 199 228
177 199 228
178 199 228
178 199 228
177 199 228
177 199 228
178 199 228
176 199 228
178 200 228
177 199 228
178 199 228
178 199 228
177 199 228
176 199 228
178 199 228
177 199 228
178 199 228
176 199 228
176 199 228
178 199 228
176 199 228
175 198 228
176 199 228
175 198 228
176 199 228
176 198 228
176 198 228
177 199 228
175 198 228
175 198 228
175 198 228
177 199 228
176 198 228
176 199 228
176 199 228
176 198 228
175 198 228
176 198 228
176 199 228
177 199 228
176 198 228
176 199 228
176 198 228
174 198 228
175 198 228
176 199 228
176 198 228
176 198 228
175 198 228
176 199 228
176 198 228
175 198 228
176 199 228
176 198 228
176 198 228
175 198 228
175 198 228
176 198 228
176 198 228
176 199 228
177 199 228
175 198 228
176 198 228
176 199 228
176 198 228
176 198 228
175 198 228
177 199 228
175 198 228
176 199 228
176 199 228
176 198 228
176 198 228
176 199 228
175 197 227
168 191 221
165 188 221
161 184 217
153 176 209
156 179 213
142 166 203
139 163 198
126 150 187
132 156 194
114 138 182
115 139 179
103 127 169
98 123 170
90 116 164
79 106 159
67 95 152
49 81 144
49 80 142
49 80 143
49 80 146
48 79 142
46 76 133
47 78 143
45 74 134
44 74 134
45 74 133
45 75 135
45 75 135
43 72 136
43 72 136
43 71 133
44 71 132
68 91 145
72 98 153
57 92 144
57 92 146
57 92 144
57 92 141
60 96 160
57 92 142
57 92 145
57 92 139
57 92 138
58 94 152
60 95 151
58 94 151
59 95 145
60 95 149
59 95 147
59 95 149
59 95 148
59 94 142
58 94 147
58 94 145
59 94 145
59 94 142
59 95 139
60 95 142
58 94 147
60 95 147
58 94 143
60 96 152
60 95 148
58 94 143
59 95 149
58 93 140
59 95 152
60 95 143
58 93 137
59 95 149
58 94 148
59 95 149
59 95 151
60 96 156
60 95 150
58 93 134
58 93 144
60 96 151
59 94 143
60 96 151
60 96 152
60 96 156
57 93 136
61 97 157
60 95 146
60 95 148
58 93 139
59 95 144
58 94 144
59 95 145
58 93 141
58 93 144
59 95 144
58 94 141
60 95 146
57 93 143
59 94 137
58 94 146
59 94 141
60 95 149
58 94 141
60 95 144
60 95 148
58 94 144
59 95 146
59 94 145
60 95 141
58 93 136
58 94 144
58 93 140
58 93 144
58 94 145
61 96 151
58 94 142
59 95 146
58 94 149
57 92 135
58 93 142
60 95 148
59 94 144
58 94 146
59 94 145
59 95 146
58 94 136
57 93 135
59 95 149
58 94 147
60 95 142
60 95 151
59 94 145
59 95 147
59 94 145
58 93 133
59 95 149
60 95 152
60 95 145
58 94 144
60 95 149
59 94 143
59 94 144
59 93 149
58 93 143
57 92 137
58 94 146
58 92 139
57 92 138
58 92 135
58 93 141
58 93 142
58 93 146
58 92 137
59 94 148
58 92 139
57 91 134
58 93 143
59 92 134
58 92 142
57 89 127
58 91 137
50 75 104
39 53 45
43 59 55
44 60 54
41 57 50
43 58 52
43 58 50
45 60 52
44 61 55
43 58 53
45 62 56
46 63 58
47 64 57
47 64 57
49 67 58
49 67 63
48 65 57
50 68 64
50 69 66
51 70 66
51 70 64
51 71 66
51 69 64
52 71 69
53 74 73
53 73 72
110 116 88
175 171 113
176 172 114
176 172 114
176 172 114
176 172 114
176 172 114
176 172 114
176 172 114
176 172 114
176 172 114
176 172 114
176 172 114
176 172 114
176 172 114
176 172 114
176 172 114
176 172 114
176 172 114
176 172 114
176 172 114
176 172 114
176 172 114
176 172 114
175 172 114
176 172 114
175 172 114
175 172 114
175 172 114
176 172 114
176 172 114
176 172 114
175 172 114
175 172 114
176 172 114
176 172 114
176 172 114
176 172 114
176 172 114
176 172 114
176 172 114
176 172 114
176 172 114
176 172 114
176 172 114
176 172 114
176 172 114
176 172 114
176 172 114
176 172 114
176 172 114
176 172 114
176 172 114
176 172 114
176 172 114
176 172 114
176 172 114
176 172 114
176 172 114
176 172 114
176 172 114
176 172 114
177 172 114
177 172 114
177 172 114
177 172 114
177 172 114
177 172 114
177 172 114
177 172 114
177 172 114
177 172 114
177 172 114
177 172 114
177 172 114
177 172 114
177 172 114
177 173 114
178 173 114
178 173 114
178 173 114
178 173 114
178 173 114
178 173 114
178 173 114
178 173 114
178 173 114
178 173 114
178 173 114
178 173 114
178 173 114
178 173 114
178 173 114
179 173 114
179 173 114
179 173 114
179 173 114
179 173 114
179 173 114
179 173 114
179 173 114
179 173 114
179 173 114
180 174 114
180 174 114
180 174 114
180 174 114
180 174 114
180 174 114
180 174 114
180 174 114
180 174 114
181 201 228
182 202 228
181 201 228
182 202 228
181 201 228
181 201 228
182 202 228
181 201 228
181 201 228
180 201 228
180 201 228
180 201 228
181 201 228
179 200 228
180 201 228
180 201 228
180 200 228
181 201 228
180 200 228
180 200 228
179 200 228
180 201 228
180 201 228
179 200 228
180 201 228
179 200 228
179 200 228
179 200 228
180 201 228
180 201 228
180 201 228
179 200 228
179 200 228
179 200 228
179 200 228
178 200 228
178 200 228
178 199 228
179 200 228
179 200 228
178 199 228
178 199 228
178 200 228
179 200 228
179 200 228
177 199 228
177 199 228
178 199 228
178 199 228
177 199 228
177 199 228
179 200 228
177 199 228
178 199 228
178 199 228
179 200 228
178 200 228
177 199 228
178 200 228
178 199 228
178 200 228
178 200 228
178 199 228
178 199 228
177 199 228
178 199 228
177 199 228
177 199 228
177 199 228
176 199 228
178 199 228
177 199 228
177 199 228
177 199 228
176 199 228
177 199 228
179 200 228
176 198 228
176 198 228
177 199 228
176 199 228
177 199 228
179 200 228
176 199 228
176 199 228
177 199 228
177 199 228
177 199 228
178 199 228
177 199 228
178 200 228
176 199 228
177 199 228
177 199 228
177 199 228
178 200 228
178 199 228
177 199 228
177 199 228
177 199 228
177 199 228
177 199 228
172 193 224
169 191 222
156 178 212
160 183 216
151 174 207
145 168 202
148 171 204
130 153 190
129 151 185
116 139 180
107 132 172
105 129 173
84 110 155
83 108 154
63 91 144
50 79 134
49 81 135
50 81 137
50 82 147
49 80 138
46 77 134
48 79 139
48 79 138
47 76 139
46 76 139
45 74 135
42 69 129
43 71 134
43 72 134
43 71 134
44 72 136
42 70 133
41 69 132
42 70 134
51 83 141
56 91 146
57 91 147
58 93 147
57 93 147
56 91 139
58 92 148
61 97 157
58 94 140
58 93 142
59 95 149
59 94 143
58 93 139
56 91 134
59 95 151
61 96 155
57 92 136
58 93 144
58 92 133
58 93 139
59 95 149
57 92 134
59 95 149
60 96 146
59 94 137
58 93 145
59 95 149
60 95 143
59 95 145
61 96 149
59 95 143
60 95 151
59 94 146
60 96 154
60 95 148
58 94 144
61 96 151
58 94 140
57 91 134
60 95 149
58 93 139
60 95 145
59 94 148
59 93 142
57 92 139
59 94 146
59 95 148
62 98 157
58 93 135
59 94 134
59 95 144
59 94 144
59 95 143
60 95 144
60 96 151
61 97 155
59 94 146
59 95 146
59 94 141
59 94 143
59 95 151
58 94 142
58 94 137
58 93 142
60 95 150
58 93 140
60 95 150
59 95 142
60 96 145
60 96 150
59 95 151
58 92 136
59 94 145
58 94 140
59 95 150
59 94 140
59 95 151
58 93 139
59 95 148
58 94 140
60 95 142
59 94 144
57 92 135
58 94 140
59 94 142
59 94 136
59 94 141
58 94 144
59 95 149
59 94 148
58 93 136
58 93 134
59 94 147
57 93 143
60 96 153
60 95 150
59 94 146
58 93 135
60 95 150
60 95 148
59 94 148
58 93 142
60 95 151
59 93 138
58 93 139
59 94 142
60 95 143
57 92 131
57 90 132
59 94 148
58 94 144
56 91 138
59 94 142
59 94 145
59 94 139
59 94 151
59 94 142
59 94 149
59 94 142
58 91 138
58 92 136
57 91 136
58 92 137
58 92 141
58 92 147
57 89 132
53 81 118
38 52 45
42 57 51
40 55 49
43 58 50
42 57 51
41 56 48
47 63 57
45 61 53
45 62 55
46 63 59
47 63 57
47 64 62
48 66 60
49 67 62
49 67 60
49 67 62
50 68 63
49 68 63
49 67 61
49 67 63
50 69 66
51 71 68
51 70 65
53 72 68
52 73 70
53 73 71
130 132 96
178 173 114
178 173 114
177 173 114
177 173 114
177 173 114
177 172 114
177 172 114
177 172 114
177 172 114
177 172 114
177 172 114
177 172 114
177 172 114
177 172 114
177 172 114
177 172 114
177 172 114
177 172 114
177 172 114
177 172 114
177 172 114
177 172 114
177 172 114
177 172 114
177 172 114
177 172 114
177 172 114
177 172 114
177 172 114
177 172 114
177 172 114
177 172 114
177 172 114
177 172 114
177 172 114
177 172 114
177 172 114
177 172 114
177 172 114
177 172 114
177 172 114
177 172 114
177 172 114
177 172 114
177 173 114
177 172 114
177 173 114
177 173 114
178 173 114
177 173 114
177 173 114
178 173 114
178 173 114
178 173 114
178 173 114
178 173 114
178 173 114
178 173 114
178 173 114
178 173 114
178 173 114
178 173 114
178 173 114
178 173 114
178 173 114
178 173 114
178 173 114
178 173 114
178 173 114
178 173 114
178 173 114
179 173 114
179 173 114
179 173 114
179 173 114
179 173 114
179 173 114
179 173 114
179 173 114
179 173 114
179 173 114
179 173 114
179 173 114
179 173 114
179 173 114
179 173 114
180 174 114
180 174 114
180 174 114
180 174 114
180 174 114
180 174 114
180 174 114
180 174 114
180 174 114
180 174 114
180 174 114
180 174 114
180 174 114
181 174 114
181 174 114
181 174 114
181 174 114
181 174 114
181 174 114
181 174 114
181 174 114
181 174 114
181 174 114
182 174 114
184 203 228
182 202 228
182 202 228
182 202 228
182 202 228
182 202 228
182 202 228
181 201 228
182 202 228
183 202 228
181 201 228
182 202 228
183 202 228
182 201 228
181 201 228
180 201 228
181 201 228
180 201 228
181 201 228
180 201 228
181 201 228
180 201 228
181 201 228
179 200 228
181 201 228
180 201 228
180 201 228
180 201 228
180 201 228
180 201 228
181 201 228
180 201 228
179 200 228
179 200 228
180 201 228
180 201 228
180 201 228
179 200 228
180 201 228
180 201 228
179 200 228
178 200 228
179 200 228
179 200 228
180 201 228
179 200 228
180 200 228
179 200 228
180 201 228
180 201 228
178 200 228
180 201 228
179 200 228
179 200 228
178 200 228
179 200 228
178 200 228
179 200 228
179 200 228
179 200 228
179 200 228
179 200 228
179 200 228
179 200 228
179 200 228
178 200 228
180 201 228
179 200 228
177 199 228
177 199 228
179 200 228
179 200 228
178 200 228
178 200 228
179 200 228
178 200 228
178 200 228
178 199 228
178 200 228
177 199 228
179 200 228
178 200 228
178 199 228
180 201 228
178 200 228
178 200 228
178 200 228
178 199 228
178 200 228
177 199 228
177 199 228
179 200 228
179 200 228
179 200 228
179 200 228
178 200 228
178 200 228
178 199 228
180 200 228
179 200 228
178 200 228
177 198 227
170 192 222
165 187 217
164 185 216
152 174 208
151 173 205
142 164 198
135 157 189
126 149 187
120 143 180
123 145 188
104 128 172
106 129 172
81 107 155
76 102 150
55 85 136
50 82 142
49 80 135
49 80 133
48 79 139
48 78 137
48 79 142
48 79 139
45 75 135
44 74 130
48 79 138
45 74 130
44 73 132
44 74 137
43 72 132
42 70 128
41 69 129
41 68 126
38 63 121
39 66 129
53 86 147
57 92 150
58 93 152
55 90 134
58 94 148
57 92 139
59 95 153
57 92 136
59 94 148
58 93 139
58 93 140
60 95 150
59 94 139
59 94 148
57 92 134
60 95 152
58 92 135
58 94 152
58 93 143
57 93 134
58 93 144
57 92 143
59 94 143
60 95 151
59 94 142
59 94 145
59 95 144
61 96 152
59 94 144
59 95 150
59 95 149
59 95 148
58 93 135
58 94 141
60 96 152
60 95 144
57 93 130
58 94 143
59 94 145
60 95 150
59 95 146
58 93 142
58 93 139
60 96 154
61 96 150
59 95 148
59 94 141
60 95 146
60 95 144
58 94 143
59 94 145
59 94 143
60 95 146
58 93 141
60 95 148
59 95 146
59 94 145
60 95 142
58 94 146
58 93 136
59 94 140
58 94 140
61 96 149
58 93 142
59 94 144
57 93 140
60 95 144
58 93 143
58 93 137
59 95 135
59 94 144
59 95 146
60 95 149
60 96 150
57 92 135
60 95 144
58 94 141
59 95 146
59 94 144
59 94 143
58 94 143
59 95 150
59 93 144
59 94 144
58 93 134
58 94 144
57 92 133
59 94 144
57 92 140
60 96 149
59 94 145
59 94 142
60 95 145
60 96 150
58 94 143
58 94 136
57 92 133
57 92 134
60 96 149
58 93 141
59 94 140
59 94 152
59 95 144
58 93 141
58 94 139
60 95 147
60 95 148
58 92 135
58 93 145
60 95 145
60 95 147
60 95 146
59 94 143
60 94 145
59 94 146
58 91 131
59 94 150
59 93 136
59 93 148
58 92 143
59 93 149
58 92 139
59 93 142
59 92 137
57 90 130
57 90 138
53 83 124
38 52 44
39 53 44
40 54 46
40 54 49
43 58 50
44 59 51
45 61 54
45 61 54
43 58 50
47 63 56
44 60 52
46 62 55
46 63 55
46 63 57
48 65 58
49 68 61
49 66 59
48 66 60
50 68 63
51 69 65
50 68 60
51 70 66
51 70 66
51 70 65
51 71 67
52 72 69
53 73 72
152 150 103
179 173 114
179 173 114
179 173 114
179 173 114
179 173 114
179 173 114
179 173 114
179 173 114
179 173 114
179 173 114
178 173 114
179 173 114
178 173 114
178 173 114
178 173 114
178 173 114
178 173 114
178 173 114
178 173 114
178 173 114
178 173 114
178 173 114
178 173 114
178 173 114
178 173 114
178 173 114
178 173 114
178 173 114
178 173 114
178 173 114
178 173 114
179 173 114
178 173 114
178 173 114
179 173 114
179 173 114
179 173 114
179 173 114
179 173 114
179 173 114
179 173 114
179 173 114
179 173 114
179 173 114
179 173 114
179 173 114
179 173 114
179 173 114
179 173 114
179 173 114
179 173 114
179 173 114
179 173 114
179 173 114
179 173 114
179 173 114
179 173 114
179 173 114
179 173 114
179 173 114
179 173 114
179 173 114
179 173 114
179 173 114
180 174 114
180 174 114
180 174 114
180 174 114
180 174 114
180 174 114
180 174 114
180 174 114
180 174 114
180 174 114
180 174 114
180 174 114
180 174 114
180 174 114
180 174 114
180 174 114
180 174 114
181 174 114
181 174 114
181 174 114
181 174 114
181 174 114
181 174 114
181 174 114
181 174 114
181 174 114
181 174 114
181 174 114
181 174 114
181 174 114
181 174 114
182 174 114
182 174 114
182 175 114
182 175 114
182 175 114
182 175 114
182 175 114
182 175 114
182 175 114
182 175 114
182 175 114
182 175 114
183 175 114
183 175 114
183 202 228
183 202 228
182 202 228
183 202 228
184 203 228
184 203 228
183 202 228
183 202 228
182 201 228
182 202 228
182 202 228
183 202 228
183 202 228
184 203 228
181 201 228
183 202 228
183 202 228
182 202 228
182 202 228
183 202 228
182 202 228
183 202 228
182 201 228
183 202 228
181 201 228
181 201 228
181 201 228
181 201 228
181 201 228
183 202 228
181 201 228
182 202 228
182 202 228
181 201 228
182 201 228
181 201 228
181 201 228
181 201 228
180 201 228
181 201 228
181 201 228
182 202 228
181 201 228
181 201 228
181 201 228
182 202 228
180 201 228
181 201 228
181 201 228
182 201 228
181 201 228
182 202 228
180 201 228
181 201 228
180 201 228
181 201 228
181 201 228
180 200 228
180 201 228
181 201 228
179 200 228
181 201 228
180 201 228
180 200 228
181 201 228
180 201 228
181 201 228
180 201 228
179 200 228
180 201 228
180 200 228
180 200 228
181 201 228
180 200 228
180 201 228
179 200 228
179 200 228
181 201 228
180 201 228
180 201 228
181 201 228
179 200 228
180 201 228
181 201 228
181 201 228
180 201 228
180 201 228
179 200 228
180 201 228
180 201 228
180 201 228
179 200 228
181 201 228
180 200 228
179 200 228
180 201 228
181 201 228
180 201 228
180 200 228
179 200 228
181 201 228
178 198 226
170 191 219
166 187 216
156 177 210
150 170 203
149 170 201
133 156 192
135 156 191
117 139 179
107 131 177
96 120 167
103 126 168
74 101 148
70 97 145
50 81 141
49 80 134
48 79 138
48 78 132
49 80 134
45 75 126
46 77 128
47 77 135
46 76 128
45 74 132
46 76 133
45 73 130
44 73 128
43 71 127
43 71 132
42 69 126
40 67 121
40 66 125
43 72 134
36 61 117
38 64 123
57 92 148
56 90 136
58 93 146
57 92 137
58 93 143
58 93 148
58 93 144
57 93 143
59 94 143
59 94 149
59 95 149
57 92 139
58 93 144
57 92 135
59 95 143
60 95 146
59 95 150
60 96 145
58 93 137
59 94 147
59 95 145
56 90 137
60 95 155
59 95 139
59 94 144
59 94 139
57 91 133
59 94 141
58 93 141
59 95 148
58 94 137
61 95 149
60 95 144
59 95 150
59 94 140
59 94 144
59 93 142
58 93 133
60 95 145
57 93 141
60 96 151
59 94 142
58 93 136
58 93 137
60 95 149
59 94 139
61 97 153
60 95 146
58 93 140
58 94 141
59 95 147
59 95 142
58 94 141
59 94 142
59 94 139
60 95 143
59 94 143
59 95 148
58 94 146
58 93 136
59 94 141
59 94 137
59 94 143
56 91 125
58 94 141
58 93 137
58 94 146
58 93 137
58 93 135
58 93 135
58 94 142
57 93 137
60 96 152
59 95 139
57 92 137
59 94 142
59 94 135
59 95 146
57 93 137
59 94 146
58 94 142
57 92 135
58 93 137
58 93 137
59 94 146
59 95 149
57 93 134
60 95 150
58 93 140
58 93 138
58 93 147
59 93 141
59 94 142
59 94 142
57 92 138
59 94 143
59 95 149
59 94 139
56 91 134
61 96 151
58 93 137
58 93 139
58 93 137
59 94 143
60 95 148
58 93 138
58 93 138
56 91 134
59 95 144
58 93 135
59 93 142
59 94 149
59 94 141
60 95 149
58 92 134
58 93 150
56 90 129
59 94 147
59 94 138
59 93 143
55 88 125
58 91 129
59 93 142
57 91 135
57 90 135
58 92 139
55 86 123
38 52 45
40 53 43
39 51 43
41 56 50
40 53 46
41 54 47
43 59 51
44 59 49
44 59 52
45 60 52
45 63 54
45 60 48
47 63 56
46 63 59
46 62 55
47 64 57
48 65 57
50 68 63
49 66 60
51 69 63
52 71 66
52 72 67
51 70 63
51 70 63
52 71 65
53 72 67
53 73 69
78 90 76
177 171 113
180 174 114
180 174 114
180 174 114
180 174 114
180 174 114
180 174 114
180 174 114
180 174 114
180 174 114
180 174 114
180 174 114
180 174 114
180 174 114
180 174 114
180 174 114
180 174 114
180 174 114
180 174 114
180 174 114
180 174 114
180 174 114
180 174 114
180 174 114
180 174 114
180 174 114
180 174 114
180 174 114
180 174 114
180 174 114
180 174 114
180 174 114
180 174 114
180 174 114
180 174 114
180 174 114
180 174 114
180 174 114
180 174 114
180 174 114
180 174 114
180 174 114
180 174 114
180 174 114
180 174 114
180 174 114
180 174 114
180 174 114
180 174 114
180 174 114
180 174 114
180 174 114
180 174 114
180 174 114
180 174 114
181 174 114
181 174 114
181 174 114
181 174 114
181 174 114
181 174 114
181 174 114
181 174 114
181 174 114
181 174 114
181 174 114
181 174 114
181 174 114
181 174 114
181 174 114
181 174 114
181 174 114
181 174 114
181 174 114
181 174 114
181 174 114
181 174 114
182 174 114
182 175 114
182 175 114
182 175 114
182 175 114
182 175 114
182 175 114
182 175 114
182 175 114
182 175 114
182 175 114
182 175 114
182 175 114
182 175 114
182 175 114
183 175 114
183 175 114
183 175 114
183 175 114
183 175 114
183 175 114
183 175 114
183 175 114
183 175 114
183 175 114
183 175 114
183 175 114
183 175 114
184 175 114
184 175 114
184 175 114
184 176 114
186 204 228
185 203 228
185 203 228
184 203 228
184 203 228
184 203 228
184 203 228
184 203 228
184 203 228
184 203 228
184 203 228
186 204 228
184 203 228
184 203 228
184 203 228
183 202 228
185 203 228
183 202 228
182 202 228
183 202 228
183 202 228
184 203 228
182 202 228
183 202 228
183 202 228
184 203 228
182 202 228
183 202 228
183 203 228
184 203 228
183 202 228
182 202 228
182 202 228
182 202 228
183 202 228
181 201 228
183 202 228
184 203 228
183 202 228
183 202 228
183 202 228
183 202 228
182 202 228
183 202 228
181 201 228
182 202 228
183 202 228
182 202 228
182 202 228
182 202 228
181 201 228
182 202 228
182 202 228
182 202 228
182 202 228
182 202 228
181 201 228
181 201 228
182 202 228
182 202 228
182 201 228
182 202 228
181 201 228
182 202 228
181 201 228
182 202 228
182 202 228
182 202 228
182 201 228
182 201 228
182 201 228
182 202 228
181 201 228
181 201 228
181 201 228
182 202 228
182 201 228
182 201 228
181 201 228
181 201 228
181 201 228
182 202 228
182 202 228
180 201 228
183 202 228
181 201 228
181 201 228
181 201 228
181 201 228
180 201 228
182 202 228
181 201 228
182 202 228
182 201 228
181 201 228
182 202 228
182 201 228
181 201 228
182 201 228
181 201 228
180 200 226
179 199 226
172 192 219
160 180 209
160 181 212
154 175 208
149 170 199
129 150 186
114 136 176
111 133 170
108 131 171
86 110 159
77 103 156
74 101 147
54 84 138
49 80 136
50 80 134
52 83 143
48 79 131
47 77 134
48 78 137
47 78 136
47 76 134
47 77 128
43 71 122
44 73 127
44 72 129
43 71 126
40 67 123
40 67 123
42 71 128
41 68 125
42 68 124
38 62 115
39 65 125
41 68 126
57 91 139
58 92 145
56 91 145
58 93 154
59 93 141
55 90 133
57 92 135
58 93 146
58 93 146
59 94 142
57 92 135
59 94 147
60 95 151
57 92 133
59 94 145
60 95 146
57 93 141
59 94 148
58 93 137
59 95 144
60 95 147
59 94 147
58 94 135
60 96 151
57 92 138
58 93 139
59 94 145
59 94 141
59 94 146
58 93 140
59 94 141
57 93 135
60 96 150
59 94 140
59 94 140
57 93 137
58 93 134
59 95 145
58 93 146
59 94 139
59 95 144
59 94 139
61 96 151
59 95 149
58 93 136
59 95 150
58 94 144
59 94 145
59 94 139
59 95 145
59 94 144
61 96 151
57 92 129
58 94 136
59 94 148
59 94 137
57 92 142
58 94 143
60 95 144
58 94 146
59 95 140
58 92 141
58 93 143
58 93 136
61 96 150
59 95 141
59 95 143
59 94 146
58 93 141
61 96 154
60 96 144
60 95 143
60 95 145
59 94 142
59 94 140
59 95 145
58 94 137
58 94 140
59 95 144
59 94 145
59 95 150
58 94 145
59 94 141
60 95 141
58 93 137
58 93 137
59 94 145
58 93 139
59 95 149
58 93 129
59 95 143
58 93 135
58 93 142
59 94 143
60 95 144
59 94 141
57 91 131
57 93 139
59 94 143
59 95 136
58 93 136
58 93 137
60 95 143
59 94 148
60 94 148
60 95 144
58 93 145
60 96 152
58 92 132
59 94 150
59 94 143
59 95 143
58 92 136
59 95 151
58 93 134
57 91 136
58 93 142
59 93 150
58 92 139
59 94 145
59 93 142
60 94 144
58 91 135
57 91 138
59 92 139
58 90 127
57 88 130
44 63 78
36 48 40
39 52 42
40 53 46
41 54 46
42 55 46
44 58 49
42 57 50
46 63 56
45 60 51
43 59 52
47 63 54
45 61 55
48 64 56
48 64 57
49 66 59
47 64 55
48 66 57
50 68 63
49 66 56
50 69 62
51 69 60
52 71 65
51 70 62
52 71 66
52 72 66
54 73 69
53 74 72
141 140 96
182 175 114
182 174 114
182 174 114
182 174 114
182 174 114
182 174 114
181 174 114
181 174 114
181 174 114
181 174 114
181 174 114
181 174 114
181 174 114
181 174 114
181 174 114
181 174 114
181 174 114
181 174 114
181 174 114
181 174 114
181 174 114
181 174 114
181 174 114
181 174 114
181 174 114
181 174 114
181 174 114
181 174 114
181 174 114
181 174 114
181 174 114
181 174 114
181 174 114
181 174 114
182 174 114
181 174 114
181 174 114
181 174 114
181 174 114
181 174 114
182 174 114
182 174 114
182 174 114
182 174 114
182 175 114
182 175 114
182 175 114
182 175 114
182 175 114
182 175 114
182 175 114
182 175 114
182 175 114
182 175 114
182 175 114
182 175 114
182 175 114
182 175 114
182 175 114
182 175 114
182 175 114
182 175 114
182 175 114
182 175 114
182 175 114
182 175 114
182 175 114
182 175 114
182 175 114
182 175 114
183 175 114
183 175 114
183 175 114
183 175 114
183 175 114
183 175 114
183 175 114
183 175 114
183 175 114
183 175 114
183 175 114
183 175 114
183 175 114
183 175 114
183 175 114
183 175 114
183 175 114
183 175 114
184 175 114
184 175 114
184 175 114
184 175 114
184 176 114
184 176 114
184 176 114
184 176 114
184 176 114
184 176 114
184 176 114
184 176 114
184 176 114
184 176 114
184 176 114
184 176 114
185 176 114
185 176 114
185 176 114
185 176 114
186 204 228
186 204 228
186 204 228
185 203 228
186 204 228
186 204 228
184 203 228
185 204 228
186 204 228
185 203 228
185 203 228
186 204 228
185 203 228
185 203 228
186 204 228
185 203 228
185 203 228
184 203 228
185 203 228
185 203 228
185 203 228
185 203 228
184 203 228
184 203 228
185 203 228
184 203 228
183 202 228
185 203 228
185 203 228
184 203 228
184 203 228
184 203 228
185 203 228
185 203 228
183 202 228
185 203 228
184 203 228
184 203 228
183 202 228
184 203 228
184 203 228
184 203 228
184 203 228
184 203 228
184 203 228
184 203 228
182 202 228
185 203 228
184 203 228
183 202 228
183 202 228
184 203 228
183 202 228
184 203 228
183 202 228
183 202 228
183 202 228
183 202 228
184 203 228
183 202 228
183 202 228
183 202 228
182 202 228
183 202 228
181 201 228
184 203 228
184 203 228
183 202 228
183 202 228
182 201 228
182 201 228
184 203 228
183 202 228
182 202 228
183 202 228
183 202 228
182 202 228
183 202 228
182 202 228
184 203 228
183 202 228
182 202 228
183 202 228
183 202 228
184 203 228
183 202 228
182 202 228
182 202 228
183 203 228
183 202 228
183 202 228
183 202 228
183 202 228
183 203 228
182 202 228
183 202 228
183 202 228
183 202 228
184 203 228
185 203 228
177 196 223
170 190 219
162 181 210
157 177 207
155 175 204
145 165 193
140 161 193
134 155 187
118 140 177
119 141 180
105 128 167
94 118 160
82 107 145
55 85 137
51 82 138
50 81 134
49 80 130
48 79 134
49 79 137
48 79 134
47 77 127
45 74 124
47 76 128
47 77 135
44 72 121
45 73 125
40 68 124
40 66 112
42 69 120
43 71 126
39 65 119
42 69 125
40 66 120
40 66 120
34 58 112
47 77 131
56 90 142
57 91 137
57 91 145
58 94 149
58 93 142
58 93 143
59 94 149
59 94 147
59 94 146
59 94 141
58 93 142
57 91 137
57 92 133
57 92 139
58 93 142
60 95 150
58 94 141
58 93 139
58 93 138
58 93 139
59 94 154
59 94 141
58 93 138
60 95 153
58 94 142
59 94 142
57 91 125
57 92 131
58 94 140
59 95 144
59 94 144
59 94 137
57 93 137
59 95 139
60 96 148
58 94 133
58 93 137
59 95 142
59 94 142
59 94 143
58 93 136
59 94 140
58 94 136
59 94 142
60 95 146
59 94 146
57 92 136
59 94 144
59 95 151
60 96 148
58 94 151
59 95 145
60 95 153
59 94 141
58 93 143
58 93 141
60 96 144
58 94 137
60 95 142
59 94 134
58 93 142
58 93 140
59 93 134
58 94 139
59 93 140
58 94 139
58 93 134
58 93 135
59 95 146
60 95 145
58 94 142
59 94 141
58 93 141
59 95 144
59 95 149
57 92 131
59 94 144
59 95 144
59 95 152
59 95 146
59 94 140
59 95 145
58 92 135
58 93 139
60 95 149
60 96 154
59 94 143
59 94 144
59 95 143
60 95 145
60 96 150
58 94 144
59 94 144
59 94 142
60 96 151
59 94 145
59 94 137
58 93 139
59 93 132
59 95 144
58 92 134
58 93 134
58 93 134
59 94 140
58 93 133
57 92 133
59 95 142
58 93 145
59 93 134
60 95 144
59 94 145
58 93 143
59 95 150
58 93 144
57 91 136
57 92 137
58 93 135
57 91 136
57 91 132
58 92 141
59 93 139
59 94 147
58 92 142
56 90 126
58 91 142
57 91 134
57 89 141
48 70 93
37 49 42
37 49 44
36 49 42
39 52 44
44 59 49
42 57 48
43 58 50
44 58 49
45 61 53
46 62 56
45 60 52
46 62 55
45 61 51
48 65 59
48 65 55
49 65 55
48 65 57
47 64 56
50 69 65
51 71 67
50 68 59
50 68 60
49 68 57
51 70 65
53 73 68
53 73 67
53 73 68
68 82 70
179 172 112
183 175 114
183 175 114
183 175 114
183 175 114
183 175 114
183 175 114
183 175 114
183 175 114
183 175 114
183 175 114
183 175 114
183 175 114
183 175 114
183 175 114
183 175 114
183 175 114
183 175 114
183 175 114
183 175 114
183 175 114
183 175 114
183 175 114
183 175 114
183 175 114
183 175 114
183 175 114
183 175 114
183 175 114
183 175 114
183 175 114
183 175 114
183 175 114
183 175 114
183 175 114
183 175 114
183 175 114
183 175 114
183 175 114
183 175 114
183 175 114
183 175 114
183 175 114
183 175 114
183 175 114
183 175 114
183 175 114
183 175 114
183 175 114
183 175 114
183 175 114
183 175 114
183 175 114
183 175 114
183 175 114
183 175 114
183 175 114
183 175 114
183 175 114
183 175 114
183 175 114
184 175 114
184 175 114
184 175 114
184 175 114
184 175 114
184 175 114
184 176 114
184 176 114
184 176 114
184 176 114
184 176 114
184 176 114
184 176 114
184 176 114
184 176 114
184 176 114
184 176 114
184 176 114
184 176 114
184 176 114
184 176 114
184 176 114
185 176 114
185 176 114
185 176 114
185 176 114
185 176 114
185 176 114
185 176 114
185 176 114
185 176 114
185 176 114
185 176 114
185 176 114
185 176 114
185 176 114
185 176 114
185 176 114
185 176 114
185 176 114
186 176 114
186 176 114
186 176 114
186 176 114
186 176 114
186 176 114
186 177 114
188 205 228
188 205 228
187 204 228
187 204 228
187 204 228
187 204 228
187 204 228
187 204 228
186 204 228
186 204 228
186 204 228
186 204 228
186 204 228
186 204 228
186 204 228
186 204 228
186 204 228
187 204 228
185 204 228
186 204 228
185 204 228
186 204 228
185 204 228
186 204 228
186 204 228
185 203 228
185 203 228
186 204 228
185 204 228
185 203 228
185 204 228
186 204 228
185 204 228
186 204 228
186 204 228
183 202 228
186 204 228
185 203 228
185 203 228
185 204 228
185 203 228
186 204 228
186 204 228
185 203 228
185 204 228
184 203 228
185 203 228
185 203 228
183 203 228
185 203 228
185 203 228
184 203 228
184 203 228
185 203 228
185 203 228
185 203 228
185 203 228
184 203 228
185 203 228
184 203 228
185 204 228
185 203 228
183 203 228
186 204 228
185 203 228
185 203 228
184 203 228
185 203 228
184 203 228
185 203 228
185 203 228
185 203 228
184 203 228
184 203 228
184 203 228
184 203 228
184 203 228
185 203 228
185 203 228
184 203 228
183 202 228
183 202 228
185 203 228
184 203 228
184 203 228
185 203 228
185 204 228
184 203 228
184 203 228
184 203 228
184 203 228
185 203 228
183 202 228
185 203 228
184 203 228
184 203 228
184 203 228
184 203 228
184 203 228
183 201 227
179 198 224
170 189 214
161 181 211
162 181 210
152 171 200
137 156 189
139 159 190
134 154 188
113 136 173
107 129 165
94 117 155
77 102 143
73 99 145
52 82 133
50 81 138
50 81 132
48 79 126
48 79 136
48 79 128
48 78 132
46 76 130
47 76 132
46 75 130
47 77 128
46 75 126
44 73 122
43 71 120
42 69 116
41 67 120
40 66 114
40 66 122
40 67 122
39 64 120
37 61 113
32 54 98
47 77 132
57 91 139
57 92 148
58 93 144
59 94 145
58 93 146
59 95 155
57 92 139
60 95 151
57 92 135
59 94 145
58 93 140
58 93 147
57 92 132
58 93 136
59 95 154
58 94 145
58 93 143
61 96 153
58 93 141
59 94 140
58 93 139
59 94 143
57 92 136
58 93 134
59 94 137
60 95 147
59 94 144
58 93 136
59 94 141
58 93 143
58 94 133
60 96 152
59 94 148
57 93 135
57 92 125
58 94 146
61 96 151
58 93 140
58 93 129
58 94 146
60 95 144
60 95 148
59 94 137
59 95 148
57 92 136
58 93 130
59 94 142
57 91 125
59 94 135
57 92 139
57 92 130
59 95 148
58 93 140
59 94 141
57 92 137
60 95 146
59 95 140
58 93 136
57 92 134
58 94 143
59 94 139
57 92 131
59 95 143
57 92 131
59 95 142
61 96 151
59 95 144
58 92 134
59 94 143
60 95 144
59 95 145
57 91 128
59 95 144
59 94 136
60 95 144
56 91 130
58 93 137
60 95 145
58 94 142
57 93 137
59 94 139
59 95 142
59 95 143
59 95 141
58 93 134
58 94 139
60 95 145
59 93 144
57 92 130
57 92 130
57 92 137
58 93 136
58 93 136
57 92 133
60 94 142
58 93 142
58 92 138
60 95 144
58 93 139
58 93 138
58 93 141
58 93 128
58 93 134
60 95 149
59 94 139
60 95 149
59 94 143
57 92 131
59 93 141
57 92 134
59 94 137
58 93 135
58 91 137
59 94 149
59 94 142
59 93 144
57 91 119
58 92 141
58 92 139
58 90 129
60 94 144
58 91 132
57 91 133
57 89 126
57 90 131
55 87 117
57 89 134
47 70 96
38 51 42
35 46 37
39 50 39
42 56 52
41 56 46
39 53 42
42 56 47
41 54 41
41 55 46
44 59 51
45 60 51
47 63 55
47 63 55
47 63 57
49 66 58
49 65 56
49 66 58
49 67 58
49 65 55
49 67 59
51 68 59
50 68 58
50 69 62
52 71 62
52 72 67
51 70 63
52 71 64
53 73 65
141 139 96
184 176 114
184 176 114
184 176 114
184 176 114
184 176 114
184 176 114
184 176 114
184 176 114
184 176 114
184 176 114
184 176 114
184 176 114
184 176 114
184 176 114
184 176 114
184 176 114
184 176 114
184 176 114
184 176 114
184 176 114
184 176 114
184 176 114
184 176 114
184 176 114
184 176 114
184 176 114
184 176 114
184 176 114
184 176 114
184 176 114
184 176 114
184 176 114
184 176 114
184 176 114
184 176 114
184 176 114
184 176 114
184 176 114
184 176 114
184 176 114
184 176 114
184 176 114
184 176 114
184 176 114
184 176 114
184 176 114
185 176 114
185 176 114
185 176 114
184 176 114
185 176 114
185 176 114
185 176 114
185 176 114
185 176 114
185 176 114
185 176 114
185 176 114
185 176 114
185 176 114
185 176 114
185 176 114
185 176 114
185 176 114
185 176 114
185 176 114
185 176 114
185 176 114
185 176 114
185 176 114
185 176 114
185 176 114
185 176 114
185 176 114
185 176 114
185 176 114
185 176 114
186 176 114
186 176 114
186 176 114
186 176 114
186 176 114
186 176 114
186 176 114
186 176 114
186 177 114
186 177 114
186 177 114
186 177 114
186 177 114
186 177 114
186 177 114
186 177 114
186 177 114
186 177 114
186 177 114
186 177 114
187 177 114
187 177 114
187 177 114
187 177 114
187 177 114
187 177 114
187 177 114
187 177 114
187 177 114
187 177 114
188 205 228
187 205 228
187 204 228
188 205 228
187 205 228
188 205 228
189 205 228
188 205 228
187 205 228
187 204 228
188 205 228
188 205 228
186 204 228
187 205 228
189 205 228
187 205 228
188 205 228
188 205 228
189 205 228
187 204 228
187 204 228
186 204 228
186 204 228
187 204 228
187 205 228
188 205 228
187 204 228
188 205 228
187 205 228
186 204 228
186 204 228
188 205 228
187 205 228
187 204 228
187 204 228
186 204 228
187 205 228
187 205 228
187 204 228
186 204 228
186 204 228
187 205 228
187 204 228
186 204 228
187 204 228
186 204 228
185 204 228
185 203 228
185 204 228
186 204 228
186 204 228
186 204 228
186 204 228
187 204 228
186 204 228
185 203 228
186 204 228
186 204 228
187 204 228
186 204 228
187 204 228
186 204 228
186 204 228
187 204 228
186 204 228
185 204 228
186 204 228
186 204 228
185 203 228
186 204 228
186 204 228
186 204 228
185 203 228
186 204 228
184 203 228
185 203 228
185 203 228
186 204 228
185 204 228
186 204 228
186 204 228
185 203 228
186 204 228
186 204 228
186 204 228
186 204 228
186 204 228
188 205 228
185 203 228
186 204 228
185 203 228
185 203 228
185 203 228
186 204 228
185 203 228
185 203 228
185 204 228
186 204 228
185 203 228
185 203 227
181 199 223
172 190 216
164 184 212
159 177 205
159 178 207
155 174 203
132 152 183
121 142 181
117 139 175
114 135 173
95 118 155
83 107 150
50 82 136
51 82 135
50 81 135
50 80 125
49 80 131
49 79 133
49 79 133
47 77 127
45 74 125
44 72 116
46 76 123
47 76 129
42 70 121
44 72 124
42 69 124
44 71 123
42 69 122
39 64 115
40 66 118
37 61 110
34 57 108
34 58 109
34 56 100
53 85 141
57 91 145
57 91 140
56 90 140
58 93 147
58 92 146
57 92 136
56 90 130
59 93 144
57 92 133
57 93 139
56 91 133
57 92 131
58 93 142
59 93 141
58 93 142
57 92 140
56 92 131
57 92 139
58 94 135
58 93 131
60 95 145
59 95 147
58 93 135
58 93 130
58 94 144
57 92 129
59 94 139
60 95 145
59 94 147
58 93 130
58 93 140
58 93 141
59 94 140
58 93 137
59 94 139
60 95 137
58 94 139
58 93 141
58 93 139
59 94 142
57 92 135
58 94 140
59 94 136
58 93 134
58 93 139
57 92 134
56 92 134
59 94 143
60 95 141
58 92 137
58 92 133
60 95 150
58 93 136
59 94 142
58 94 143
59 94 145
58 94 144
57 92 131
60 95 148
59 94 148
58 93 143
59 94 140
58 93 135
60 95 146
59 94 139
58 93 130
58 93 137
59 95 146
59 94 139
58 93 137
57 93 131
60 95 142
59 94 139
57 92 137
58 93 137
61 97 155
59 94 149
57 92 134
59 94 143
59 94 137
60 95 141
57 93 141
58 93 133
59 94 142
59 94 141
58 94 148
58 93 135
58 93 136
58 93 133
59 93 141
58 93 141
58 94 143
59 93 137
57 92 129
59 93 138
58 93 134
59 93 142
60 96 152
60 95 145
58 93 139
58 93 136
60 95 140
57 92 134
58 93 133
58 93 141
60 96 148
57 92 135
58 93 139
58 93 139
58 92 133
57 92 132
58 92 140
60 95 147
58 92 132
58 92 136
59 94 149
57 91 133
58 92 132
58 91 134
58 91 138
58 93 139
58 92 143
57 90 131
58 91 134
56 88 125
56 88 130
56 88 125
51 79 113
37 47 39
36 48 40
37 49 38
39 51 44
39 52 41
42 55 45
42 56 45
44 58 48
43 57 48
43 59 51
45 60 49
45 61 53
46 60 51
48 64 54
48 66 59
47 64 55
48 65 56
49 66 56
48 65 53
49 67 57
50 68 58
50 68 60
52 71 62
52 71 65
51 70 63
52 71 65
52 70 64
52 71 63
92 99 75
186 176 114
186 176 114
186 176 114
186 176 114
186 176 114
186 176 114
186 176 114
186 176 114
186 176 114
186 176 114
186 176 114
186 176 114
186 176 114
186 176 114
186 176 114
186 176 114
186 176 114
186 176 114
186 176 114
186 176 114
186 176 114
186 176 114
186 176 114
186 176 114
186 176 114
186 176 114
186 176 114
186 176 114
186 176 114
186 176 114
186 176 114
186 176 114
186 176 114
186 176 114
186 176 114
186 176 114
186 176 114
186 176 114
186 176 114
186 176 114
186 176 114
186 176 114
186 176 114
186 176 114
186 177 114
186 177 114
186 177 114
186 177 114
186 177 114
186 177 114
186 177 114
186 177 114
186 177 114
186 177 114
186 177 114
186 177 114
186 177 114
186 177 114
186 177 114
186 177 114
186 177 114
186 177 114
186 177 114
186 177 114
186 177 114
186 177 114
186 177 114
187 177 114
186 177 114
187 177 114
187 177 114
187 177 114
187 177 114
187 177 114
187 177 114
187 177 114
187 177 114
187 177 114
187 177 114
187 177 114
187 177 114
187 177 114
187 177 114
187 177 114
187 177 114
187 177 114
187 177 114
187 177 114
187 177 114
187 177 114
187 177 114
187 177 114
187 177 114
188 177 114
188 177 114
188 177 114
188 177 114
188 177 114
188 177 114
188 177 114
188 177 114
188 177 114
188 177 114
188 178 114
188 178 114
188 178 114
188 178 114
188 205 228
190 206 228
188 205 228
191 207 228
189 205 228
188 205 228
189 205 228
189 206 228
190 206 228
188 205 228
188 205 228
188 205 228
187 205 228
189 205 228
190 206 228
189 205 228
188 205 228
188 205 228
188 205 228
188 205 228
189 205 228
188 205 228
189 205 228
188 205 228
189 205 228
188 205 228
188 205 228
188 205 228
189 205 228
188 205 228
189 205 228
190 206 228
188 205 228
188 205 228
187 205 228
188 205 228
187 205 228
187 205 228
189 205 228
188 205 228
188 205 228
187 205 228
187 205 228
188 205 228
188 205 228
188 205 228
189 205 228
186 204 228
187 205 228
188 205 228
187 204 228
187 205 228
187 204 228
187 205 228
188 205 228
187 204 228
188 205 228
187 204 228
187 204 228
187 204 228
188 205 228
187 205 228
187 205 228
188 205 228
186 204 228
187 205 228
187 204 228
187 205 228
187 204 228
188 205 228
187 204 228
188 205 228
187 204 228
187 204 228
186 204 228
187 204 228
188 205 228
187 205 228
187 204 228
187 204 228
188 205 228
187 204 228
187 205 228
187 204 228
187 205 228
187 204 228
187 204 228
187 204 228
187 205 228
188 205 228
186 204 228
187 204 228
188 205 228
187 204 228
188 205 228
187 204 228
187 204 228
187 205 228
188 205 228
183 201 225
176 194 221
174 192 214
156 174 201
156 175 201
151 170 197
137 155 183
124 144 172
119 139 171
110 132 166
98 120 154
89 112 145
64 92 133
49 79 118
50 81 136
51 82 136
49 79 132
49 80 128
48 79 130
49 78 126
46 75 125
48 77 132
45 74 114
46 74 124
45 73 126
43 70 123
45 73 123
41 67 119
42 68 108
42 69 118
39 64 107
39 64 113
39 64 114
39 65 117
32 53 91
31 52 104
50 82 126
58 93 146
56 90 136
59 94 139
58 93 145
57 91 143
57 92 133
56 91 136
58 94 145
59 94 141
59 94 143
57 92 135
58 92 138
56 91 132
59 94 142
59 94 142
57 91 134
58 93 132
57 93 141
58 93 142
59 94 141
59 94 140
57 92 135
59 94 143
58 93 137
57 92 137
59 95 145
59 95 142
59 94 144
55 90 130
57 92 131
57 91 130
58 93 139
59 95 148
59 95 144
59 94 144
58 93 139
60 95 149
60 95 145
60 95 145
58 93 141
59 93 136
60 95 144
60 95 139
59 94 141
59 94 137
59 94 142
58 94 139
59 94 140
59 94 141
59 94 142
57 92 137
57 92 136
59 94 144
59 94 134
57 93 136
60 95 139
59 95 143
58 93 140
59 94 143
58 93 139
58 93 131
57 92 131
60 95 141
59 94 144
60 95 149
60 95 142
57 92 131
61 96 149
58 93 136
59 94 145
60 95 148
59 94 139
58 94 139
59 94 144
58 93 139
60 95 152
59 94 143
59 95 139
60 95 142
59 94 145
60 95 141
58 93 136
57 92 131
57 92 137
60 96 148
59 95 145
58 92 144
59 94 139
59 95 143
58 94 139
58 93 143
58 93 139
59 94 143
58 92 130
59 93 133
58 93 145
56 90 121
59 93 138
58 93 135
57 92 128
60 96 150
57 92 131
58 93 143
57 92 133
59 93 137
59 94 144
60 95 148
58 93 135
58 93 138
58 92 134
59 94 144
59 94 144
59 93 141
58 92 139
59 94 138
60 94 147
57 91 125
58 92 136
57 91 133
57 91 133
58 92 143
58 91 135
58 92 135
58 91 135
58 91 135
56 89 129
56 87 125
55 83 113
36 48 40
35 47 33
38 50 40
40 54 46
37 50 41
40 53 44
42 55 44
45 59 50
43 57 46
41 55 43
44 59 52
45 60 51
45 61 47
46 61 49
46 62 50
47 63 58
49 65 56
48 66 57
48 64 53
50 69 62
51 70 61
49 67 55
51 70 62
52 70 62
51 70 59
52 71 64
52 71 67
52 71 63
53 72 67
173 165 108
187 177 114
187 177 114
187 177 114
187 177 114
187 177 114
187 177 114
187 177 114
187 177 114
187 177 114
187 177 114
187 177 114
187 177 114
187 177 114
187 177 114
187 177 114
187 177 114
187 177 114
187 177 114
187 177 114
187 177 114
187 177 114
187 177 114
187 177 114
187 177 114
187 177 114
187 177 114
187 177 114
187 177 114
187 177 114
187 177 114
187 177 114
187 177 114
187 177 114
187 177 114
187 177 114
187 177 114
187 177 114
187 177 114
187 177 114
187 177 114
187 177 114
187 177 114
187 177 114
187 177 114
187 177 114
187 177 114
187 177 114
187 177 114
187 177 114
187 177 114
187 177 114
187 177 114
187 177 114
188 177 114
187 177 114
188 177 114
188 177 114
188 177 114
188 177 114
188 177 114
188 177 114
188 177 114
188 177 114
188 177 114
188 177 114
188 177 114
188 177 114
188 177 114
188 177 114
188 177 114
188 177 114
188 177 114
188 177 114
188 177 114
188 178 114
188 178 114
188 178 114
188 178 114
188 178 114
188 178 114
188 178 114
188 178 114
188 178 114
188 178 114
188 178 114
188 178 114
188 178 114
188 178 114
189 178 114
189 178 114
189 178 114
189 178 114
189 178 114
189 178 114
189 178 114
189 178 114
189 178 114
189 178 114
189 178 114
189 178 114
189 178 114
189 178 114
189 178 114
189 178 114
189 178 114
189 178 114
191 207 228
190 206 228
190 206 228
191 207 228
190 206 228
190 206 228
191 206 228
191 207 228
189 205 228
190 206 228
190 206 228
190 206 228
191 206 228
191 206 228
189 205 228
190 206 228
189 206 228
190 206 228
191 206 228
190 206 228
189 206 228
190 206 228
190 206 228
189 206 228
189 206 228
190 206 228
189 206 228
190 206 228
190 206 228
190 206 228
190 206 228
190 206 228
190 206 228
189 205 228
189 206 228
189 205 228
188 205 228
189 206 228
190 206 228
189 206 228
189 205 228
188 205 228
189 206 228
189 205 228
189 205 228
189 206 228
188 205 228
188 205 228
189 206 228
189 206 228
189 205 228
188 205 228
188 205 228
189 206 228
190 206 228
187 205 228
188 205 228
189 206 228
188 205 228
189 206 228
189 205 228
189 205 228
189 205 228
189 206 228
189 205 228
189 206 228
190 206 228
189 205 228
188 205 228
189 206 228
189 205 228
188 205 228
188 205 228
189 205 228
189 205 228
188 205 228
189 205 228
188 205 228
187 205 228
188 205 228
190 206 228
188 205 228
188 205 228
188 205 228
189 206 228
188 205 228
189 205 228
188 205 228
188 205 228
189 205 228
188 205 228
189 205 228
188 205 228
189 205 228
189 206 228
188 205 228
187 205 228
188 205 228
188 205 228
181 199 223
179 196 220
177 194 218
167 185 210
156 173 200
141 159 188
134 153 185
142 159 184
133 152 181
105 127 164
101 122 158
67 94 141
58 87 127
51 82 132
51 82 132
50 80 126
48 78 125
49 78 121
47 77 124
49 78 127
47 76 126
46 75 120
45 74 123
45 73 117
44 71 115
41 68 116
44 71 122
42 68 117
43 71 117
41 67 114
39 65 113
36 60 104
36 61 112
36 59 103
33 55 98
33 55 99
55 89 140
57 91 147
55 89 137
57 91 133
57 92 139
58 92 138
57 92 139
56 90 131
57 92 139
56 91 134
58 93 138
59 94 143
58 94 140
58 93 139
56 92 135
59 94 144
59 93 138
58 93 138
58 93 130
59 94 146
56 90 125
58 93 137
59 95 141
57 93 141
58 94 140
59 94 139
57 92 129
59 95 149
58 93 143
58 93 131
56 92 136
57 93 136
58 94 141
60 95 148
58 93 136
60 95 143
58 93 140
59 94 149
58 93 134
58 93 141
59 94 146
58 94 141
58 94 136
60 95 149
59 94 136
57 92 134
59 94 142
59 94 137
58 93 141
58 93 137
59 94 141
59 94 143
57 92 135
59 94 146
58 93 137
58 93 136
58 92 136
58 94 139
58 93 129
59 94 142
58 94 143
58 93 134
58 93 141
58 93 140
59 94 141
57 91 130
58 94 141
60 96 145
59 94 142
59 94 150
58 93 136
58 93 134
59 95 145
57 92 130
59 95 144
58 94 135
59 94 136
58 93 141
59 94 140
57 92 133
56 91 124
58 93 134
58 93 135
59 94 141
58 93 130
60 95 146
58 92 143
58 94 141
59 95 150
59 94 141
59 94 139
57 92 136
58 93 140
58 93 135
60 95 148
59 94 140
57 92 136
58 93 130
58 92 133
59 94 139
59 94 139
59 93 134
57 92 133
59 94 143
59 94 144
59 94 140
58 93 133
59 93 137
60 95 144
60 94 142
57 92 129
57 91 134
59 94 141
58 93 136
58 93 140
59 94 141
58 92 140
58 92 135
58 92 136
59 94 142
58 92 132
59 93 137
58 91 134
57 91 136
56 90 130
56 88 128
57 89 130
57 88 124
54 85 119
34 45 33
33 43 36
36 48 35
36 48 37
41 53 44
37 49 35
38 51 40
41 53 43
42 57 47
44 58 49
45 60 50
46 61 52
48 64 53
48 64 55
45 60 50
46 62 49
47 63 54
48 65 53
48 66 57
47 65 55
48 66 60
49 67 58
51 68 55
51 70 61
51 70 63
51 70 63
52 71 63
52 71 61
53 73 69
143 140 98
189 178 114
189 178 114
189 178 114
189 178 114
188 178 114
188 178 114
188 178 114
188 178 114
189 178 114
188 178 114
188 178 114
188 178 114
188 178 114
189 178 114
188 178 114
188 178 114
189 178 114
188 178 114
188 178 114
188 178 114
188 178 114
188 178 114
188 178 114
189 178 114
188 178 114
188 178 114
189 178 114
188 178 114
188 178 114
189 178 114
189 178 114
189 178 114
189 178 114
189 178 114
189 178 114
189 178 114
189 178 114
189 178 114
189 178 114
189 178 114
189 178 114
189 178 114
189 178 114
189 178 114
189 178 114
189 178 114
189 178 114
189 178 114
189 178 114
189 178 114
189 178 114
189 178 114
189 178 114
189 178 114
189 178 114
189 178 114
189 178 114
189 178 114
189 178 114
189 178 114
189 178 114
189 178 114
189 178 114
189 178 114
189 178 114
189 178 114
189 178 114
189 178 114
189 178 114
189 178 114
189 178 114
189 178 114
189 178 114
189 178 114
189 178 114
189 178 114
189 178 114
189 178 114
189 178 114
189 178 114
189 178 114
189 178 114
190 178 114
190 178 114
190 178 114
190 178 114
190 178 114
190 178 114
190 178 114
190 178 114
190 178 114
190 178 114
190 178 114
190 178 114
190 178 114
190 178 114
190 178 114
190 178 114
190 178 114
190 179 114
190 179 114
190 179 114
190 179 114
190 179 114
190 179 114
190 179 114
192 207 228
192 207 228
192 207 228
192 207 228
191 206 228
191 207 228
190 206 228
191 206 228
192 207 228
191 207 228
190 206 228
190 206 228
190 206 228
190 206 228
191 207 228
191 206 228
191 206 228
192 207 228
192 207 228
191 207 228
190 206 228
191 207 228
190 206 228
191 207 228
191 207 228
191 207 228
191 206 228
190 206 228
190 206 228
191 207 228
191 207 228
190 206 228
190 206 228
190 206 228
191 207 228
191 207 228
191 207 228
191 206 228
191 207 228
190 206 228
190 206 228
190 206 228
191 207 228
191 207 228
190 206 228
190 206 228
191 207 228
189 206 228
191 207 228
190 206 228
190 206 228
190 206 228
191 206 228
191 206 228
190 206 228
191 207 228
191 206 228
191 207 228
191 207 228
190 206 228
190 206 228
190 206 228
191 207 228
191 206 228
190 206 228
191 206 228
190 206 228
189 205 228
190 206 228
190 206 228
189 206 228
189 206 228
190 206 228
190 206 228
189 206 228
190 206 228
190 206 228
190 206 228
189 206 228
190 206 228
191 207 228
189 206 228
190 206 228
190 206 228
190 206 228
189 206 228
190 206 228
189 206 228
190 206 228
190 206 228
190 206 228
189 206 228
190 206 228
190 206 228
190 206 228
190 206 228
191 206 228
191 206 228
187 203 226
183 200 222
175 192 217
168 185 210
172 189 213
156 174 199
149 166 189
135 154 183
133 152 181
124 143 178
106 127 165
96 117 152
88 110 146
53 82 130
51 82 126
49 79 125
48 77 121
49 79 122
47 77 125
48 77 126
46 76 121
45 73 110
46 74 118
47 76 125
45 73 121
45 74 119
43 71 116
41 67 110
42 69 113
41 68 112
41 67 108
42 68 118
35 58 97
34 56 97
35 58 99
35 57 103
36 59 100
57 90 141
55 89 136
59 93 149
57 92 142
57 91 134
56 91 139
56 90 132
57 91 131
57 92 134
59 94 142
57 92 132
58 93 139
57 92 135
57 92 128
57 92 132
58 94 149
57 92 142
56 90 128
59 94 140
58 93 137
60 95 151
60 96 149
58 93 135
58 93 140
59 94 144
58 93 137
58 93 133
59 94 141
57 92 132
60 94 135
58 93 140
58 94 137
56 91 126
58 93 135
58 93 142
59 94 139
59 93 139
57 92 130
59 94 138
58 94 142
60 96 144
59 94 141
59 94 142
57 92 135
60 95 144
58 94 139
59 94 145
60 95 143
60 95 146
58 93 136
60 95 146
60 95 149
58 93 140
60 95 148
59 94 135
58 94 140
59 94 144
58 93 129
57 92 136
56 91 137
58 93 139
58 93 142
59 94 146
57 92 135
60 95 149
59 94 136
59 94 144
59 94 136
59 94 143
57 92 134
60 95 142
57 92 130
57 92 133
57 93 130
58 93 135
60 95 148
59 94 137
59 94 144
59 93 137
59 95 142
59 94 142
59 94 145
59 94 140
59 93 133
58 93 138
57 92 136
60 96 150
58 93 140
60 96 148
58 93 134
57 92 133
58 93 137
59 94 140
58 93 135
59 94 141
57 92 137
59 95 141
60 95 147
58 93 140
59 93 138
58 92 123
59 94 141
58 94 140
57 91 129
60 95 144
59 94 142
57 91 132
56 90 124
59 93 138
58 93 143
58 93 136
58 93 138
59 93 137
59 92 131
58 92 133
58 92 139
58 93 137
59 94 142
57 90 131
58 91 130
57 90 133
57 91 133
57 91 127
58 91 137
57 90 128
57 90 131
55 87 128
58 91 129
54 85 122
37 49 42
36 48 40
35 46 34
35 47 36
37 50 40
39 52 42
40 52 37
38 50 37
41 55 43
44 58 43
44 59 45
44 59 47
46 61 49
43 58 48
45 61 47
47 64 54
45 60 49
48 65 55
49 66 57
49 65 53
49 67 54
50 68 60
52 70 61
50 68 59
51 69 60
50 67 57
51 70 59
51 70 58
53 72 66
105 109 79
190 178 114
190 178 114
190 178 114
190 178 114
190 178 114
190 178 114
190 178 114
190 178 114
190 178 114
190 178 114
190 178 114
190 178 114
190 178 114
190 178 114
190 178 114
190 178 114
190 178 114
190 178 114
190 178 114
190 178 114
190 178 114
190 178 114
190 178 114
190 178 114
190 178 114
190 178 114
190 178 114
190 178 114
190 178 114
190 178 114
190 178 114
190 178 114
190 178 114
190 178 114
190 178 114
190 178 114
190 178 114
190 178 114
190 178 114
190 178 114
190 178 114
190 178 114
190 179 114
190 179 114
190 178 114
190 178 114
190 178 114
190 178 114
190 178 114
190 178 114
190 179 114
190 179 114
190 179 114
190 179 114
190 179 114
190 179 114
190 179 114
190 179 114
190 179 114
190 179 114
190 179 114
190 179 114
190 179 114
190 179 114
190 179 114
190 179 114
190 179 114
190 179 114
191 179 114
190 179 114
190 179 114
191 179 114
191 179 114
191 179 114
191 179 114
191 179 114
191 179 114
191 179 114
191 179 114
191 179 114
191 179 114
191 179 114
191 179 114
191 179 114
191 179 114
191 179 114
191 179 114
191 179 114
191 179 114
191 179 114
191 179 114
191 179 114
191 179 114
191 179 114
191 179 114
191 179 114
191 179 114
191 179 114
191 179 114
191 179 114
191 179 114
191 179 114
191 179 114
191 179 114
191 179 114
192 179 114
193 208 228
193 208 228
194 208 228
193 208 228
193 208 228
193 207 228
192 207 228
193 208 228
191 207 228
192 207 228
192 207 228
192 207 228
193 208 228
193 208 228
192 207 228
193 208 228
193 207 228
194 208 228
192 207 228
192 207 228
191 207 228
193 208 228
191 207 228
193 207 228
192 207 228
192 207 228
193 208 228
191 207 228
192 207 228
192 207 228
192 207 228
192 207 228
192 207 228
191 207 228
192 207 228
190 206 228
191 207 228
192 207 228
192 207 228
190 206 228
191 207 228
192 207 228
192 207 228
191 207 228
192 207 228
193 208 228
191 207 228
192 207 228
191 207 228
192 207 228
191 207 228
192 207 228
192 207 228
191 206 228
191 207 228
192 207 228
191 207 228
192 207 228
191 207 228
190 206 228
192 207 228
192 207 228
192 207 228
191 207 228
191 207 228
192 207 228
192 207 228
191 207 228
193 207 228
191 206 228
192 207 228
191 207 228
191 207 228
191 206 228
191 207 228
191 207 228
191 207 228
192 207 228
191 207 228
192 207 228
193 208 228
192 207 228
191 207 228
191 207 228
191 207 228
192 207 228
192 207 228
192 207 228
191 207 228
191 207 228
191 207 228
191 206 228
191 206 228
192 207 228
191 206 228
192 207 228
191 207 228
192 207 228
190 206 228
187 203 225
173 189 212
165 181 205
160 177 204
154 171 199
148 165 189
135 152 178
134 151 176
115 134 167
107 127 159
84 108 149
72 98 140
50 80 122
48 78 115
49 79 123
48 78 124
50 80 128
48 77 125
47 75 111
48 78 124
45 73 115
46 74 122
46 75 124
48 77 125
45 73 118
44 71 120
45 72 118
45 72 122
41 67 110
40 66 109
38 63 104
41 66 114
38 63 108
36 59 100
30 50 85
37 60 110
55 88 138
57 91 137
57 91 135
57 91 139
58 92 140
57 92 136
59 94 144
58 93 142
57 92 140
58 93 138
58 93 143
59 94 142
56 91 132
58 93 134
58 93 142
57 92 132
59 93 139
57 91 133
58 93 142
59 94 139
57 91 130
59 95 141
57 92 133
60 95 146
57 92 130
57 92 139
58 93 130
57 91 135
59 93 145
58 94 142
58 94 141
57 92 137
58 93 142
57 92 125
59 94 141
58 93 133
57 93 132
57 92 133
59 93 136
58 93 134
60 94 140
57 92 128
59 94 137
58 93 139
59 94 142
57 92 135
57 92 128
60 95 145
58 94 137
59 94 136
59 93 141
58 93 143
59 94 143
60 95 148
59 95 148
59 94 139
60 95 145
58 93 136
58 94 140
59 94 140
56 91 131
59 94 149
59 95 142
58 94 141
57 92 133
59 95 145
59 94 142
58 93 137
58 93 135
60 96 149
58 93 137
60 95 142
56 91 124
59 95 146
59 94 143
58 93 140
59 95 141
57 93 131
58 93 132
59 95 145
58 93 139
58 94 135
57 92 129
57 92 125
57 91 133
59 94 137
58 93 132
58 93 135
58 92 139
60 95 147
57 92 135
59 94 142
57 92 133
59 94 144
59 94 138
58 92 128
59 94 136
58 93 134
59 94 141
59 94 140
57 92 128
59 94 142
58 92 137
56 91 128
60 95 146
58 93 136
57 92 129
57 92 131
57 91 138
58 92 134
59 94 144
58 93 139
60 94 137
58 93 134
58 92 137
58 93 135
58 92 137
57 91 134
60 95 152
59 93 143
56 89 124
58 92 138
58 92 138
57 90 131
57 90 126
57 91 135
58 91 133
56 88 129
55 87 122
37 51 54
32 42 32
35 45 33
37 49 39
40 53 39
42 55 45
41 54 40
39 52 38
40 53 40
43 57 45
42 55 46
45 60 49
43 57 46
47 62 50
44 60 46
47 62 53
48 65 54
48 65 54
48 66 54
49 66 59
49 65 57
48 65 49
50 68 56
51 70 62
50 69 59
50 69 58
52 72 61
53 72 64
52 72 60
58 75 66
191 179 114
191 179 114
191 179 114
191 179 114
191 179 114
191 179 114
191 179 114
191 179 114
191 179 114
191 179 114
191 179 114
191 179 114
191 179 114
191 179 114
191 179 114
191 179 114
191 179 114
191 179 114
191 179 114
191 179 114
191 179 114
191 179 114
191 179 114
191 179 114
191 179 114
191 179 114
191 179 114
191 179 114
191 179 114
191 179 114
191 179 114
191 179 114
191 179 114
191 179 114
191 179 114
191 179 114
191 179 114
191 179 114
191 179 114
191 179 114
191 179 114
191 179 114
191 179 114
191 179 114
191 179 114
191 179 114
191 179 114
192 179 114
191 179 114
192 179 114
192 179 114
192 179 114
192 179 114
192 179 114
192 179 114
192 179 114
192 179 114
192 179 114
192 179 114
192 179 114
192 179 114
192 179 114
192 179 114
192 179 114
192 179 114
192 179 114
192 179 114
192 179 114
192 179 114
192 179 114
192 179 114
192 179 114
192 179 114
192 179 114
192 179 114
192 179 114
192 179 114
192 179 114
192 179 114
192 179 114
192 179 114
192 179 114
192 179 114
192 179 114
192 179 114
192 179 114
192 179 114
192 179 114
192 180 114
192 180 114
192 180 114
192 180 114
192 180 114
192 180 114
192 180 114
192 180 114
192 180 114
192 180 114
192 180 114
192 180 114
192 180 114
192 180 114
193 180 114
193 180 114
193 180 114
193 180 114
194 208 228
193 208 228
195 209 228
193 208 228
193 208 228
194 208 228
194 208 228
195 209 228
193 208 228
193 208 228
194 208 228
195 209 228
193 208 228
194 208 228
193 208 228
193 208 228
194 208 228
194 208 228
194 209 228
194 208 228
193 208 228
192 207 228
193 208 228
193 208 228
193 208 228
194 208 228
194 208 228
193 208 228
193 208 228
193 208 228
193 208 228
194 208 228
193 208 228
193 208 228
193 208 228
193 208 228
192 207 228
193 208 228
194 208 228
194 208 228
193 208 228
193 208 228
193 208 228
193 208 228
192 207 228
193 208 228
193 208 228
193 208 228
193 208 228
192 207 228
193 208 228
193 207 227
193 208 228
192 207 227
193 208 228
192 207 228
192 207 228
192 207 227
193 208 228
193 208 228
192 207 228
194 208 228
192 207 227
193 208 228
193 208 228
192 207 228
191 207 227
194 208 228
193 207 227
193 208 228
190 206 226
192 207 228
193 208 228
192 207 228
193 208 228
193 207 227
192 207 226
190 206 223
192 207 226
193 207 227
191 207 227
192 207 225
192 207 228
191 206 226
191 206 222
191 206 226
191 206 225
191 207 227
189 205 221
191 206 225
192 207 227
190 206 223
190 206 221
191 206 225
192 207 223
192 207 226
188 205 221
188 204 219
192 207 226
178 194 211
174 190 208
164 181 199
164 181 204
152 169 187
146 164 192
134 151 179
132 150 174
125 144 173
103 124 158
93 115 155
60 88 132
54 83 131
51 82 131
48 78 117
49 79 116
49 79 121
48 78 126
50 80 128
46 74 114
48 76 120
46 75 118
44 71 114
42 70 110
44 72 118
41 68 106
41 68 109
40 65 110
42 68 108
38 62 101
40 66 111
38 63 101
39 65 116
34 56 97
31 52 91
36 59 98
55 88 123
56 90 134
55 89 126
56 91 137
57 92 137
57 91 136
58 93 141
56 90 131
59 94 141
55 89 127
57 91 128
57 91 133
56 91 126
57 92 130
58 93 134
58 92 137
59 95 145
57 92 134
57 92 135
57 92 133
58 92 138
59 94 140
58 93 129
56 91 130
58 93 139
58 92 138
57 92 134
59 94 137
58 93 140
60 94 136
59 94 143
59 93 133
58 93 133
59 94 134
58 93 137
60 95 146
56 90 132
58 93 133
59 94 136
58 93 129
58 93 135
59 95 141
59 94 145
59 95 146
58 93 133
58 93 140
59 94 141
56 91 125
57 92 135
57 91 134
57 92 134
59 94 139
58 94 134
58 93 142
59 94 140
57 92 140
60 95 146
56 90 129
59 94 135
61 96 150
58 93 131
60 95 140
59 94 140
59 94 137
56 91 124
58 94 139
57 92 122
59 94 142
59 94 135
60 96 149
59 94 136
58 93 130
58 93 135
58 93 131
59 94 141
58 94 141
60 96 150
56 91 133
58 94 140
57 92 129
58 94 139
58 93 137
58 94 142
59 94 137
59 94 135
60 95 142
59 95 140
58 93 135
59 94 142
59 93 139
59 94 135
58 93 135
58 92 136
58 93 136
57 91 129
58 93 140
59 95 145
58 93 134
58 93 136
58 93 131
60 95 145
59 94 136
61 96 151
58 93 136
59 95 140
58 92 131
59 94 139
59 93 136
58 92 135
59 94 146
58 93 142
58 93 137
58 92 129
57 91 130
59 92 131
58 92 134
57 92 134
59 95 141
58 92 140
57 91 127
58 92 136
57 91 133
58 92 132
57 90 137
55 88 123
57 90 126
55 87 116
57 89 132
56 87 135
39 56 61
33 43 32
37 47 35
38 50 40
36 49 37
39 51 37
39 51 36
42 56 45
41 55 45
41 54 42
44 58 46
46 61 49
43 58 43
46 60 46
47 63 51
46 60 46
46 62 50
48 66 53
47 63 51
49 66 53
48 66 54
48 66 54
49 67 55
52 69 57
52 70 61
50 69 57
51 69 58
51 69 55
53 72 62
51 71 60
187 175 112
193 180 114
193 180 114
193 180 114
193 180 114
193 180 114
193 180 114
193 180 114
193 180 114
193 180 114
193 180 114
193 180 114
193 180 114
193 180 114
193 180 114
193 180 114
193 180 114
193 180 114
193 180 114
193 180 114
193 180 114
193 180 114
193 180 114
193 180 114
193 180 114
193 180 114
193 180 114
193 180 114
193 180 114
193 180 114
193 180 114
193 180 114
193 180 114
193 180 114
193 180 114
193 180 114
193 180 114
193 180 114
193 180 114
193 180 114
193 180 114
193 180 114
193 180 114
193 180 114
193 180 114
193 180 114
193 180 114
193 180 114
193 180 114
193 180 114
193 180 114
193 180 114
193 180 114
193 180 114
193 180 114
193 180 114
193 180 114
193 180 114
193 180 114
193 180 114
193 180 114
193 180 114
193 180 114
193 180 114
193 180 114
193 180 114
193 180 114
193 180 114
193 180 114
193 180 114
193 180 114
193 180 114
193 180 114
193 180 114
193 180 114
193 180 114
193 180 114
193 180 114
193 180 114
193 180 114
193 180 114
193 180 114
193 180 114
193 180 114
193 180 114
193 180 114
193 180 114
193 180 114
193 180 114
193 180 114
193 180 114
193 180 114
193 180 114
193 180 114
193 180 114
193 180 114
193 180 114
194 180 114
194 180 114
194 180 114
194 180 114
194 180 114
194 180 114
194 180 114
194 180 114
194 180 114
196 209 228
195 209 228
194 208 228
193 208 226
196 209 228
194 208 227
194 208 228
195 209 227
195 209 228
195 209 227
195 209 228
195 209 228
194 208 227
195 209 227
193 208 226
194 208 227
194 208 228
194 208 228
194 208 228
193 207 223
194 208 228
194 209 228
194 208 227
193 208 227
193 208 226
195 209 227
194 208 227
194 208 227
194 208 227
192 207 221
192 207 225
194 208 226
193 207 225
194 208 226
193 208 225
193 208 227
194 208 226
195 209 227
191 207 225
192 207 222
192 206 222
194 208 225
192 207 222
192 207 225
193 208 226
193 207 226
193 208 226
193 208 226
193 208 225
192 207 225
191 206 223
191 206 222
192 207 223
191 206 221
193 207 226
192 207 226
191 206 219
190 205 218
192 207 222
191 206 222
192 206 222
191 206 222
190 205 218
192 207 222
192 207 225
189 205 216
190 206 223
191 206 222
189 205 216
189 204 218
191 205 218
191 205 218
190 206 221
190 205 220
190 205 218
189 205 218
190 205 220
192 207 223
189 204 215
190 205 219
190 206 221
189 205 215
190 205 216
186 202 209
190 205 219
191 206 222
189 205 218
186 202 209
190 205 220
191 206 221
189 204 216
190 205 215
188 204 215
188 204 214
189 205 218
190 205 218
189 205 218
189 205 219
187 203 215
178 195 202
169 186 194
169 185 190
161 179 191
151 169 182
148 165 187
135 152 170
118 136 156
105 125 155
94 115 145
97 117 145
70 94 129
50 80 123
50 80 125
49 79 123
49 79 120
49 78 118
50 81 130
47 76 116
46 75 117
47 76 120
43 70 108
47 75 116
43 70 105
43 70 112
42 69 105
43 69 113
42 68 111
41 67 109
40 65 103
38 62 108
34 56 95
34 56 93
34 56 96
30 51 86
35 59 94
53 87 127
56 90 142
58 92 137
57 91 138
58 93 142
55 89 128
58 92 136
58 93 133
59 94 144
58 93 138
57 93 138
58 92 142
57 91 124
57 91 131
58 93 133
58 92 139
57 92 130
59 94 142
59 94 145
57 92 134
58 94 141
59 93 140
57 92 129
58 92 137
60 95 139
58 93 139
58 92 131
59 93 135
58 93 144
58 94 136
58 93 135
60 95 140
58 93 134
59 94 141
58 93 134
59 94 138
56 91 134
58 93 135
57 92 125
58 93 135
59 94 146
56 89 121
60 95 147
58 93 133
60 95 145
59 94 143
58 93 134
57 92 134
59 94 140
58 93 129
58 94 140
58 93 139
59 94 135
57 92 136
58 94 137
59 94 135
56 91 129
58 93 137
59 94 130
58 94 139
59 94 140
58 93 135
58 94 140
59 95 141
60 95 140
59 94 137
58 93 135
60 95 139
58 92 137
58 92 126
60 94 140
59 95 142
59 93 135
58 93 137
58 93 137
58 92 131
59 94 140
59 94 139
57 92 131
59 94 140
60 95 150
58 93 126
56 91 124
59 95 139
58 93 131
58 93 133
59 94 143
59 94 141
59 93 130
58 93 143
57 92 129
58 92 134
57 92 134
58 92 138
58 93 136
59 94 141
59 94 144
59 94 141
57 91 120
58 93 134
58 93 140
60 95 149
57 92 130
57 92 129
57 91 133
58 92 136
58 92 128
59 94 141
58 93 135
58 93 132
59 93 133
58 93 142
57 92 136
59 93 139
59 92 132
59 93 133
57 92 132
57 92 133
56 90 128
59 93 142
57 91 129
56 89 130
58 91 138
58 92 137
59 92 137
56 89 123
58 90 137
55 86 120
54 84 105
34 49 53
34 44 35
32 43 34
35 46 33
36 47 32
42 56 44
39 51 39
41 55 40
42 56 43
45 59 46
43 57 37
43 58 47
46 60 49
45 59 47
46 61 48
46 61 50
48 64 52
47 62 48
47 64 55
47 63 52
48 64 53
50 67 58
52 69 59
50 67 53
50 68 57
49 68 59
49 66 53
52 71 61
51 71 62
51 71 60
169 160 104
194 180 114
194 180 114
194 180 114
194 180 114
194 180 114
194 180 114
194 180 114
194 180 114
194 180 114
194 180 114
194 180 114
194 180 114
194 180 114
194 180 114
194 180 114
194 180 114
194 180 114
194 180 114
194 180 114
194 180 114
194 180 114
194 180 114
194 180 114
194 180 114
194 180 114
194 180 114
194 180 114
194 180 114
194 180 114
194 180 114
194 180 114
194 180 114
194 180 114
194 180 114
194 180 114
194 180 114
194 180 114
194 180 114
194 180 114
194 180 114
194 180 114
194 180 114
194 180 114
194 180 114
194 180 114
194 180 114
194 180 114
194 180 114
194 180 114
194 181 114
194 180 114
194 180 114
194 181 114
194 180 114
194 180 114
194 181 114
194 181 114
194 181 114
194 181 114
194 181 114
194 181 114
194 181 114
194 181 114
194 181 114
194 181 114
194 181 114
194 181 114
194 181 114
194 181 114
194 181 114
194 181 114
194 181 114
194 181 114
194 181 114
194 181 114
194 181 114
194 181 114
194 181 114
194 181 114
194 181 114
194 181 114
194 181 114
194 181 114
194 181 114
195 181 114
194 181 114
195 181 114
195 181 114
195 181 114
195 181 114
195 181 114
195 181 114
195 181 114
195 181 114
195 181 114
195 181 114
195 181 114
195 181 114
195 181 114
195 181 114
195 181 114
195 181 114
195 181 114
195 181 114
195 181 114
195 208 222
195 209 226
192 207 221
193 207 221
192 207 220
195 209 227
194 208 223
195 209 226
194 208 221
193 207 226
192 206 220
192 206 220
191 206 219
191 206 218
194 208 221
192 206 220
191 206 216
193 207 220
194 208 225
193 207 221
194 208 225
191 206 220
191 206 218
193 207 220
191 205 215
191 206 219
189 204 214
193 207 219
191 206 219
192 207 221
191 206 218
192 207 220
190 205 215
190 205 214
192 207 222
190 205 218
193 207 222
193 208 225
190 205 216
192 207 220
192 207 222
189 204 214
190 205 215
187 203 212
190 205 218
189 204 214
189 204 212
190 205 218
190 205 215
191 206 219
191 206 220
191 206 219
188 204 212
190 205 216
189 205 215
187 203 210
188 204 213
186 202 207
188 203 210
190 205 215
189 204 213
187 203 210
189 204 214
187 203 212
186 202 207
190 205 215
187 203 213
186 202 207
189 204 213
188 203 210
190 205 216
189 205 215
187 203 210
186 202 208
187 203 210
185 202 208
186 202 208
189 204 212
184 201 207
190 205 213
188 203 210
189 205 216
188 203 207
190 205 219
189 204 214
189 204 210
186 202 205
188 203 213
184 201 203
190 205 218
183 200 201
184 200 204
185 201 205
186 202 204
183 200 201
186 202 207
188 203 212
184 201 204
183 200 203
180 197 202
171 187 191
167 184 191
153 171 177
151 169 177
136 154 169
141 158 166
126 145 161
134 151 169
78 102 138
88 110 143
58 84 118
50 80 124
47 77 114
50 80 128
47 75 115
47 77 112
48 78 118
46 75 113
45 73 111
47 75 120
45 73 114
44 71 114
44 71 114
44 72 108
42 68 110
43 70 109
41 67 109
39 65 100
37 62 94
39 64 102
38 62 95
34 57 94
39 64 103
32 54 88
41 67 110
57 90 142
55 89 127
57 90 132
56 90 131
57 92 135
57 92 137
57 91 131
54 89 124
58 93 139
57 92 132
58 93 136
57 91 133
57 91 127
57 91 136
59 93 141
59 94 139
57 91 132
57 93 133
58 93 136
58 92 140
56 91 131
55 90 121
58 93 141
60 95 139
57 92 139
58 92 133
56 91 128
57 92 138
58 93 134
57 91 135
58 93 140
58 93 136
60 95 143
58 93 137
58 93 139
57 92 130
59 94 142
59 95 143
57 92 134
59 94 140
58 94 136
60 95 139
58 93 134
56 91 133
58 93 129
59 94 141
59 95 139
59 94 136
59 94 140
58 93 139
58 92 139
57 93 140
59 94 145
59 94 139
59 95 139
58 93 134
59 95 144
57 93 140
58 93 137
60 96 150
57 92 128
59 94 134
60 95 143
57 92 129
58 93 139
60 95 143
58 93 133
58 94 140
57 92 129
60 95 146
57 93 134
58 94 135
59 94 137
60 95 139
59 94 139
59 94 140
60 95 140
59 94 139
59 94 137
58 93 134
59 94 140
57 92 135
57 92 139
58 93 137
59 94 136
58 92 134
61 96 148
58 93 135
58 93 135
58 93 134
59 93 136
58 93 136
59 93 139
57 91 134
58 93 135
58 92 133
58 93 134
58 92 137
58 93 133
58 93 129
58 93 126
59 94 139
58 93 130
60 94 142
58 93 134
58 92 129
59 95 143
57 91 129
57 92 125
57 92 127
58 92 126
57 91 133
58 92 135
57 91 126
58 91 130
60 94 142
59 94 142
57 92 138
58 92 141
56 89 127
58 91 131
59 93 135
59 92 129
57 88 123
57 90 125
57 90 132
55 88 125
56 87 122
55 85 117
39 57 69
31 40 25
34 44 33
35 45 31
38 49 33
37 49 35
41 54 40
38 49 32
42 55 40
42 55 40
43 56 42
38 51 37
45 60 46
46 61 48
45 61 49
46 60 46
46 62 48
48 64 48
48 65 53
49 65 50
47 64 49
47 64 53
49 67 55
46 64 46
48 66 54
50 69 58
50 68 53
53 71 61
50 70 56
53 72 64
161 153 97
195 181 114
196 181 114
195 181 114
195 181 114
196 181 114
195 181 114
195 181 114
195 181 114
195 181 114
195 181 114
195 181 114
195 181 114
196 181 114
195 181 114
195 181 114
195 181 114
196 181 114
195 181 114
195 181 114
196 181 114
195 181 114
195 181 114
195 181 114
195 181 114
195 181 114
196 181 114
195 181 114
196 181 114
195 181 114
195 181 114
195 181 114
196 181 114
196 181 114
196 181 114
196 181 114
195 181 114
196 181 114
195 181 114
195 181 114
196 181 114
196 181 114
196 181 114
196 181 114
196 181 114
196 181 114
195 181 114
195 181 114
195 181 114
196 181 114
196 181 114
196 181 114
196 181 114
196 181 114
196 181 114
196 181 114
196 181 114
196 181 114
196 181 114
196 181 114
196 181 114
196 181 114
196 181 114
196 181 114
196 181 114
196 181 114
196 181 114
196 181 114
196 181 114
196 181 114
196 181 114
196 181 114
196 181 114
196 181 114
196 181 114
196 181 114
196 181 114
196 181 114
196 181 114
196 181 114
196 181 114
196 181 114
196 181 114
196 181 114
196 181 114
196 181 114
196 181 114
196 181 114
196 181 114
196 181 114
196 181 114
196 181 114
196 181 114
196 181 114
196 181 114
196 181 114
196 181 114
196 181 114
196 181 114
196 181 114
196 181 114
196 181 114
196 181 114
196 181 114
196 181 114
196 181 114
192 206 218
191 206 218
191 206 215
192 206 216
192 206 218
193 207 219
192 206 216
192 206 215
190 205 216
190 205 214
192 206 215
194 208 222
189 205 214
191 206 214
189 204 212
189 204 212
190 205 214
189 204 207
189 204 213
192 206 218
186 202 201
192 206 218
190 204 210
189 204 212
189 204 213
186 202 204
186 202 207
185 201 203
190 204 212
189 204 207
187 203 209
191 205 212
188 203 210
186 202 205
189 204 214
188 203 209
188 203 209
191 206 218
187 202 204
190 205 216
189 204 209
191 205 214
191 206 219
186 202 205
187 203 207
187 203 209
192 206 215
188 203 207
189 204 213
187 203 209
188 203 208
188 204 213
187 202 204
182 199 195
190 204 209
185 201 200
187 203 209
185 201 200
185 201 200
184 201 201
186 202 203
187 202 208
185 201 205
186 202 205
187 203 209
185 201 203
184 200 198
186 202 207
186 202 208
185 201 203
184 200 198
186 201 203
187 203 209
183 200 199
184 201 204
185 201 204
186 202 205
187 203 207
183 200 203
183 200 198
187 203 208
184 200 201
186 202 205
184 200 196
182 199 196
184 200 199
180 197 188
185 202 204
183 200 198
186 202 204
183 199 196
181 198 192
179 196 185
189 204 209
184 201 203
186 202 204
185 201 204
177 195 185
179 197 196
178 194 188
167 184 185
162 179 181
150 168 170
139 158 161
137 154 164
121 141 162
112 132 149
106 126 144
85 108 134
77 101 135
63 89 126
49 79 116
51 82 121
48 78 118
49 78 114
48 77 111
48 77 115
45 74 99
45 73 115
45 73 112
47 75 120
45 72 109
45 74 110
44 71 103
43 70 107
43 70 105
39 63 100
41 67 103
38 62 98
42 68 108
37 60 91
36 60 97
35 58 93
27 45 71
38 62 90
56 90 132
56 89 134
56 90 123
54 87 114
58 92 131
57 91 128
57 92 132
55 89 132
57 91 131
54 88 115
56 91 131
58 92 132
59 94 143
58 92 141
57 92 133
58 93 142
58 92 136
57 92 135
57 91 132
58 93 133
58 92 130
58 93 133
57 91 126
59 94 143
57 92 130
60 94 138
58 93 126
57 92 130
59 94 140
58 92 130
59 94 136
58 92 132
59 94 137
55 90 128
57 92 136
57 92 130
60 95 141
59 94 137
58 93 129
58 92 129
57 91 128
56 90 125
57 93 133
60 95 146
57 92 133
58 92 133
60 95 143
56 91 129
57 92 126
57 91 126
57 92 125
59 94 134
58 93 133
59 94 140
59 94 140
58 94 139
59 95 144
58 93 142
57 92 122
58 93 135
57 92 134
58 94 141
60 95 148
59 94 139
55 90 115
59 94 139
59 94 141
59 94 134
57 91 130
57 92 128
58 93 135
58 93 125
60 95 146
59 94 144
57 92 133
60 95 143
59 94 139
59 93 135
57 92 133
58 93 136
57 92 129
57 92 129
56 91 126
59 94 136
59 94 141
58 93 137
58 93 128
60 95 144
58 92 136
57 92 135
58 93 135
59 94 140
58 94 141
59 94 141
58 93 134
57 92 124
58 92 132
57 91 131
58 93 140
59 94 141
59 93 140
59 94 139
60 94 141
57 92 134
57 91 130
59 94 142
58 93 129
57 92 135
59 95 146
59 93 136
58 91 137
57 91 130
57 92 128
58 92 132
59 92 132
58 91 134
57 91 127
57 91 126
56 89 125
57 89 120
56 89 123
57 91 133
57 91 125
58 92 143
57 90 128
57 89 125
56 88 126
54 85 114
52 83 116
41 60 69
34 43 32
36 46 34
35 46 34
36 47 36
37 48 34
39 51 38
41 55 42
38 50 34
42 55 38
44 57 45
45 60 49
44 59 46
45 60 48
47 62 48
47 62 50
47 63 49
47 63 49
47 64 52
47 63 48
48 65 53
49 65 51
49 68 56
47 65 51
50 69 59
50 68 55
51 69 56
52 71 59
51 70 59
53 73 62
158 150 97
197 182 114
197 182 114
197 182 114
197 182 114
197 182 114
197 182 114
197 182 114
197 182 114
197 182 114
197 182 114
197 182 114
197 182 114
197 182 114
197 182 114
197 182 114
197 182 114
197 182 114
197 182 114
197 182 114
197 182 114
197 182 114
197 182 114
197 182 114
197 182 114
197 182 114
197 182 114
197 182 114
197 182 114
197 182 114
197 182 114
197 182 114
197 182 114
197 182 114
197 182 114
197 182 114
197 182 114
197 182 114
197 182 114
197 182 114
197 182 114
197 182 114
197 182 114
197 182 114
197 182 114
197 182 114
197 182 114
197 182 114
197 182 114
197 182 114
197 182 114
197 182 114
197 182 114
197 182 114
197 182 114
197 182 114
197 182 114
197 182 114
197 182 114
197 182 114
197 182 114
197 182 114
197 182 114
197 182 114
197 182 114
197 182 114
197 182 114
197 182 114
197 182 114
197 182 114
197 182 114
197 182 114
197 182 114
197 182 114
197 182 114
197 182 114
197 182 114
197 182 114
197 182 114
197 182 114
197 182 114
197 182 114
197 182 114
197 182 114
197 182 114
197 182 114
197 182 114
197 182 114
197 182 114
197 182 114
197 182 114
197 182 114
197 182 114
197 182 114
197 182 114
197 182 114
197 182 114
197 182 114
197 182 114
197 182 114
197 182 114
197 182 114
197 182 114
197 182 114
197 182 114
197 182 114
189 204 209
189 204 207
192 206 212
189 204 207
189 204 208
185 201 200
190 205 212
192 206 214
189 203 205
186 202 203
187 202 205
190 204 208
187 202 203
181 198 189
189 204 207
188 203 208
188 203 204
189 204 210
188 203 209
188 203 209
187 202 201
182 199 195
187 202 205
186 201 200
187 202 203
188 203 207
188 203 205
188 203 205
189 204 213
189 204 207
183 199 191
187 202 204
184 200 199
190 205 209
185 201 204
186 202 203
188 203 208
188 203 208
188 203 201
186 202 205
186 201 200
182 199 195
187 202 204
185 201 200
182 199 195
184 200 194
184 200 196
185 200 196
182 198 191
184 200 195
185 201 200
185 201 198
185 201 200
181 198 192
185 201 199
185 201 201
185 200 194
186 201 201
186 202 204
180 197 185
183 199 195
179 197 187
183 199 194
184 200 198
181 198 189
187 202 203
188 203 205
176 194 175
179 197 182
180 197 187
181 198 185
183 200 194
183 200 198
181 198 189
181 198 189
186 201 201
180 197 188
182 199 191
182 199 195
179 197 187
179 196 185
181 198 188
181 198 188
180 196 184
181 198 194
180 198 189
183 199 194
181 198 194
179 196 184
180 197 189
177 195 182
182 198 188
180 197 185
183 199 195
177 195 181
178 196 184
182 199 194
179 197 188
178 196 185
173 190 190
165 183 166
158 175 176
156 173 175
143 161 165
127 147 142
136 154 162
106 126 141
98 120 132
91 113 139
71 96 124
62 88 120
51 82 120
48 78 119
48 77 112
48 77 118
47 75 115
46 75 104
46 75 112
46 75 110
46 74 107
45 73 107
44 72 112
45 72 104
42 68 102
41 69 106
40 65 101
41 67 103
42 69 111
39 64 95
39 63 100
36 60 90
32 54 79
31 51 79
34 56 90
38 62 97
57 90 134
56 90 127
57 91 137
57 92 137
55 90 124
56 90 132
57 91 140
57 91 133
58 92 136
56 90 123
58 93 139
57 92 134
57 93 134
58 92 132
58 93 133
57 92 137
57 92 131
57 91 121
60 95 143
57 92 137
56 91 118
57 92 136
57 91 125
58 93 138
59 94 146
56 90 128
57 92 130
60 95 139
56 91 121
59 95 143
57 91 125
58 93 139
57 92 127
61 96 141
59 94 137
56 92 132
57 92 131
58 92 125
58 93 131
57 92 134
59 94 136
57 92 129
58 93 129
59 94 137
58 93 130
57 93 131
57 92 131
58 93 130
60 95 141
57 91 131
56 91 125
57 91 128
57 92 129
59 94 136
58 93 134
59 94 137
58 93 133
56 91 128
60 95 139
59 94 139
57 92 125
58 94 141
61 96 144
58 94 143
59 94 141
60 94 145
59 94 140
57 92 129
57 91 130
58 92 129
58 93 135
58 93 137
59 94 134
58 93 134
57 92 134
57 92 128
57 91 130
56 91 121
57 92 134
57 92 129
57 91 132
58 93 133
58 93 128
60 95 150
59 93 140
58 93 133
60 96 148
56 91 126
58 93 139
58 93 133
60 95 139
61 96 150
59 93 136
56 91 123
57 91 122
58 92 132
57 93 130
58 92 134
56 90 124
56 91 131
57 92 124
58 92 136
59 94 137
58 93 131
56 91 129
57 91 125
59 94 142
58 93 139
57 92 133
58 92 133
56 90 123
57 91 128
58 92 126
59 93 140
58 92 124
59 93 130
57 91 128
57 91 129
56 90 123
59 93 140
58 91 125
59 92 141
56 89 122
56 89 127
58 91 136
57 89 123
58 92 129
55 86 124
55 87 117
39 57 63
33 44 32
32 41 27
32 42 27
38 49 36
38 50 34
37 49 33
37 48 36
40 52 36
41 54 41
41 55 40
45 59 41
42 56 42
45 60 46
46 59 46
46 61 47
45 60 47
47 62 48
47 63 46
48 65 52
50 67 54
47 63 52
49 67 53
50 67 52
50 67 54
49 67 52
51 70 55
50 68 56
50 69 56
51 70 57
168 157 100
198 182 114
198 182 114
198 182 114
198 182 114
198 182 114
198 182 114
198 182 114
198 182 114
198 182 114
198 182 114
198 182 114
198 182 114
198 182 114
198 182 114
198 182 114
198 182 114
198 182 114
198 182 114
198 182 114
198 182 114
198 182 114
198 182 114
198 182 114
198 182 114
198 182 114
198 182 114
198 182 114
198 182 114
198 182 114
198 182 114
198 182 114
198 182 114
198 182 114
198 182 114
198 182 114
198 182 114
198 182 114
198 182 114
198 182 114
198 182 114
198 182 114
198 182 114
198 182 114
198 182 114
198 182 114
198 182 114
198 182 114
198 182 114
198 182 114
198 182 114
198 182 114
198 182 114
198 182 114
198 182 114
198 182 114
198 182 114
198 182 114
198 182 114
198 182 114
198 182 114
198 182 114
198 182 114
198 182 114
198 182 114
198 182 114
198 182 114
198 182 114
198 182 114
198 182 114
198 182 114
198 182 114
198 182 114
198 182 114
198 182 114
198 182 114
198 182 114
198 182 114
198 182 114
198 182 114
198 182 114
198 182 114
198 182 114
198 182 114
198 182 114
198 182 114
198 182 114
198 182 114
198 182 114
198 182 114
198 182 114
198 182 114
198 182 114
198 182 114
198 182 114
198 182 114
198 182 114
198 182 114
198 182 114
198 182 114
198 182 114
198 182 114
198 182 114
198 182 114
198 182 114
198 182 114
185 200 194
187 202 201
185 201 196
186 201 198
187 203 203
188 203 203
187 202 201
189 203 205
190 204 210
186 201 200
187 202 199
182 198 191
189 204 205
187 202 200
187 202 203
184 200 198
183 199 189
185 201 198
183 199 195
187 202 200
185 201 200
187 202 199
185 200 192
180 197 187
185 200 195
183 199 189
182 199 192
181 198 189
185 200 195
183 199 192
186 202 203
186 201 196
186 201 199
181 197 184
182 199 189
183 199 191
182 198 189
181 198 191
185 201 200
188 203 201
185 201 198
179 196 184
180 197 182
180 196 185
182 199 191
183 199 194
179 197 187
180 198 191
185 201 196
183 199 192
182 198 188
184 200 194
175 194 174
185 201 200
180 197 184
180 197 184
181 198 189
183 199 192
181 198 188
184 200 199
180 197 187
185 201 198
182 198 184
184 200 195
183 199 191
184 201 199
180 197 184
179 196 184
178 195 177
182 199 189
178 196 181
180 197 182
180 197 188
179 195 181
179 197 187
182 198 189
181 198 188
178 196 178
179 196 182
173 192 169
178 196 182
178 195 177
177 195 177
179 196 184
177 195 180
180 197 188
180 197 184
177 194 172
182 198 187
182 199 191
176 194 172
180 197 187
178 195 181
180 197 188
178 195 181
181 197 188
180 198 189
179 196 181
180 196 194
157 177 150
156 176 154
153 171 161
149 168 155
139 158 159
148 166 168
127 146 145
111 131 147
104 124 142
91 112 128
79 102 121
66 93 119
50 80 118
49 78 113
48 78 111
48 76 118
48 77 113
47 76 112
48 77 110
42 69 96
44 71 100
44 71 105
41 67 97
42 68 94
41 66 93
43 70 107
41 67 101
41 67 101
40 64 99
37 61 89
39 63 99
35 57 87
34 56 90
30 50 84
32 54 83
34 55 92
55 88 131
54 87 121
56 89 131
58 92 139
58 92 133
58 93 143
58 92 139
56 91 125
58 92 137
57 91 123
56 91 131
58 92 135
56 91 131
58 92 130
58 93 135
57 91 131
59 93 139
58 93 134
58 93 142
58 93 133
56 91 127
58 92 136
58 93 141
56 90 123
59 93 138
57 92 133
58 93 136
59 94 140
58 93 140
59 94 139
57 91 123
57 92 129
56 91 131
57 92 133
57 92 140
59 93 140
57 92 130
58 93 136
59 94 140
58 94 145
59 94 141
59 94 145
57 92 135
58 92 125
60 96 144
57 92 130
60 95 142
57 91 126
58 93 129
60 95 150
58 93 131
60 95 149
59 93 137
58 93 134
58 93 136
55 90 125
58 93 134
57 92 129
61 96 148
58 93 133
59 93 135
59 94 139
57 92 135
58 93 137
57 92 131
57 92 129
59 94 141
56 91 126
57 92 133
59 94 139
57 92 121
59 94 139
60 96 143
58 93 140
57 92 130
58 93 131
58 93 135
58 93 136
57 92 128
59 94 136
57 93 130
57 90 126
59 94 137
58 93 136
57 91 124
59 94 136
58 93 137
59 94 140
57 92 134
58 92 129
59 93 135
59 94 136
59 94 141
58 93 137
59 94 135
58 93 133
60 95 141
58 93 139
58 93 139
57 92 129
58 93 139
60 94 142
57 91 128
59 94 138
58 92 131
58 93 138
58 92 126
59 94 143
59 93 138
58 92 135
56 91 131
59 93 131
57 91 127
58 92 140
56 90 126
56 90 124
57 91 129
57 90 129
57 90 123
56 89 122
58 90 129
55 88 123
58 91 141
55 87 120
56 89 124
58 91 142
56 88 120
55 86 120
54 85 115
38 55 61
31 39 27
30 39 27
35 45 30
33 44 31
38 50 38
36 47 33
36 46 26
42 55 42
41 54 40
42 55 43
44 58 42
43 58 41
45 60 44
43 58 44
43 57 41
47 62 48
47 62 46
46 61 41
47 64 49
48 64 49
48 63 48
49 66 55
49 65 51
51 68 56
49 66 52
51 69 54
49 67 51
51 69 57
51 70 56
168 157 101
200 183 114
199 183 114
200 183 114
200 183 114
199 183 114
200 183 114
200 183 114
200 183 114
200 183 114
200 183 114
200 183 114
200 183 114
200 183 114
200 183 114
200 183 114
200 183 114
200 183 114
200 183 114
199 183 114
200 183 114
200 183 114
200 183 114
200 183 114
200 183 114
200 183 114
200 183 114
200 183 114
200 183 114
200 183 114
199 183 114
200 183 114
200 183 114
199 183 114
200 183 114
200 183 114
200 183 114
200 183 114
200 183 114
200 183 114
200 183 114
200 183 114
200 183 114
200 183 114
200 183 114
199 183 114
200 183 114
200 183 114
199 183 114
199 183 114
200 183 114
199 183 114
199 183 114
199 183 114
199 183 114
199 183 114
199 183 114
199 183 114
199 183 114
200 183 114
199 183 114
199 183 114
199 183 114
199 183 114
199 183 114
199 183 114
199 183 114
199 183 114
199 183 114
199 183 114
199 183 114
199 183 114
199 183 114
199 183 114
199 183 114
199 183 114
199 183 114
199 183 114
199 183 114
199 183 114
199 183 114
199 183 114
199 183 114
199 183 114
199 183 114
199 183 114
199 183 114
199 183 114
199 183 114
199 183 114
199 183 114
199 183 114
199 183 114
199 183 114
199 183 114
199 183 114
199 183 114
199 183 114
199 183 114
199 183 114
199 183 114
199 183 114
199 183 114
199 183 114
199 183 114
199 183 114
179 197 184
184 200 192
187 202 198
182 198 185
180 197 188
185 201 199
182 198 184
185 200 194
183 199 191
182 199 191
182 199 191
185 201 196
183 199 191
186 201 199
181 197 185
186 201 199
185 201 198
184 200 196
181 198 188
178 195 172
179 196 181
180 197 184
181 198 188
177 195 180
180 197 181
183 199 185
184 200 195
182 199 191
177 195 178
183 199 189
178 196 178
180 197 185
179 196 182
177 194 172
176 194 172
182 198 185
182 198 189
182 198 187
170 190 158
181 198 187
178 196 181
184 199 188
179 196 181
185 200 189
180 197 182
178 195 175
177 195 178
181 197 181
179 196 182
177 194 171
172 192 169
181 197 182
182 198 185
181 198 182
178 196 178
179 196 185
176 194 171
180 197 184
177 194 174
178 195 177
177 194 175
172 192 169
178 195 175
179 196 181
181 198 189
171 190 161
180 197 187
176 194 171
172 191 161
176 194 168
180 196 177
179 196 180
176 194 171
175 193 174
176 193 169
174 193 171
175 193 169
175 192 172
175 192 163
181 197 185
176 194 175
173 192 171
175 193 174
178 195 177
176 194 171
174 192 171
178 196 181
173 191 160
173 191 166
172 191 161
178 196 177
173 191 161
170 189 158
175 193 168
176 194 172
176 193 171
172 190 161
173 191 161
175 192 169
165 183 156
159 179 150
155 173 146
155 173 167
143 163 138
134 153 138
127 145 146
117 135 142
111 131 135
83 105 119
69 94 98
56 83 109
48 78 106
51 81 124
48 78 110
47 76 100
46 76 104
47 76 107
47 76 113
44 71 87
45 73 107
42 68 91
44 71 105
41 67 99
42 68 90
41 68 92
40 66 91
40 66 96
40 65 97
36 59 97
38 62 92
34 56 77
36 58 87
35 56 91
31 51 77
34 55 75
55 89 128
54 87 127
55 89 117
57 91 124
57 91 137
58 91 134
56 90 128
57 92 134
56 91 132
59 93 144
58 92 129
57 91 125
57 91 124
58 93 135
54 89 122
59 94 142
59 94 141
58 93 141
57 92 136
57 92 121
58 92 131
58 93 129
58 93 138
58 93 137
58 92 131
58 93 135
59 94 144
57 92 132
58 92 132
57 91 130
57 92 133
58 93 134
57 91 129
58 93 140
56 91 126
57 92 131
57 92 125
58 92 139
59 94 136
59 93 139
58 93 133
57 92 136
57 92 133
57 92 139
59 94 136
57 92 129
58 93 136
58 93 136
56 90 118
58 93 131
59 93 135
59 94 144
57 92 122
55 90 121
58 93 135
58 93 133
58 92 134
58 93 137
58 93 133
58 92 129
57 91 131
59 94 136
59 93 135
57 92 128
57 92 128
59 94 135
58 94 136
58 93 135
56 91 125
57 92 135
59 94 139
59 94 137
57 91 130
58 93 136
59 93 133
57 91 129
59 94 141
58 93 134
57 92 124
59 93 130
59 95 146
59 94 140
58 93 131
59 95 142
58 93 131
59 94 134
57 92 137
58 92 136
58 94 144
58 93 139
58 93 135
58 93 136
59 94 141
57 92 120
59 94 136
58 93 134
58 92 130
58 92 132
59 94 142
58 92 132
58 93 136
57 91 134
57 91 131
56 90 125
58 93 135
58 93 135
58 93 136
57 92 126
58 91 128
58 93 134
57 91 134
59 93 139
57 91 136
57 91 130
58 93 133
58 92 134
58 93 133
58 92 134
59 94 133
58 91 130
57 91 129
59 92 139
58 90 133
57 89 121
55 87 116
56 88 126
57 90 131
55 87 121
54 84 115
39 53 47
35 46 34
31 40 24
33 43 31
34 45 26
40 52 39
39 51 36
37 49 31
39 52 33
40 54 38
43 56 37
44 57 42
40 54 37
45 59 44
44 58 42
45 59 41
48 63 46
47 64 49
48 63 45
49 65 52
49 65 50
49 66 51
49 65 47
50 67 56
48 66 53
49 66 51
49 67 53
52 69 58
52 70 62
52 71 63
180 167 105
201 184 114
201 184 114
201 184 114
201 184 114
201 184 114
201 184 114
201 184 114
201 184 114
201 184 114
201 184 114
201 184 114
201 184 114
201 184 114
201 184 114
201 184 114
201 184 114
201 184 114
201 184 114
201 184 114
201 184 114
201 184 114
201 184 114
201 184 114
201 184 114
201 184 114
201 184 114
201 184 114
201 184 114
201 184 114
201 184 114
201 184 114
201 184 114
201 184 114
201 184 114
201 184 114
201 184 114
201 184 114
201 184 114
201 184 114
201 184 114
201 184 114
201 184 114
201 184 114
201 184 114
201 184 114
201 184 114
201 184 114
201 184 114
201 184 114
201 184 114
201 184 114
201 184 114
201 184 114
201 184 114
201 184 114
201 184 114
201 184 114
201 184 114
201 184 114
201 184 114
201 184 114
201 184 114
201 184 114
201 184 114
201 184 114
201 184 114
201 184 114
201 184 114
201 184 114
201 184 114
201 184 114
201 184 114
201 184 114
201 184 114
201 184 114
201 184 114
201 184 114
201 184 114
200 184 114
201 184 114
201 184 114
201 184 114
200 184 114
201 184 114
201 184 114
200 184 114
200 184 114
201 184 114
200 184 114
200 184 114
200 184 114
200 183 114
200 184 114
200 183 114
200 183 114
200 183 114
200 183 114
200 183 114
200 183 114
200 183 114
200 183 114
200 183 114
200 183 114
200 183 114
200 183 114
180 197 182
186 201 196
183 199 194
181 198 182
184 199 187
186 201 195
176 194 177
178 196 177
180 197 181
178 196 181
182 198 188
182 198 181
179 196 177
183 198 180
184 199 188
181 198 185
179 196 174
179 196 178
182 198 188
182 199 189
179 196 181
184 200 192
174 193 174
179 196 185
175 193 166
180 197 180
178 195 178
182 199 191
180 197 185
175 193 171
177 194 172
179 196 181
180 196 181
177 195 177
182 198 182
178 195 175
173 192 163
171 191 164
177 194 168
179 196 181
173 192 168
177 195 175
177 195 171
170 189 155
176 194 169
174 192 161
182 198 182
173 192 163
171 190 156
183 199 189
174 192 163
180 197 184
171 189 155
177 194 171
180 197 182
178 195 172
174 192 164
175 193 166
173 191 161
177 194 172
171 191 160
174 192 169
186 201 195
166 186 141
176 194 171
168 188 151
175 192 155
171 190 155
177 194 172
170 189 156
170 189 161
178 195 172
173 191 153
173 192 163
170 189 153
165 185 142
173 191 163
177 194 174
171 190 160
171 191 160
172 190 161
175 192 168
170 189 155
176 193 168
173 191 161
172 190 156
171 190 161
176 193 172
171 189 150
173 191 161
169 188 148
172 190 160
174 191 163
176 194 177
168 188 150
168 187 156
172 190 153
168 187 141
170 188 164
164 183 160
157 176 147
152 174 139
138 157 143
134 155 136
126 146 132
124 143 137
113 133 132
95 117 123
97 119 122
78 103 115
54 82 103
48 78 104
47 76 109
46 74 96
47 75 96
48 76 104
47 75 105
46 75 105
43 70 101
45 73 104
44 71 91
43 70 106
42 69 98
43 69 96
42 68 104
43 69 96
38 63 83
38 62 93
38 62 98
36 59 82
32 53 79
32 53 80
30 50 71
33 55 72
41 66 98
56 90 125
56 90 133
58 92 143
56 90 123
57 91 134
57 90 132
57 90 126
57 90 133
55 89 130
58 93 135
58 93 141
55 89 125
56 90 122
56 90 123
57 91 133
57 92 131
58 92 139
58 93 140
58 93 139
58 93 133
58 92 138
57 92 122
57 92 129
58 93 137
57 91 129
56 90 124
58 92 131
56 91 133
58 93 136
57 91 133
57 92 127
58 93 130
59 94 142
58 94 141
57 92 124
58 93 143
58 93 135
57 91 133
56 91 131
59 94 141
58 92 134
57 92 136
56 91 126
57 92 129
59 93 140
59 94 139
59 93 133
58 92 140
58 94 137
58 92 141
57 92 131
56 91 125
57 92 134
59 94 137
57 92 117
59 94 137
57 92 128
58 93 136
59 93 134
58 93 133
58 93 142
58 93 135
58 93 134
58 93 129
58 93 137
57 91 121
60 96 146
56 92 126
57 92 125
57 93 131
58 93 136
58 93 137
58 93 142
58 93 137
58 92 131
57 91 122
58 93 135
59 93 136
58 92 140
57 91 124
58 93 135
57 92 133
57 92 129
57 92 133
60 95 151
58 93 130
59 93 131
56 90 125
60 95 142
57 91 121
56 90 120
56 90 122
58 92 128
58 93 138
59 94 139
58 92 134
59 94 143
59 93 141
59 93 135
58 93 133
56 90 117
58 93 139
56 89 121
57 91 129
58 93 132
59 93 132
58 92 136
59 94 147
58 92 128
58 92 134
59 93 136
58 92 130
58 92 136
55 88 121
59 94 145
57 91 124
59 93 132
57 91 128
55 88 120
57 91 133
56 89 120
57 91 129
58 91 133
55 87 116
57 90 133
56 89 130
57 89 125
54 86 115
56 88 128
37 53 57
29 37 23
32 42 28
34 44 28
38 48 33
37 50 36
37 48 36
39 51 34
40 52 34
37 48 27
39 52 32
45 59 42
43 57 39
45 60 42
44 58 40
44 59 40
45 60 45
47 63 48
47 63 48
46 62 45
48 64 50
47 63 46
48 64 50
48 64 50
49 67 52
49 66 51
50 68 55
50 69 56
50 70 59
52 71 60
138 142 16
142 147 11
147 150 20
148 150 20
152 152 26
147 150 28
150 151 34
153 153 36
147 150 30
151 152 41
152 153 41
156 155 50
160 157 55
155 155 52
155 155 52
159 157 56
162 158 57
160 157 56
161 159 62
165 160 66
169 163 70
159 157 63
173 165 74
170 164 75
167 161 67
171 164 76
168 162 70
174 166 81
172 165 74
180 170 88
176 167 83
179 169 85
183 172 91
182 171 89
185 173 91
184 173 93
185 173 94
187 175 96
185 173 94
189 176 99
193 178 103
194 179 104
193 178 102
194 179 106
199 183 111
201 184 113
201 183 112
202 184 114
202 184 114
202 184 114
202 184 114
202 184 114
202 184 114
202 184 114
202 184 114
202 184 114
202 184 114
202 184 114
202 184 114
202 184 114
202 184 114
202 184 114
202 184 114
202 184 114
202 184 114
202 184 114
202 184 114
202 184 114
202 184 114
202 184 114
202 184 114
202 184 114
202 184 114
202 184 114
202 184 114
202 184 114
202 184 114
202 184 114
202 184 114
202 184 114
202 184 114
202 184 114
202 184 114
202 184 114
202 184 114
202 184 114
202 184 114
202 184 114
202 184 114
202 184 114
202 184 114
202 184 114
201 184 114
202 184 114
201 184 114
201 184 114
201 184 114
201 184 114
201 184 114
201 184 114
201 184 114
201 184 114
201 184 114
201 184 114
201 184 114
201 184 114
180 197 180
175 193 168
183 199 185
182 198 185
179 196 181
182 198 185
184 200 188
175 194 175
179 196 172
177 195 172
176 194 168
179 196 177
182 198 178
176 193 164
177 194 168
179 196 177
177 194 169
176 194 172
175 193 166
174 193 169
172 190 155
174 192 160
177 194 171
173 190 155
174 192 163
180 197 182
176 194 172
180 196 175
179 196 175
180 197 181
177 194 171
175 193 169
179 196 178
170 189 160
176 193 166
177 194 171
173 192 163
181 197 184
169 189 156
177 194 168
172 191 164
174 192 168
179 196 177
176 194 166
178 195 175
177 195 175
177 195 169
170 189 153
166 186 142
175 193 171
176 194 174
176 194 172
173 191 155
171 190 156
171 190 151
175 193 163
170 189 148
170 189 150
168 188 144
174 192 163
167 187 151
168 188 148
170 189 151
170 189 153
166 186 137
169 188 156
167 187 141
169 188 151
173 191 158
166 185 135
173 191 160
172 191 156
165 186 141
168 187 146
171 190 160
173 191 161
174 191 163
171 190 153
173 192 161
165 186 135
164 186 142
166 187 146
170 189 148
171 190 155
164 185 142
166 186 141
161 183 137
169 188 148
167 187 150
170 188 153
168 187 151
163 184 146
164 185 146
167 186 146
171 190 156
170 188 153
165 186 142
163 183 144
168 187 151
161 181 144
154 174 133
157 176 149
138 159 127
139 158 135
121 142 124
119 138 116
109 131 119
104 126 112
92 114 116
75 99 114
67 92 106
49 79 113
49 79 111
48 77 110
48 77 110
47 76 105
47 75 103
47 75 105
44 71 98
44 71 103
44 71 104
44 71 103
43 69 102
42 68 95
42 68 99
39 63 89
40 65 94
37 60 84
39 63 88
39 62 86
36 59 83
30 49 70
34 55 75
31 51 71
34 55 71
56 90 139
55 88 129
55 88 123
55 89 122
58 93 134
57 91 130
55 89 126
56 91 124
57 91 136
57 92 130
57 92 132
57 92 131
57 91 126
56 91 132
57 91 125
57 91 129
57 91 132
57 92 135
57 91 131
58 93 135
57 93 132
57 91 133
57 92 125
56 90 123
59 93 136
59 94 142
56 91 126
57 90 120
57 91 137
59 95 144
58 92 132
57 92 130
58 93 133
56 91 130
58 93 138
58 93 134
59 94 137
54 89 120
56 91 126
58 93 134
57 92 130
58 93 131
58 92 136
59 94 136
58 92 134
57 92 133
57 91 122
58 93 137
58 92 130
56 91 129
58 94 136
58 93 131
56 91 122
59 94 141
58 93 133
57 91 122
60 95 137
58 93 128
59 94 143
59 94 139
58 92 130
56 90 125
57 92 130
57 93 133
58 93 139
57 91 129
57 92 128
58 93 136
59 94 141
59 94 136
59 94 135
58 93 136
59 94 135
57 92 140
58 93 131
57 92 133
57 91 128
59 94 136
58 92 124
56 91 126
58 93 135
60 95 139
57 91 129
56 91 126
59 93 130
59 95 146
58 92 122
58 94 136
60 94 146
58 93 133
58 93 126
59 94 134
58 93 130
60 95 143
58 92 133
58 93 126
58 92 136
59 94 132
59 93 134
57 91 130
57 91 132
58 93 131
58 92 126
58 92 133
59 94 138
57 90 128
59 94 146
56 90 129
57 91 122
57 91 130
58 92 135
57 90 131
57 91 128
54 88 115
58 92 126
57 90 124
57 89 120
57 91 127
56 88 117
58 90 125
56 88 117
56 90 120
57 91 132
56 89 124
55 88 116
55 87 113
55 87 114
53 84 109
55 86 124
32 44 37
34 43 25
34 44 28
34 45 29
34 44 27
38 50 35
35 46 27
38 50 32
39 52 35
40 53 37
44 58 41
43 57 35
44 58 40
42 55 39
45 59 43
45 60 43
45 60 43
48 64 49
46 61 44
47 62 43
46 62 43
49 65 50
47 64 47
49 67 49
49 66 49
49 67 50
49 67 50
50 68 54
51 69 53
62 77 52
140 146 0
140 145 0
144 147 0
144 148 0
144 148 0
144 148 0
144 147 0
143 147 0
139 146 0
140 146 0
142 147 0
144 148 0
138 145 0
142 147 0
142 147 0
146 149 0
145 148 0
145 148 0
144 148 0
146 149 0
141 146 0
145 148 0
142 147 0
143 147 0
143 147 0
142 146 0
142 147 0
146 149 0
143 147 0
144 148 0
143 147 0
143 147 0
148 149 0
144 148 0
147 149 0
143 147 0
142 147 0
146 148 0
140 146 0
145 148 0
145 148 0
143 147 0
143 147 0
141 146 0
146 148 0
147 149 0
145 148 0
142 147 0
150 151 26
150 151 32
153 152 28
152 152 41
157 156 50
155 154 47
159 156 51
163 159 60
164 160 63
162 158 62
164 160 66
174 166 75
172 165 75
178 169 83
177 168 82
172 165 76
182 171 88
188 175 97
190 176 95
190 176 99
190 176 99
190 176 100
197 181 108
194 179 103
198 182 108
200 183 111
203 185 114
203 185 114
203 185 114
203 185 114
203 185 114
203 185 114
203 185 114
203 185 114
203 185 114
203 185 114
203 185 114
203 185 114
203 185 114
203 185 114
203 185 114
203 185 114
203 185 114
203 185 114
203 185 114
203 185 114
203 185 114
203 185 114
203 185 114
202 185 114
203 185 114
203 185 114
202 185 114
202 185 114
202 184 114
202 184 114
202 184 114
202 184 114
175 193 166
177 195 174
177 194 171
173 191 158
172 191 160
171 190 160
177 194 174
178 195 174
177 194 175
173 192 163
174 192 160
173 191 160
175 193 166
177 194 172
175 193 166
173 191 160
175 193 163
175 193 166
178 195 168
174 192 160
169 189 151
179 196 174
176 193 164
174 192 163
177 194 169
174 192 164
173 191 156
166 187 146
171 190 155
174 192 164
168 188 155
172 190 148
163 184 129
169 189 148
170 189 153
171 190 150
169 189 150
171 190 155
174 192 158
172 191 160
169 188 142
169 188 150
169 188 148
173 192 161
171 190 150
175 193 163
169 188 146
172 191 156
171 190 156
172 190 155
170 189 151
165 186 135
176 193 164
167 187 146
162 182 129
169 188 144
170 189 156
168 188 148
164 185 133
165 185 139
168 188 144
169 188 146
171 190 155
164 184 135
168 187 141
166 186 139
168 188 144
163 184 133
172 191 161
162 183 127
161 182 141
164 185 139
165 185 129
169 188 144
164 184 139
166 185 133
164 184 141
170 189 151
170 189 151
160 182 121
170 189 151
169 189 150
158 181 123
161 182 125
161 182 123
163 184 133
164 184 135
161 182 123
168 186 139
158 180 119
160 182 129
168 187 148
160 181 129
156 178 109
166 186 146
164 185 137
163 183 127
154 177 109
161 181 134
157 177 126
143 164 135
143 165 120
142 164 120
127 149 114
125 146 125
106 128 107
116 138 99
107 129 109
83 108 101
69 94 101
59 89 105
49 78 101
48 78 110
46 73 100
46 73 92
45 73 104
48 77 108
46 73 105
43 70 97
47 75 102
43 71 94
48 76 111
45 73 99
42 69 99
43 69 96
39 64 88
40 65 87
36 59 81
37 61 81
38 62 79
37 60 84
31 52 74
30 50 59
29 49 61
32 53 73
52 85 113
55 89 124
57 91 132
55 89 129
57 90 133
55 89 123
56 90 130
56 91 133
56 90 128
58 92 132
57 91 129
57 92 126
58 93 136
58 93 139
57 91 134
58 92 126
56 90 127
58 93 133
59 93 131
56 91 125
57 92 129
56 91 121
57 91 126
57 91 131
57 91 129
56 90 120
58 92 129
59 94 142
57 92 129
56 91 126
60 95 133
58 93 136
58 93 135
55 89 120
58 92 133
57 92 130
58 93 134
56 90 121
59 94 135
57 92 131
60 94 140
59 94 130
57 92 126
58 93 131
57 92 124
59 93 131
59 94 143
54 88 120
58 92 131
58 93 134
59 94 137
58 94 137
56 90 124
58 93 141
58 93 130
60 94 140
57 92 129
60 95 137
57 92 128
56 90 126
59 94 136
58 93 130
58 93 136
58 92 135
58 93 137
57 92 124
58 93 134
59 94 139
58 92 125
57 91 125
58 92 129
58 93 131
57 91 130
59 94 141
59 94 130
58 93 135
57 92 131
58 94 134
59 95 143
58 93 133
57 93 134
59 93 136
57 93 129
59 93 131
58 93 131
55 90 122
59 94 133
58 93 137
60 95 139
58 93 139
57 92 132
58 93 135
58 93 126
58 92 138
57 91 126
58 93 133
57 92 128
57 92 124
59 94 134
57 92 126
58 93 135
56 91 124
59 93 139
58 93 130
56 90 120
59 93 131
58 93 138
58 92 140
57 90 119
57 91 125
57 91 131
57 91 128
58 92 135
57 91 129
57 91 128
57 91 127
57 91 129
58 92 134
57 90 133
58 91 131
56 90 129
59 93 135
55 89 118
55 88 122
55 86 113
57 90 129
56 86 123
54 85 115
54 84 119
32 43 36
32 40 24
35 45 25
37 48 30
34 44 24
35 44 25
40 53 34
36 47 28
38 49 27
39 49 34
36 49 29
40 54 38
43 57 41
42 56 37
43 57 38
45 60 45
46 62 43
44 59 44
46 63 48
46 63 44
44 60 37
46 62 46
47 63 44
49 66 53
49 67 51
48 66 48
51 70 58
50 69 55
50 69 52
90 98 46
143 147 0
140 145 0
143 147 0
144 147 0
146 148 0
141 146 0
144 148 0
145 148 0
143 147 0
142 146 0
142 146 0
143 146 0
143 147 0
140 146 0
147 149 0
143 147 0
140 145 0
142 147 0
141 146 0
145 148 0
145 148 0
145 148 0
144 147 0
143 147 0
148 149 0
146 148 0
147 149 0
144 147 0
145 148 0
144 148 0
144 148 0
141 146 0
142 146 0
146 149 0
146 148 0
144 148 0
140 146 0
144 147 0
146 149 0
144 148 0
146 149 0
141 146 0
146 148 0
145 148 0
144 148 0
141 147 0
143 147 0
147 149 0
142 147 0
148 150 0
143 147 0
147 149 0
142 147 0
146 149 0
144 148 0
146 148 0
145 148 0
146 149 0
142 146 0
143 147 0
139 146 0
142 147 0
144 148 0
145 148 0
146 148 0
148 149 0
142 147 0
147 149 0
146 148 0
146 149 0
142 147 0
144 148 0
146 148 0
142 147 0
143 147 0
148 150 28
148 150 28
148 150 28
163 158 50
160 157 55
161 158 60
164 159 57
164 160 65
174 166 79
175 166 77
179 169 85
179 169 85
178 169 85
185 173 91
188 175 97
194 179 101
194 179 103
194 179 103
201 183 111
202 184 112
204 185 114
204 185 114
204 185 114
204 185 114
204 185 114
203 185 114
204 185 114
203 185 114
203 185 114
203 185 114
203 185 114
172 190 155
173 191 155
177 194 166
175 193 166
168 187 142
174 192 163
173 191 156
177 194 168
169 189 150
175 193 161
171 190 158
174 192 155
174 192 160
175 192 160
169 189 151
170 189 150
175 193 166
169 189 151
168 187 141
167 188 151
169 188 148
172 191 153
173 192 163
172 190 150
169 188 146
167 186 129
165 186 131
173 191 155
165 185 142
167 187 137
172 190 148
161 182 125
169 188 146
163 184 131
171 190 156
171 190 148
171 190 158
165 185 127
167 186 133
164 185 135
161 183 121
165 184 127
161 183 123
171 189 151
169 189 146
166 186 135
165 185 129
166 186 133
165 186 139
157 179 114
172 191 158
163 184 125
165 186 141
167 187 142
167 186 139
160 182 119
166 186 129
163 184 123
163 184 125
168 187 141
161 183 125
164 185 129
158 181 127
161 182 121
166 186 141
162 183 123
159 181 123
162 183 123
161 181 116
162 183 125
164 185 131
165 185 141
158 181 112
159 180 107
164 184 131
155 177 102
155 179 109
156 177 109
164 184 129
157 180 114
161 183 123
163 184 137
163 184 133
157 179 121
161 182 135
160 182 129
159 180 121
166 185 135
158 179 107
161 182 119
165 186 137
157 179 121
160 181 127
159 179 112
158 179 109
160 181 119
159 181 119
158 179 123
157 178 121
151 172 121
148 167 116
137 158 113
132 153 95
132 154 103
129 151 108
114 134 104
94 118 91
101 123 98
81 105 87
79 103 95
62 91 95
48 77 95
47 75 100
48 77 107
46 74 91
47 76 109
45 72 95
46 74 99
44 71 85
40 66 84
46 73 103
41 67 87
44 70 93
42 67 91
42 68 97
40 65 82
42 67 97
37 61 88
36 58 80
32 53 66
36 58 74
32 53 65
33 53 75
30 49 59
29 47 62
53 86 118
53 86 120
55 88 129
56 90 124
56 90 131
57 91 131
56 90 133
58 92 131
56 90 124
56 91 122
57 91 129
57 91 133
58 92 134
57 91 134
56 91 128
56 91 137
57 91 129
59 93 135
59 94 143
56 90 126
58 93 135
59 93 144
57 92 130
58 93 133
57 91 122
58 93 131
57 92 118
59 94 134
58 93 132
58 92 125
59 94 136
59 94 142
58 92 134
58 94 138
58 93 142
59 94 142
57 92 134
59 94 138
58 93 136
56 91 134
57 92 124
58 93 130
57 92 125
57 92 120
58 93 131
58 93 126
58 92 126
56 91 129
59 94 142
58 93 139
57 92 133
58 93 140
58 92 131
59 94 136
57 92 130
58 92 134
59 93 136
58 93 133
57 91 121
57 92 126
58 93 131
58 93 134
57 92 124
57 92 133
57 92 129
57 92 135
58 93 137
57 92 125
58 93 133
58 93 136
59 94 142
57 91 128
59 94 136
56 90 122
57 92 131
57 91 125
58 93 134
58 92 126
56 91 125
56 90 124
58 92 134
59 94 143
57 92 128
58 92 128
58 92 134
59 94 136
58 93 130
58 93 124
60 94 144
57 92 123
59 93 136
59 94 135
59 94 135
58 93 136
58 93 136
57 91 125
59 93 132
56 91 126
58 92 135
58 93 140
58 94 135
59 94 140
58 93 134
59 94 136
57 92 134
58 92 139
57 92 126
57 91 128
57 91 124
57 91 129
56 90 129
58 92 133
57 91 129
58 92 137
56 89 120
56 90 126
55 88 114
58 92 130
57 90 133
58 91 131
57 89 126
57 90 122
56 89 126
54 86 115
56 89 125
57 88 121
58 89 123
56 88 120
54 84 104
31 38 20
29 39 22
29 38 19
35 45 23
36 47 32
37 48 33
39 51 31
38 50 29
41 54 39
40 52 36
43 56 38
43 56 39
42 54 33
41 55 36
43 58 39
44 58 39
46 61 47
46 60 43
47 62 48
47 63 47
46 63 46
48 64 50
48 64 52
50 67 52
47 63 45
49 68 52
47 65 44
49 67 52
48 67 51
110 117 36
143 147 0
141 146 0
138 144 0
142 147 0
141 145 0
141 146 0
140 146 0
141 145 0
143 147 0
143 147 0
140 145 0
147 149 0
142 146 0
145 148 0
141 146 0
142 146 0
144 147 0
139 145 0
144 147 0
144 147 0
145 148 0
143 147 0
145 148 0
145 148 0
142 146 0
145 148 0
144 147 0
144 146 0
143 147 0
142 146 0
145 148 0
146 149 0
145 148 0
146 149 0
140 145 0
142 147 0
142 147 0
143 147 0
144 147 0
144 148 0
144 148 0
142 147 0
144 148 0
142 147 0
142 147 0
143 147 0
147 149 0
145 148 0
147 149 0
139 145 0
145 148 0
145 148 0
146 148 0
145 148 0
142 147 0
147 149 0
145 148 0
144 148 0
147 149 0
144 147 0
146 148 0
144 148 0
145 148 0
146 149 0
142 147 0
146 148 0
148 149 0
147 149 0
147 149 0
148 149 0
143 147 0
145 148 0
145 148 0
145 148 0
143 147 0
146 149 0
144 148 0
146 148 0
144 148 0
147 149 0
147 149 0
147 149 0
147 149 0
145 148 0
144 148 0
145 148 0
143 147 0
143 147 0
147 149 0
143 147 0
148 150 0
144 148 0
145 148 0
145 148 0
143 147 0
145 149 23
150 152 38
157 155 50
162 159 61
161 158 61
164 159 58
170 164 71
175 167 77
176 167 79
181 171 88
187 174 94
167 186 141
169 188 148
174 192 161
171 189 146
171 190 153
169 188 139
168 188 144
172 190 151
167 187 144
172 190 151
169 189 150
170 189 148
165 185 135
169 188 141
168 187 144
172 190 146
173 191 155
172 190 153
175 192 161
167 186 135
169 188 148
168 188 146
169 188 144
163 184 129
168 188 148
168 187 135
165 185 129
160 181 107
166 186 139
164 185 131
164 185 133
164 185 129
168 187 144
166 186 137
166 186 133
163 184 127
162 183 123
161 182 119
161 182 119
172 190 148
162 184 129
166 185 125
162 183 121
164 184 127
168 187 142
163 184 121
163 184 125
164 184 121
163 184 129
167 186 135
159 181 114
163 184 127
164 185 125
165 184 133
160 181 116
154 178 109
160 181 109
156 179 109
159 180 109
160 181 119
158 180 116
156 178 94
165 186 135
161 182 119
161 183 125
157 179 99
156 179 114
158 181 116
155 178 107
161 182 119
154 177 85
160 181 107
158 180 116
157 178 99
153 176 88
159 180 107
158 180 114
156 178 88
156 179 114
156 178 105
150 174 82
155 178 107
160 181 112
155 177 97
159 181 121
155 176 102
158 179 105
152 175 88
148 171 99
152 174 94
151 176 88
152 175 105
152 175 99
148 173 85
155 176 102
152 174 99
148 171 88
151 174 102
147 170 99
155 175 115
148 169 101
142 164 108
140 162 105
129 149 98
119 142 98
106 131 91
98 122 81
97 121 86
95 121 84
81 105 86
75 100 91
65 92 93
54 81 99
45 73 94
47 76 104
47 76 101
43 70 78
45 73 92
43 70 92
45 71 94
44 71 96
43 68 91
44 70 98
41 66 87
40 66 74
41 66 92
42 67 92
39 63 86
36 59 80
34 56 72
33 54 72
32 53 65
33 54 74
31 51 72
29 48 65
53 85 121
55 89 133
55 88 129
56 90 123
54 88 120
57 91 135
56 88 122
57 91 127
56 90 134
56 90 130
54 87 120
56 90 125
57 91 118
56 90 127
57 92 128
57 91 130
57 92 130
57 91 120
57 91 126
56 90 126
56 90 122
57 91 122
58 93 131
56 90 131
55 90 122
59 93 137
58 93 142
57 92 130
57 92 131
58 93 138
60 95 138
58 92 129
56 91 130
58 92 134
58 92 122
57 92 125
57 91 122
59 94 130
57 92 126
58 93 134
58 93 135
58 92 139
57 92 131
57 91 130
58 92 135
59 93 131
58 93 128
57 92 131
57 91 128
58 93 133
60 94 135
58 92 133
58 93 137
57 91 136
58 93 133
59 94 139
57 91 129
58 93 131
58 92 136
56 91 121
58 93 131
56 90 120
57 92 129
57 92 139
58 92 136
58 93 133
58 93 135
60 94 144
59 94 136
57 92 118
56 91 122
57 92 126
56 90 120
56 91 125
57 91 135
59 94 137
55 89 120
58 92 133
56 91 130
58 93 131
58 93 141
58 93 134
58 93 137
58 93 131
60 94 141
57 91 128
57 92 131
57 92 126
59 93 138
58 93 133
58 93 131
56 90 115
56 91 122
57 91 133
59 93 133
57 92 128
58 92 133
60 95 143
57 91 129
56 90 124
58 93 136
58 92 133
58 92 133
59 94 139
58 92 131
58 92 129
57 91 126
58 92 129
57 91 133
56 89 127
56 90 118
58 93 133
56 91 129
57 91 130
58 93 138
57 91 127
59 93 137
56 90 130
58 93 136
57 91 134
56 90 124
56 88 127
54 86 106
56 88 121
57 89 129
55 85 111
57 88 122
56 88 118
49 75 95
32 40 22
30 39 16
32 43 23
35 45 27
36 47 28
33 44 29
35 47 29
39 50 34
40 53 35
40 53 35
42 56 37
44 57 40
41 55 38
41 56 38
45 59 43
46 60 39
46 60 45
43 59 39
48 64 50
45 62 46
48 64 46
47 63 48
47 62 38
47 63 48
48 65 46
46 63 43
48 65 49
49 67 54
51 70 58
130 134 25
135 141 0
140 144 0
139 143 0
138 143 0
142 145 0
141 145 0
141 146 0
141 146 0
141 145 0
138 145 0
143 147 0
143 145 0
143 146 0
140 145 0
143 147 0
142 145 0
141 145 0
145 147 0
141 146 0
142 146 0
144 147 0
145 147 0
140 146 0
142 146 0
142 147 0
145 148 0
143 147 0
144 147 0
139 144 0
143 147 0
141 146 0
144 148 0
144 146 0
140 145 0
140 145 0
140 145 0
146 148 0
143 147 0
146 148 0
138 144 0
144 148 0
139 145 0
146 148 0
142 147 0
146 148 0
143 147 0
146 149 0
139 145 0
145 148 0
141 146 0
141 147 0
145 148 0
140 145 0
141 146 0
142 147 0
144 148 0
145 148 0
144 147 0
141 146 0
144 148 0
145 148 0
143 147 0
145 148 0
140 146 0
145 148 0
145 148 0
143 147 0
146 148 0
140 145 0
144 147 0
148 150 0
147 149 0
140 145 0
145 148 0
145 148 0
145 148 0
147 149 0
144 148 0
143 147 0
147 148 0
142 147 0
145 148 0
139 145 0
147 149 0
146 149 0
145 148 0
142 147 0
146 148 0
146 149 0
142 147 0
144 148 0
148 149 0
142 147 0
144 148 0
148 149 0
144 148 0
147 149 0
144 148 0
143 147 0
145 148 0
146 149 0
142 147 0
142 147 0
144 148 0
147 149 0
147 149 0
169 188 142
172 190 148
172 191 153
166 186 142
164 184 121
170 188 146
165 185 137
173 191 155
162 184 131
164 184 121
164 184 123
172 191 160
169 188 144
159 180 112
172 190 150
165 185 129
168 187 129
165 185 131
162 183 127
160 182 112
164 184 125
164 184 125
158 180 107
159 181 123
164 184 125
155 179 112
164 184 121
158 180 109
157 180 109
164 185 131
158 181 114
163 184 131
162 184 127
159 181 109
164 185 131
166 186 133
156 179 102
162 184 125
161 182 112
160 182 119
161 183 125
158 180 112
156 178 94
160 181 105
159 181 116
163 183 119
159 181 107
160 181 109
165 185 125
159 182 123
157 179 105
152 176 88
154 178 102
159 181 119
160 182 109
160 181 116
159 180 114
153 177 105
156 178 99
150 176 88
153 177 94
153 177 91
153 176 97
149 174 85
155 178 102
153 176 85
152 175 94
152 175 85
152 176 91
150 173 79
149 173 72
154 176 97
150 174 82
148 172 68
150 173 85
151 173 88
152 174 97
148 173 79
153 176 88
155 177 102
153 175 79
149 173 79
155 177 94
143 170 46
147 171 76
150 173 82
153 175 88
145 171 60
153 176 85
150 173 94
148 170 85
143 167 60
149 171 88
152 176 88
150 172 79
147 170 76
147 170 82
153 175 97
146 169 82
145 168 90
139 162 78
143 166 98
131 153 90
124 147 90
121 142 86
108 132 92
102 124 83
109 133 83
90 116 82
88 111 88
78 102 75
63 90 95
49 77 99
47 75 96
45 73 97
46 74 95
47 76 106
45 71 95
44 71 93
41 67 90
42 68 83
42 69 90
41 66 86
41 67 94
40 66 85
40 65 83
39 63 87
40 65 91
39 63 82
35 57 71
34 56 74
30 51 64
31 51 62
29 49 55
25 43 50
49 79 105
56 89 122
55 89 127
54 88 126
54 88 117
56 90 123
56 90 127
57 91 121
57 90 126
56 90 125
56 90 124
58 93 133
57 91 126
57 92 134
56 89 122
56 90 122
56 92 125
57 92 130
57 92 131
58 93 136
60 95 140
54 88 124
57 91 127
56 90 117
58 93 136
58 93 129
58 92 129
57 92 136
58 92 126
58 92 139
56 91 117
58 93 131
58 92 134
56 90 126
57 92 135
59 93 131
58 93 136
59 94 137
59 94 135
57 91 130
60 94 139
59 94 137
57 92 126
58 93 130
58 92 126
58 93 135
58 93 137
59 94 134
59 93 141
58 93 134
57 91 125
59 94 145
59 94 135
57 92 134
57 91 128
58 92 129
59 93 131
59 95 144
57 92 130
58 92 135
56 91 125
59 93 133
56 91 126
57 91 125
58 93 129
59 93 140
58 92 130
58 92 126
57 91 125
58 93 136
59 94 136
56 91 126
56 90 121
58 93 131
59 93 134
58 93 134
57 92 129
58 93 141
57 91 128
57 92 129
58 93 131
55 90 121
58 93 135
58 92 129
57 91 126
57 92 126
58 93 135
57 91 133
57 92 122
57 92 133
59 94 141
58 93 125
57 91 128
56 90 115
58 92 125
59 93 134
58 93 137
57 91 129
56 89 119
58 92 134
57 91 126
56 90 125
60 94 139
55 89 118
58 92 127
58 92 137
55 89 119
57 90 123
57 90 126
57 92 135
56 90 125
57 91 128
57 91 128
57 91 126
57 91 127
57 90 129
57 91 124
55 88 122
57 90 124
58 91 133
56 89 124
56 88 121
56 89 124
55 87 115
57 89 133
54 84 112
53 84 105
54 85 113
47 72 92
29 38 17
31 41 22
33 43 26
34 43 18
34 45 27
37 47 30
34 44 27
38 49 27
38 50 29
39 51 29
42 55 37
43 56 39
43 58 42
43 56 38
44 57 37
45 60 43
42 57 37
46 61 43
43 59 39
45 61 42
44 59 40
46 62 43
46 61 42
46 62 42
44 60 40
49 66 50
49 68 47
47 65 45
75 87 42
135 139 0
136 141 0
136 141 0
136 141 0
137 142 0
135 141 0
136 140 0
136 142 0
137 142 0
135 141 0
141 145 0
136 142 0
137 142 0
139 143 0
145 147 0
143 146 0
138 144 0
141 145 0
140 144 0
142 146 0
140 145 0
143 146 0
142 146 0
141 145 0
142 146 0
140 145 0
142 146 0
142 145 0
138 144 0
141 146 0
142 146 0
144 147 0
140 145 0
143 147 0
136 144 0
140 145 0
145 148 0
146 148 0
147 148 0
145 147 0
143 147 0
143 147 0
145 148 0
147 149 0
139 144 0
142 146 0
142 146 0
142 147 0
143 147 0
142 146 0
144 147 0
146 148 0
144 147 0
144 148 0
143 147 0
145 148 0
141 146 0
147 149 0
143 147 0
139 145 0
146 148 0
143 146 0
143 147 0
143 147 0
146 148 0
142 146 0
140 145 0
138 145 0
143 147 0
146 148 0
142 147 0
141 146 0
144 147 0
145 148 0
145 148 0
146 148 0
142 147 0
147 149 0
142 146 0
141 146 0
145 148 0
143 147 0
144 148 0
145 148 0
146 149 0
144 148 0
142 147 0
141 146 0
141 146 0
142 147 0
146 149 0
145 148 0
142 147 0
145 148 0
146 148 0
143 147 0
145 148 0
144 148 0
142 147 0
145 148 0
143 147 0
146 149 0
146 149 0
140 146 0
140 146 0
145 148 0
146 149 0
169 188 137
164 184 127
171 189 146
172 189 146
164 184 125
162 183 125
164 185 131
164 185 131
168 187 144
158 180 109
162 183 121
160 182 116
162 183 114
161 182 121
164 185 131
159 181 116
157 179 107
158 179 107
160 181 107
160 181 109
155 178 97
159 181 114
159 181 114
160 182 116
157 180 114
154 178 99
158 180 102
157 180 107
157 180 107
158 181 112
155 178 85
159 181 109
158 180 105
154 177 85
158 180 99
153 177 76
157 179 102
159 181 109
163 183 125
155 178 97
150 175 68
158 180 99
154 178 94
155 178 99
158 179 105
156 178 88
155 178 99
161 182 112
158 180 102
156 178 88
150 174 72
148 172 68
154 178 94
154 177 91
154 177 91
154 177 76
152 176 88
149 174 68
147 172 68
148 173 72
145 171 46
146 172 65
148 173 72
148 173 76
147 172 60
152 175 65
149 173 68
147 173 56
143 169 56
148 172 76
147 172 68
149 174 76
148 172 51
145 170 65
144 170 65
146 171 56
146 171 51
144 170 60
144 168 56
145 169 60
151 175 79
151 173 85
141 167 65
141 168 56
146 170 40
146 170 65
144 170 56
141 167 56
141 167 51
146 170 68
144 168 68
145 170 72
142 166 56
146 170 46
144 170 65
140 165 51
140 164 56
141 168 46
142 164 56
136 162 0
133 159 65
135 160 65
134 157 62
115 140 68
115 139 69
122 146 80
104 128 77
96 119 68
84 108 70
84 110 78
74 101 97
63 90 91
61 86 87
46 74 97
45 72 94
45 72 91
43 70 82
42 69 80
42 68 93
46 74 97
44 71 88
44 72 86
39 63 75
42 67 88
45 72 97
37 61 71
40 65 78
40 64 81
39 63 74
36 59 71
34 55 59
32 54 64
33 54 61
32 52 59
29 48 55
44 71 105
55 87 117
54 87 111
54 88 118
56 90 127
56 91 128
56 91 121
56 90 123
56 90 121
57 91 126
58 92 138
55 90 120
56 90 125
57 91 130
58 92 135
59 93 135
56 90 126
58 93 125
58 92 131
58 93 135
57 92 136
57 91 129
58 93 134
57 91 128
56 90 121
58 92 127
59 93 135
57 91 135
55 90 113
59 94 134
57 91 134
55 89 117
59 94 139
56 90 120
59 93 131
58 93 135
59 93 132
57 92 130
57 91 133
60 94 141
57 91 120
56 90 115
58 92 134
57 93 131
57 92 129
57 92 124
58 93 129
58 93 130
57 91 126
59 94 140
59 94 140
59 94 135
58 92 131
59 94 135
58 93 135
57 92 130
56 91 126
58 93 130
56 91 114
57 92 130
58 93 133
57 91 126
57 92 129
59 93 128
59 94 136
56 90 122
58 93 140
59 93 133
59 94 139
58 92 131
59 95 139
58 93 134
57 92 131
59 93 135
58 93 134
57 91 128
57 91 122
58 92 128
57 90 124
59 94 135
60 94 140
56 89 125
58 92 126
57 90 125
56 91 120
57 92 124
56 90 125
58 93 130
57 91 130
56 90 128
58 93 133
56 91 128
56 91 120
59 93 136
59 93 136
57 92 131
57 91 122
57 91 128
56 91 134
57 92 127
58 93 133
57 92 133
56 90 125
59 93 132
57 92 132
57 92 125
57 91 129
56 91 126
57 91 128
57 90 115
57 91 120
59 93 136
57 92 133
57 91 136
57 90 119
56 89 113
57 91 134
56 90 116
55 88 119
59 92 136
55 88 111
56 89 123
57 90 127
57 89 122
56 87 116
55 87 116
54 85 103
54 84 114
46 69 82
26 35 17
30 39 19
35 44 24
35 46 28
33 44 24
35 47 26
37 47 31
40 52 28
39 51 34
40 52 33
41 55 37
39 52 32
42 55 35
45 59 45
44 58 41
44 59 40
41 55 37
47 62 44
46 61 40
46 61 45
46 60 44
45 60 41
48 65 48
47 63 48
48 65 47
50 67 50
48 65 45
48 65 40
104 112 32
137 140 0
131 137 0
140 142 0
134 138 0
135 140 0
138 144 0
137 142 0
135 142 0
140 143 0
138 142 0
137 141 0
140 144 0
141 144 0
140 144 0
135 141 0
134 141 0
139 143 0
142 145 0
139 143 0
138 144 0
140 144 0
139 143 0
141 145 0
140 145 0
141 146 0
141 145 0
143 147 0
141 144 0
141 145 0
143 146 0
138 144 0
141 146 0
140 145 0
143 147 0
145 147 0
140 144 0
139 144 0
140 145 0
143 146 0
147 149 0
145 147 0
144 147 0
142 146 0
144 147 0
145 147 0
144 147 0
143 147 0
141 145 0
143 146 0
141 146 0
146 148 0
145 148 0
139 145 0
142 147 0
142 146 0
145 148 0
141 146 0
144 147 0
144 148 0
144 147 0
144 147 0
141 146 0
140 146 0
143 147 0
146 148 0
142 147 0
147 149 0
144 147 0
144 148 0
144 147 0
142 146 0
141 146 0
141 147 0
144 148 0
143 147 0
141 146 0
145 148 0
143 147 0
146 148 0
141 146 0
144 147 0
143 147 0
145 148 0
147 149 0
143 147 0
143 147 0
143 147 0
141 146 0
145 148 0
140 146 0
143 147 0
143 147 0
145 148 0
143 147 0
142 146 0
143 147 0
145 148 0
145 148 0
144 148 0
144 147 0
144 148 0
144 148 0
145 148 0
147 149 0
144 147 0
144 148 0
148 149 0
172 190 148
166 186 135
165 185 133
164 185 131
159 180 99
157 180 114
160 181 105
157 180 112
160 181 105
158 181 109
159 181 105
162 183 123
155 178 91
161 182 105
160 181 109
152 176 97
156 179 102
163 184 119
159 181 102
163 184 121
157 180 105
160 182 109
153 177 91
154 177 79
158 180 105
154 178 99
155 179 105
154 177 97
153 176 94
159 180 102
156 179 94
154 178 105
148 174 68
150 174 76
157 179 85
150 174 72
151 176 76
148 173 56
152 177 97
151 176 82
144 170 56
149 173 60
150 174 76
150 175 79
149 174 79
148 173 68
153 176 85
147 172 46
146 171 60
152 174 72
148 172 56
144 170 51
147 172 60
143 170 51
155 178 82
151 175 76
148 173 65
144 170 51
149 173 46
149 173 68
144 170 46
146 172 51
145 171 46
146 171 51
147 172 56
141 168 32
143 168 0
147 172 40
143 170 51
140 168 23
145 171 46
145 170 32
141 168 0
144 170 51
141 165 0
143 169 23
138 166 32
139 166 32
138 164 23
138 166 0
142 167 0
137 165 0
141 168 0
133 162 0
137 164 32
139 164 0
140 166 0
140 167 0
140 167 0
141 166 0
134 162 0
138 163 0
140 167 0
138 164 0
135 162 0
136 163 0
133 160 0
139 164 23
134 161 0
139 164 0
134 159 28
124 149 36
122 146 43
116 141 40
113 138 48
108 134 60
97 125 60
105 129 66
81 106 85
87 111 67
73 98 85
67 91 84
56 83 96
51 78 97
45 73 87
46 74 90
43 70 89
41 68 78
46 74 93
42 69 81
42 69 84
43 68 91
40 64 78
41 67 81
42 68 82
43 69 87
39 64 83
36 58 74
36 58 72
34 57 52
36 58 71
32 53 59
33 55 56
32 52 64
32 52 56
40 64 91
56 89 125
55 88 124
55 88 131
56 90 126
57 90 132
56 90 118
56 89 124
56 90 123
58 93 137
55 88 119
58 92 137
58 92 129
55 90 121
55 89 119
56 91 120
56 91 124
56 89 129
57 91 129
58 92 131
56 90 119
56 91 129
56 91 126
58 92 133
57 92 134
54 88 110
57 91 126
58 93 137
58 93 128
59 94 143
56 90 121
60 95 143
58 93 132
57 92 135
57 91 120
56 90 114
58 93 133
55 90 121
56 91 118
57 92 129
58 93 130
59 95 142
57 92 131
58 93 131
58 92 126
56 91 122
58 93 136
56 91 124
56 91 124
55 89 114
58 93 125
57 92 126
59 94 140
60 94 136
57 92 133
56 90 126
58 93 136
58 92 131
56 91 126
55 90 115
59 94 134
57 91 126
56 90 120
59 93 133
58 93 130
57 92 126
58 93 137
60 95 142
57 91 120
58 92 131
57 92 126
58 93 135
57 92 128
59 94 143
54 88 115
57 91 128
59 93 135
59 94 136
56 90 117
59 94 136
60 95 142
56 91 131
58 93 129
58 92 129
56 91 123
56 91 125
56 91 124
59 95 137
57 91 121
59 93 128
56 91 129
55 89 125
59 93 134
57 92 128
56 91 124
58 92 135
59 93 133
57 91 126
57 92 131
57 91 124
57 91 128
59 94 137
56 90 119
54 88 109
58 92 132
57 90 123
57 91 124
57 91 129
57 91 120
59 93 142
56 90 118
58 92 124
57 91 122
55 86 110
59 93 137
57 90 121
56 90 123
58 92 129
56 90 124
57 90 133
57 91 131
55 88 118
56 89 128
57 89 125
55 88 120
54 86 117
54 84 106
53 83 106
42 61 63
30 40 16
31 40 22
35 45 26
34 46 26
34 42 20
35 45 25
33 44 22
36 49 30
35 46 21
39 51 29
42 55 35
40 52 30
41 54 34
44 58 38
40 52 32
42 57 33
44 57 37
45 61 41
43 58 36
45 60 42
46 61 43
46 61 40
47 63 44
46 62 41
45 62 43
47 65 47
48 66 46
62 76 53
121 130 14
133 139 0
131 139 0
134 139 0
134 140 0
132 136 0
137 141 0
132 137 0
137 142 0
131 137 0
131 137 0
139 142 0
140 144 0
138 143 0
137 141 0
135 142 0
136 141 0
135 141 0
140 144 0
133 141 0
137 141 0
139 144 0
141 145 0
140 145 0
139 144 0
143 147 0
142 145 0
141 145 0
136 142 0
135 142 0
143 146 0
142 146 0
139 144 0
140 145 0
140 144 0
143 146 0
145 148 0
139 145 0
141 145 0
143 147 0
142 146 0
141 145 0
142 145 0
143 147 0
145 147 0
141 145 0
143 147 0
144 147 0
138 144 0
140 145 0
145 148 0
148 150 0
146 148 0
139 145 0
141 145 0
143 147 0
139 145 0
142 146 0
145 147 0
140 145 0
143 147 0
146 148 0
146 147 0
145 148 0
145 148 0
141 146 0
143 147 0
145 148 0
147 149 0
145 147 0
144 147 0
150 150 0
142 146 0
144 148 0
144 148 0
140 144 0
141 146 0
144 148 0
142 147 0
145 148 0
141 146 0
144 148 0
144 147 0
144 148 0
146 148 0
142 147 0
145 148 0
148 149 0
145 148 0
141 146 0
145 148 0
150 150 0
144 148 0
142 147 0
146 148 0
142 147 0
144 148 0
144 148 0
143 146 0
143 147 0
146 148 0
146 148 0
146 148 0
145 148 0
147 149 0
146 149 0
145 148 0
144 148 0
160 181 114
157 180 105
155 178 97
159 181 105
159 181 107
156 179 97
157 179 94
155 178 99
151 175 82
154 178 102
159 181 109
156 179 99
159 180 102
154 176 85
152 175 82
153 176 72
154 177 79
157 179 97
153 176 79
154 177 88
152 176 68
149 174 72
152 175 82
156 177 76
146 172 56
149 174 72
146 172 65
150 174 56
150 174 56
146 172 56
150 175 72
153 176 56
147 172 56
148 173 51
149 174 79
147 172 56
149 173 56
151 175 76
145 171 56
147 171 60
147 172 56
144 170 40
149 173 56
147 172 40
146 172 56
143 169 32
149 173 32
142 169 40
143 170 46
144 170 32
141 169 23
143 169 23
141 167 23
143 170 46
139 167 0
144 170 23
143 170 23
137 166 0
137 165 0
145 170 0
144 169 0
144 170 0
138 165 0
143 169 0
141 167 0
141 168 0
142 168 0
137 165 0
140 167 0
138 166 0
140 166 0
142 167 0
140 167 0
134 163 0
141 165 0
144 168 0
142 166 0
143 168 0
140 166 0
139 166 0
137 163 0
139 165 0
143 167 0
138 165 0
141 167 0
137 164 0
135 162 0
142 167 0
138 164 0
134 163 0
132 160 0
133 161 0
139 165 0
134 161 0
137 163 0
130 157 0
134 160 0
133 158 0
131 154 0
133 159 0
134 158 16
122 146 23
126 150 46
110 136 45
114 137 58
109 133 58
99 123 55
97 123 62
98 120 68
85 109 80
79 103 79
77 99 86
58 83 82
56 81 86
46 74 83
45 72 87
44 72 83
46 73 93
43 71 84
42 69 81
41 67 74
43 69 90
40 65 72
40 65 73
39 63 71
39 64 69
36 59 67
37 60 66
35 57 66
34 56 60
38 61 72
34 56 64
32 54 55
31 51 52
29 48 51
36 60 64
53 85 114
54 87 121
54 87 118
54 87 117
56 90 125
56 89 123
56 91 125
56 90 121
55 88 122
54 88 118
55 88 113
55 87 114
57 92 128
57 91 130
57 91 133
58 92 132
59 94 135
56 90 116
56 90 119
58 93 127
57 92 134
57 91 128
58 92 138
59 94 136
57 91 127
58 92 131
58 92 130
56 90 126
57 92 122
56 90 130
56 90 129
56 90 122
58 92 134
57 92 133
57 91 124
58 93 127
56 90 125
59 94 139
57 92 129
59 94 141
58 92 129
58 92 131
56 90 120
60 95 145
58 92 131
56 91 123
57 91 117
58 93 131
56 89 124
55 89 115
57 92 133
58 94 137
58 93 133
59 94 131
56 90 120
57 92 124
58 92 130
58 93 130
57 92 128
58 93 135
59 94 134
57 92 128
57 91 129
58 92 126
59 93 126
59 94 141
58 93 137
56 91 124
56 91 121
56 91 130
57 92 125
59 93 136
58 93 134
58 93 140
58 93 125
57 91 125
57 91 120
57 91 131
57 92 125
57 91 124
57 91 128
59 94 136
59 94 139
56 90 125
55 89 117
55 89 120
58 92 129
59 94 137
57 92 122
57 92 130
58 92 130
58 93 129
58 92 130
60 94 143
58 92 133
57 91 126
58 93 135
57 91 128
59 92 128
59 93 129
56 90 126
55 88 118
58 91 121
57 91 127
56 88 120
58 93 141
57 90 128
58 92 133
56 89 123
59 93 133
57 91 125
59 93 139
56 90 125
58 91 132
57 91 127
58 92 128
55 87 119
58 90 132
56 87 118
57 88 123
55 87 110
57 89 124
56 88 119
56 89 123
56 88 122
54 85 104
55 86 117
37 53 46
28 37 19
33 43 17
32 41 18
33 44 26
33 42 18
33 43 16
39 50 30
36 46 24
37 49 26
39 51 28
38 50 30
41 54 33
41 53 27
42 56 36
41 54 35
43 57 38
45 60 37
44 60 41
44 59 40
45 61 40
43 57 34
46 61 37
47 64 49
45 62 43
46 63 40
46 64 39
46 63 40
96 102 36
131 133 0
128 133 0
129 133 0
131 136 0
132 135 0
131 136 0
132 136 0
129 135 0
137 142 0
138 143 0
133 137 0
129 136 0
133 139 0
138 141 0
142 144 0
137 142 0
139 143 0
133 140 0
135 141 0
137 142 0
140 145 0
136 141 0
136 140 0
135 141 0
137 142 0
142 145 0
142 146 0
137 142 0
138 143 0
138 144 0
138 143 0
138 142 0
139 143 0
136 142 0
141 145 0
142 145 0
140 144 0
143 146 0
143 147 0
141 145 0
142 146 0
141 145 0
146 148 0
140 144 0
139 144 0
138 143 0
141 146 0
142 146 0
143 146 0
141 145 0
141 146 0
145 148 0
144 147 0
140 145 0
143 146 0
141 145 0
140 145 0
140 145 0
142 146 0
143 145 0
143 147 0
143 146 0
140 145 0
146 149 0
143 146 0
138 144 0
143 146 0
143 146 0
144 146 0
139 145 0
140 145 0
145 148 0
143 147 0
144 147 0
143 147 0
144 148 0
146 148 0
143 147 0
139 145 0
147 148 0
143 147 0
147 149 0
143 146 0
138 144 0
144 147 0
144 148 0
142 147 0
149 150 0
146 148 0
147 149 0
147 149 0
145 148 0
143 147 0
145 148 0
145 148 0
145 147 0
146 149 0
143 147 0
145 148 0
143 147 0
147 149 0
144 148 0
143 147 0
143 147 0
142 147 0
143 147 0
147 149 0
144 148 0
156 179 99
152 176 88
156 178 85
159 180 99
156 178 88
159 180 102
157 179 88
151 175 76
154 177 91
151 175 72
151 175 79
150 174 68
155 178 94
150 174 65
152 175 65
148 173 68
145 171 56
150 174 76
144 170 32
151 175 65
147 172 40
146 172 51
146 172 60
150 175 65
148 173 56
148 173 51
142 169 40
144 169 32
150 174 51
146 170 40
147 172 40
146 171 40
149 172 32
144 170 23
146 170 0
142 170 0
144 170 0
144 170 23
145 170 23
142 169 0
147 172 0
142 169 0
141 167 0
139 168 0
142 169 0
142 169 0
141 168 0
147 172 0
142 168 0
140 166 0
141 167 0
141 169 0
142 168 0
138 165 0
145 170 0
144 171 0
146 171 0
144 170 0
140 168 0
140 168 0
142 169 0
147 172 0
143 168 0
139 166 0
141 169 0
138 165 0
139 165 0
139 167 0
142 168 0
142 168 0
141 168 0
140 168 0
136 163 0
142 168 0
134 161 0
138 165 0
137 165 0
141 167 0
141 167 0
135 163 0
141 167 0
136 161 0
138 163 0
134 161 0
135 162 0
139 165 0
137 164 0
136 162 0
132 160 0
137 161 0
134 160 0
142 168 0
138 163 0
136 162 0
132 159 0
134 157 0
133 158 0
128 154 0
127 155 0
131 156 0
130 155 0
132 155 16
122 146 39
107 132 51
122 146 36
113 137 44
98 121 55
99 123 44
89 113 62
87 111 71
84 108 82
64 90 82
68 91 93
66 90 81
58 85 97
46 74 84
44 72 85
43 70 78
43 70 86
43 69 85
43 69 82
40 65 70
43 68 88
41 67 77
39 63 79
41 66 85
41 66 77
36 60 62
38 62 82
35 57 50
34 56 55
31 51 52
29 49 49
31 52 50
30 50 55
34 56 54
54 87 117
54 86 119
54 87 119
55 88 123
56 90 130
56 89 122
53 86 111
55 88 120
56 90 123
56 90 123
54 87 118
56 90 121
56 89 127
58 92 133
56 90 123
56 90 128
55 88 113
56 90 125
56 90 127
56 91 119
57 91 129
57 92 121
58 93 133
56 89 122
56 90 121
57 91 115
57 91 126
57 92 122
59 94 139
56 90 117
57 92 130
58 92 123
57 92 129
56 90 122
58 93 135
57 91 124
58 92 132
56 91 125
58 92 129
58 92 133
58 93 135
59 94 139
57 92 129
55 90 121
56 90 121
58 92 131
58 93 135
58 92 126
57 91 130
57 92 121
57 92 135
58 92 128
57 92 130
59 93 134
59 93 133
58 92 134
58 93 128
59 93 131
59 94 140
59 94 137
59 94 133
58 93 129
57 92 121
56 90 124
58 93 135
58 93 133
57 91 122
56 90 124
56 91 134
57 92 133
57 92 130
57 91 124
59 94 136
59 94 134
57 92 125
57 91 124
58 93 124
57 92 126
57 90 118
57 92 129
58 91 124
57 92 129
59 94 130
59 94 136
58 92 128
54 89 115
58 93 129
56 90 121
57 91 125
57 92 133
60 94 137
58 91 130
56 91 124
60 95 141
56 90 122
57 91 129
59 93 135
58 93 134
57 90 117
57 90 124
57 91 124
58 92 133
59 93 138
57 92 134
56 91 124
58 92 128
57 91 126
56 88 122
58 91 133
57 89 129
56 89 115
56 90 125
57 90 128
55 89 124
57 90 124
58 91 126
58 91 125
55 88 116
59 93 140
57 91 124
55 88 121
56 89 126
55 88 123
55 87 120
56 87 109
54 84 120
51 80 85
33 46 38
33 43 21
30 40 14
33 43 20
35 46 25
35 45 20
33 43 24
34 46 23
38 49 29
40 52 28
42 54 33
40 52 29
40 53 32
40 53 25
42 56 37
42 56 34
45 59 42
40 54 29
44 59 37
44 59 37
44 60 39
44 59 39
46 61 39
47 63 45
45 61 40
44 61 40
46 62 40
57 72 43
118 125 14
127 131 0
121 126 0
127 134 0
126 133 0
127 131 0
129 135 0
128 133 0
130 134 0
135 139 0
128 132 0
131 138 0
127 136 0
134 139 0
133 137 0
132 138 0
138 143 0
132 138 0
135 139 0
137 141 0
134 139 0
139 144 0
130 136 0
140 145 0
137 143 0
139 142 0
140 145 0
135 140 0
142 145 0
142 145 0
144 146 0
139 144 0
137 141 0
142 146 0
135 142 0
142 146 0
139 144 0
136 142 0
139 143 0
138 144 0
144 146 0
144 147 0
139 144 0
144 146 0
137 143 0
144 146 0
140 145 0
144 147 0
137 144 0
141 144 0
139 143 0
141 146 0
140 144 0
142 146 0
144 148 0
141 145 0
142 145 0
143 146 0
146 147 0
143 146 0
144 147 0
143 146 0
138 145 0
145 146 0
143 147 0
141 146 0
142 146 0
145 148 0
143 147 0
142 146 0
145 146 0
142 146 0
145 148 0
143 147 0
142 146 0
141 146 0
140 146 0
144 147 0
142 147 0
146 148 0
144 147 0
142 146 0
141 146 0
142 147 0
141 145 0
141 146 0
142 147 0
141 146 0
142 146 0
148 149 0
143 147 0
144 147 0
145 147 0
141 146 0
139 145 0
141 146 0
144 147 0
140 145 0
141 146 0
145 148 0
139 145 0
145 148 0
147 148 0
147 148 0
144 147 0
146 148 0
147 149 0
145 148 0
143 147 0
156 178 82
149 174 60
154 177 79
148 173 56
152 175 68
154 177 85
152 176 82
151 175 68
147 172 46
153 176 68
147 172 60
151 175 68
139 167 23
150 174 60
146 171 40
142 169 40
146 172 46
147 173 46
147 172 23
146 171 23
143 170 32
144 170 23
143 170 0
140 168 0
145 170 0
144 170 0
141 169 0
142 169 0
137 166 0
143 169 0
141 168 0
145 171 0
143 169 0
137 165 0
144 169 0
142 169 0
143 169 0
144 170 0
146 171 0
144 169 0
142 167 0
143 169 0
144 170 0
143 169 0
144 169 0
140 168 0
143 169 0
141 168 0
142 168 0
142 169 0
144 169 0
138 166 0
140 166 0
144 168 0
142 168 0
141 168 0
143 169 0
142 169 0
141 168 0
142 169 0
140 167 0
142 168 0
140 168 0
139 168 0
141 167 0
143 169 0
142 168 0
140 167 0
140 166 0
143 168 0
137 165 0
144 170 0
140 166 0
134 163 0
138 163 0
140 166 0
138 164 0
142 168 0
139 165 0
142 168 0
134 161 0
140 165 0
135 163 0
137 164 0
136 163 0
138 164 0
137 163 0
141 166 0
137 162 0
131 159 0
134 159 0
129 157 0
134 159 0
131 155 0
137 162 0
128 155 0
130 157 0
127 155 0
127 154 0
128 153 0
131 158 0
135 156 0
127 149 36
114 137 40
105 130 44
99 124 54
111 134 55
99 123 59
83 108 58
95 115 59
78 101 71
72 96 75
77 99 72
62 84 82
56 80 80
50 75 82
42 68 77
45 72 91
42 68 75
42 69 82
40 65 71
39 64 78
39 63 75
41 66 74
36 60 59
37 61 63
38 62 67
33 56 45
35 57 63
36 58 63
32 53 44
31 52 53
32 53 55
32 53 40
35 56 52
31 51 49
53 85 117
53 85 115
55 88 114
53 86 120
56 89 123
55 88 111
55 88 113
55 88 120
56 89 119
56 90 122
56 90 120
56 90 113
56 90 123
55 88 121
56 90 126
56 90 127
58 92 131
57 91 130
57 91 128
55 89 127
57 92 122
56 90 128
57 91 122
55 89 123
56 91 122
57 91 114
55 90 115
57 91 126
58 92 127
56 90 118
58 92 121
56 90 121
57 91 124
57 92 130
56 91 125
58 92 137
56 90 117
57 91 125
57 92 129
57 92 134
57 92 128
58 93 129
59 94 136
59 94 135
57 91 126
57 91 134
57 91 130
57 91 129
57 91 125
58 93 135
58 94 137
59 94 136
57 91 129
58 93 133
56 90 124
58 93 134
56 90 137
57 92 128
55 89 113
58 93 133
57 91 126
57 91 129
58 92 133
58 92 130
56 90 115
58 93 135
57 92 133
58 92 133
56 90 125
56 91 129
60 95 137
58 94 137
57 92 131
57 91 122
56 91 122
56 91 133
58 92 130
57 92 125
58 93 133
56 90 121
56 90 121
59 94 134
56 90 114
57 91 122
57 91 120
58 92 129
58 93 126
57 91 135
57 92 127
60 94 134
57 92 130
58 92 133
58 93 143
57 92 130
55 88 117
57 91 120
58 93 130
56 90 121
59 94 131
55 88 116
60 95 146
56 89 117
56 90 121
57 91 129
58 92 136
58 92 122
57 91 121
57 90 125
56 89 121
58 91 120
58 92 132
56 89 114
58 92 130
57 89 129
56 90 119
58 91 129
56 89 123
57 90 118
54 87 107
57 90 120
59 93 129
54 86 114
56 89 123
53 85 109
56 87 117
54 85 114
50 78 104
28 36 15
31 41 9
31 39 15
32 43 10
35 46 26
33 44 16
36 46 22
38 49 25
39 51 31
35 47 25
40 52 31
43 56 30
41 54 35
41 55 29
40 54 35
42 54 36
41 54 35
43 58 34
44 57 36
46 60 44
44 60 38
46 63 42
43 58 42
45 62 41
43 58 34
45 61 40
49 65 40
107 112 20
123 127 0
115 120 0
120 125 0
118 126 0
129 133 0
124 130 0
129 134 0
123 128 0
131 134 0
133 136 0
128 134 0
126 131 0
133 138 0
128 134 0
134 138 0
134 139 0
130 137 0
138 141 0
133 139 0
132 137 0
135 141 0
134 139 0
139 142 0
134 140 0
135 139 0
134 140 0
136 141 0
138 142 0
138 140 0
136 141 0
139 142 0
138 143 0
139 143 0
137 142 0
141 145 0
141 144 0
140 144 0
141 145 0
143 147 0
141 144 0
137 143 0
140 143 0
144 146 0
136 143 0
141 145 0
139 143 0
138 144 0
141 145 0
141 145 0
140 145 0
139 144 0
143 147 0
142 146 0
144 145 0
143 146 0
141 145 0
142 146 0
146 147 0
139 144 0
142 146 0
145 146 0
141 144 0
141 146 0
138 144 0
144 146 0
142 146 0
142 146 0
138 144 0
141 146 0
140 144 0
141 145 0
142 146 0
140 146 0
141 145 0
142 146 0
143 147 0
143 146 0
143 146 0
140 145 0
140 144 0
145 148 0
144 147 0
142 146 0
145 148 0
146 148 0
144 147 0
144 147 0
142 147 0
144 147 0
147 149 0
142 146 0
143 147 0
144 146 0
143 147 0
145 148 0
145 148 0
149 150 0
138 144 0
149 149 0
142 146 0
147 149 0
142 147 0
140 146 0
147 149 0
144 147 0
146 149 0
143 147 0
147 149 0
143 147 0
148 173 46
153 176 60
146 172 46
149 173 46
146 171 40
144 170 51
141 169 40
148 172 32
143 169 32
148 172 32
139 167 0
145 171 23
143 169 0
143 170 0
145 171 0
146 171 0
145 171 0
144 170 0
147 172 0
144 170 0
144 170 0
142 169 0
142 168 0
143 170 0
142 168 0
141 169 0
139 167 0
145 170 0
145 170 0
145 170 0
144 170 0
145 170 0
145 171 0
147 171 0
142 168 0
145 170 0
139 168 0
142 168 0
140 166 0
144 169 0
141 168 0
142 168 0
143 170 0
145 170 0
144 169 0
141 168 0
144 170 0
147 171 0
143 170 0
145 171 0
142 168 0
140 166 0
144 168 0
140 167 0
143 169 0
141 168 0
141 168 0
138 166 0
139 166 0
139 166 0
141 168 0
140 166 0
139 166 0
139 166 0
136 163 0
136 164 0
140 166 0
140 167 0
137 163 0
138 166 0
140 167 0
137 164 0
140 166 0
138 164 0
133 160 0
141 166 0
134 162 0
139 167 0
135 161 0
136 162 0
135 162 0
138 164 0
134 159 0
139 165 0
134 161 0
135 162 0
137 161 0
140 164 0
124 154 0
138 162 0
127 154 0
136 160 0
131 157 0
137 163 0
127 152 0
131 155 0
126 154 0
133 157 0
129 152 0
131 156 0
128 153 0
131 153 0
132 154 0
120 144 28
111 135 22
109 132 36
113 136 48
103 125 45
84 106 47
88 110 63
83 107 67
71 95 74
75 97 63
66 90 58
66 88 79
55 80 71
51 77 74
42 69 78
44 70 80
43 69 74
39 62 69
40 65 68
40 66 69
38 63 60
40 65 77
38 62 72
38 63 58
39 64 69
35 58 54
35 58 44
34 55 51
31 51 43
35 58 54
32 53 40
31 51 45
32 52 44
49 76 99
53 86 118
56 90 119
53 87 117
55 89 120
55 88 123
55 89 122
55 89 119
57 91 125
56 90 124
57 91 133
57 91 121
56 89 126
56 90 115
55 89 118
56 91 122
57 91 124
58 92 132
54 87 111
54 88 114
57 92 134
57 92 126
57 90 126
55 89 122
56 91 126
56 90 125
57 91 130
58 92 133
57 90 121
54 89 110
58 93 131
58 93 131
57 92 135
58 93 134
58 92 125
57 91 122
58 93 134
58 93 135
57 92 130
59 93 128
55 89 111
55 90 117
57 91 126
57 92 129
57 92 134
56 91 126
58 93 126
58 93 129
60 95 135
57 91 121
57 92 126
59 93 130
57 91 129
57 92 122
56 90 122
57 91 128
55 88 108
57 92 128
60 95 137
58 92 130
57 91 128
57 92 126
58 92 129
58 92 129
58 92 130
58 92 134
55 90 120
57 92 125
58 93 130
58 93 126
58 93 135
57 92 121
57 91 130
56 91 115
56 91 118
58 92 130
57 92 130
57 91 122
56 90 123
56 91 122
58 91 124
59 94 137
56 90 125
59 93 134
56 90 128
58 93 131
57 91 122
58 92 131
57 91 126
56 90 124
58 91 134
58 92 129
57 91 129
60 95 139
59 94 135
57 91 131
58 92 125
55 89 124
55 89 121
56 90 126
57 91 134
55 89 119
58 92 130
57 92 120
56 90 117
57 91 123
59 93 137
58 93 132
58 91 133
57 90 121
58 92 126
57 90 124
55 88 123
56 89 121
56 91 125
58 91 131
56 89 122
57 90 125
56 89 123
56 88 117
54 86 112
57 89 121
55 86 121
55 86 116
54 84 114
53 83 118
45 68 76
33 43 22
31 42 16
34 44 16
35 45 17
31 41 18
36 48 27
36 46 22
35 47 22
36 48 25
41 54 32
40 53 32
41 54 30
43 57 33
42 55 31
43 56 34
41 54 34
43 57 39
43 58 37
43 59 34
43 57 34
42 57 36
44 58 37
42 57 31
44 60 39
47 64 46
47 64 42
83 91 35
116 119 0
123 128 0
114 117 0
121 126 0
119 123 0
117 124 0
120 126 0
116 123 0
126 130 0
122 127 0
125 130 0
129 131 0
130 136 0
132 136 0
128 132 0
128 132 0
133 140 0
138 142 0
135 139 0
134 139 0
130 134 0
126 133 0
134 138 0
137 140 0
137 140 0
137 141 0
135 140 0
136 140 0
140 144 0
137 141 0
136 140 0
136 142 0
141 144 0
139 143 0
134 139 0
139 144 0
137 141 0
139 144 0
137 141 0
141 145 0
135 141 0
137 141 0
138 143 0
138 143 0
135 141 0
138 144 0
138 143 0
145 147 0
142 145 0
140 145 0
140 145 0
139 144 0
139 143 0
140 145 0
138 143 0
144 147 0
140 145 0
136 142 0
140 145 0
138 144 0
142 146 0
142 146 0
140 145 0
141 145 0
137 144 0
144 147 0
144 146 0
144 146 0
141 146 0
140 145 0
143 147 0
139 143 0
146 148 0
140 145 0
142 146 0
139 144 0
140 145 0
142 146 0
144 147 0
142 147 0
143 147 0
139 145 0
137 144 0
144 148 0
146 148 0
141 145 0
144 146 0
145 147 0
145 148 0
146 148 0
146 149 0
142 147 0
145 148 0
145 147 0
146 148 0
141 146 0
146 148 0
143 147 0
143 147 0
143 146 0
139 145 0
144 147 0
141 146 0
142 146 0
142 147 0
140 145 0
143 147 0
144 147 0
142 147 0
148 149 0
142 169 23
142 169 0
148 172 0
143 170 0
143 170 0
143 169 0
144 170 0
144 170 0
145 170 0
144 170 0
141 168 0
142 170 0
144 170 0
143 169 0
144 170 0
145 171 0
143 170 0
144 170 0
144 170 0
141 169 0
146 171 0
143 169 0
144 170 0
145 171 0
142 169 0
145 170 0
143 169 0
142 168 0
140 167 0
143 169 0
140 167 0
143 169 0
139 167 0
143 170 0
141 168 0
144 170 0
140 167 0
142 169 0
138 166 0
142 169 0
146 170 0
145 170 0
139 167 0
140 166 0
144 170 0
144 170 0
138 166 0
138 165 0
142 167 0
140 167 0
141 167 0
139 167 0
135 162 0
142 169 0
142 167 0
141 168 0
140 167 0
138 165 0
141 167 0
140 166 0
141 168 0
140 168 0
143 169 0
141 167 0
144 168 0
132 161 0
141 167 0
141 166 0
136 161 0
138 163 0
142 168 0
134 161 0
135 163 0
135 161 0
140 166 0
139 167 0
133 160 0
134 161 0
138 164 0
139 165 0
133 160 0
135 161 0
138 164 0
135 162 0
136 163 0
130 157 0
131 158 0
134 160 0
132 159 0
127 153 0
130 155 0
134 160 0
131 156 0
127 153 0
133 157 0
129 156 0
127 154 0
122 146 0
129 154 0
127 152 0
130 154 0
121 146 0
115 139 0
114 138 16
115 137 0
106 128 32
100 121 40
98 120 53
91 111 53
86 107 57
89 110 59
75 97 68
80 103 72
72 93 60
57 80 77
64 87 68
54 78 56
50 76 78
42 68 83
42 68 74
43 69 81
41 65 77
40 64 76
38 62 65
39 63 67
36 60 48
39 64 68
36 59 52
37 61 45
34 55 50
32 54 47
34 55 39
34 56 38
28 47 25
34 54 32
49 69 37
51 75 64
55 88 123
55 88 121
57 90 127
54 87 109
55 89 116
56 89 119
57 90 126
57 91 125
55 89 120
54 87 119
55 89 118
56 89 126
57 91 125
56 90 125
55 88 111
56 90 127
56 91 123
57 91 121
60 95 139
55 89 122
54 87 117
57 91 125
58 93 129
57 92 131
57 91 125
56 90 114
57 92 131
58 92 133
57 91 124
54 89 117
56 90 118
57 92 127
57 91 130
58 92 131
56 91 124
56 89 121
57 91 126
57 91 125
57 92 118
58 92 128
58 92 134
57 91 125
59 94 137
60 94 136
57 92 120
58 92 131
58 93 133
59 94 129
58 92 128
56 91 129
58 94 140
58 93 133
59 94 141
58 92 124
57 92 131
56 90 113
56 91 117
56 90 125
58 93 128
58 93 130
56 90 130
56 91 124
58 92 131
57 91 128
57 92 133
57 92 126
58 92 133
58 93 126
54 88 108
55 89 126
56 89 126
57 91 126
58 92 130
59 94 139
56 91 120
57 92 129
58 93 128
57 91 124
58 92 124
56 90 114
58 92 135
59 94 131
58 93 126
58 92 124
56 90 114
57 91 130
57 91 126
57 91 123
54 88 115
57 91 130
57 91 128
57 91 125
56 90 115
57 90 123
56 90 124
58 92 134
59 94 142
57 90 125
56 91 118
57 91 127
58 92 132
55 88 117
57 91 132
57 91 128
57 91 126
58 92 139
58 92 129
60 94 135
56 89 124
57 91 123
56 88 119
58 92 131
57 90 121
57 90 129
56 89 120
57 89 126
56 89 114
58 91 131
56 88 124
52 83 99
55 86 113
52 83 105
55 86 108
53 84 108
51 79 89
39 58 64
31 40 9
32 42 15
31 40 17
36 46 19
33 43 13
33 42 18
35 46 20
36 48 25
39 50 31
36 48 18
37 49 24
42 55 32
39 51 30
39 51 27
42 55 32
38 51 32
42 54 33
43 58 36
44 59 40
45 60 38
44 59 38
44 60 36
45 61 42
44 61 34
43 59 35
74 83 35
114 119 11
111 117 0
110 114 0
112 117 0
117 122 0
120 125 0
127 130 0
124 129 0
129 133 0
121 126 0
120 126 0
127 131 0
123 128 0
116 123 0
129 133 0
132 137 0
133 136 0
131 135 0
127 132 0
132 136 0
135 140 0
134 139 0
129 135 0
139 139 0
132 137 0
135 139 0
133 137 0
135 139 0
135 141 0
131 136 0
137 141 0
133 138 0
135 139 0
136 141 0
135 140 0
140 144 0
135 141 0
138 141 0
134 140 0
139 143 0
138 142 0
139 143 0
139 143 0
142 145 0
139 143 0
140 144 0
141 144 0
142 145 0
134 141 0
145 147 0
139 145 0
140 145 0
139 143 0
139 143 0
143 145 0
142 145 0
140 145 0
138 143 0
141 145 0
143 146 0
137 144 0
139 144 0
138 143 0
138 143 0
142 145 0
139 144 0
141 145 0
139 144 0
144 146 0
142 146 0
142 146 0
140 144 0
140 144 0
140 145 0
146 148 0
140 143 0
142 145 0
142 146 0
144 147 0
144 147 0
142 146 0
144 147 0
141 145 0
148 149 0
141 145 0
142 146 0
142 147 0
142 146 0
142 146 0
140 145 0
141 146 0
146 149 0
140 146 0
145 148 0
142 146 0
138 144 0
146 148 0
145 148 0
142 147 0
141 146 0
143 147 0
141 145 0
142 145 0
141 145 0
142 147 0
141 146 0
144 147 0
144 147 0
146 148 0
142 146 0
144 147 0
146 171 0
144 170 0
143 170 0
144 170 0
142 168 0
139 166 0
144 169 0
147 172 0
145 171 0
144 170 0
145 170 0
138 167 0
140 168 0
144 170 0
146 171 0
144 170 0
145 171 0
140 167 0
142 167 0
140 169 0
145 170 0
142 169 0
143 169 0
143 170 0
149 172 0
141 167 0
142 170 0
144 170 0
143 169 0
143 168 0
141 168 0
141 168 0
138 167 0
142 168 0
146 170 0
134 165 0
144 169 0
138 166 0
141 168 0
142 169 0
141 168 0
141 168 0
141 166 0
139 166 0
138 167 0
139 166 0
141 168 0
145 170 0
142 168 0
146 170 0
141 168 0
139 166 0
141 168 0
144 170 0
141 167 0
138 166 0
136 165 0
141 168 0
137 166 0
140 166 0
138 165 0
142 167 0
142 168 0
136 164 0
134 162 0
140 165 0
136 162 0
136 163 0
134 161 0
132 159 0
136 163 0
138 164 0
139 166 0
135 162 0
132 159 0
133 160 0
132 159 0
131 157 0
136 162 0
134 158 0
139 165 0
132 159 0
134 161 0
133 159 0
136 162 0
130 159 0
138 164 0
135 162 0
135 161 0
131 158 0
125 151 0
129 156 0
131 157 0
126 149 0
129 156 0
123 148 0
129 155 0
127 153 0
130 153 0
124 147 0
122 149 0
120 148 0
124 148 0
117 142 16
112 134 28
109 131 32
111 131 23
98 120 43
101 123 58
101 123 56
86 107 53
72 94 62
63 87 52
75 96 67
71 92 68
55 77 65
55 77 73
55 78 74
50 73 61
50 74 73
40 65 66
41 66 69
41 65 59
41 66 73
38 62 62
37 60 59
40 65 68
39 63 58
37 61 51
36 59 48
34 56 46
37 58 46
41 63 60
40 59 29
54 72 45
55 75 42
76 94 44
51 83 104
53 86 113
54 86 113
52 85 107
54 87 110
55 88 116
57 91 129
56 89 123
56 90 128
54 88 119
56 89 121
56 90 117
57 91 126
56 89 121
58 92 128
57 91 131
57 91 123
55 89 118
57 91 136
56 89 123
58 93 124
55 89 106
58 92 128
56 90 123
58 93 136
57 92 126
58 92 128
58 92 129
57 91 129
57 91 121
56 91 122
59 94 133
55 89 119
58 92 125
58 92 135
55 89 120
58 93 130
56 91 128
56 91 122
57 92 126
58 93 131
57 91 128
57 91 124
57 91 125
58 92 126
57 91 122
56 90 121
56 91 122
56 91 125
57 91 125
59 94 136
57 92 128
57 92 128
60 94 136
57 91 129
56 90 120
57 92 122
58 92 131
53 87 105
56 91 117
57 92 131
56 91 121
58 93 131
58 92 133
57 91 129
59 93 135
57 91 120
59 92 131
58 93 130
56 90 115
55 89 115
56 91 122
58 93 136
56 90 125
57 91 124
58 92 134
59 94 140
56 90 122
55 89 115
56 90 120
58 92 134
57 92 126
57 91 125
57 92 122
57 91 124
58 93 128
58 92 134
59 93 130
56 90 123
56 90 116
58 93 128
57 92 130
58 92 130
57 91 123
57 90 119
56 89 114
57 91 120
57 91 124
59 93 133
59 93 129
56 91 125
56 89 122
56 90 113
56 90 116
56 89 123
56 89 120
58 92 129
56 88 114
56 89 123
55 88 110
57 90 124
57 91 126
57 90 121
55 89 111
57 91 124
58 92 124
54 87 117
57 90 123
54 85 110
57 89 126
55 88 118
56 89 121
56 87 116
54 86 109
54 85 111
35 50 35
32 42 6
32 42 15
33 42 12
35 44 15
31 41 15
33 43 14
37 48 22
35 46 21
34 44 22
36 47 24
36 47 22
40 53 28
38 51 24
39 52 29
38 51 19
43 56 33
41 56 35
45 59 34
44 58 30
41 56 29
42 57 35
42 56 31
46 63 37
41 57 30
57 67 27
100 104 0
111 115 0
110 113 0
113 116 0
115 119 0
122 127 0
116 121 0
118 122 0
115 121 0
115 123 0
124 127 0
117 124 0
126 131 0
126 129 0
127 132 0
126 131 0
126 131 0
130 135 0
136 139 0
135 138 0
130 132 0
132 138 0
121 130 0
133 136 0
128 136 0
133 138 0
133 138 0
136 137 0
129 136 0
133 138 0
128 133 0
129 135 0
133 138 0
134 138 0
131 137 0
131 137 0
136 140 0
138 143 0
137 143 0
139 142 0
139 143 0
141 145 0
140 142 0
136 142 0
140 144 0
142 145 0
139 143 0
144 146 0
138 142 0
141 144 0
144 146 0
143 147 0
139 143 0
140 145 0
139 144 0
140 143 0
138 143 0
139 143 0
136 141 0
140 144 0
141 144 0
137 142 0
143 145 0
139 143 0
143 145 0
145 146 0
143 146 0
139 144 0
144 145 0
136 143 0
142 146 0
142 147 0
148 148 0
144 147 0
142 147 0
144 146 0
138 143 0
140 144 0
138 144 0
145 147 0
146 148 0
146 148 0
137 144 0
142 146 0
143 146 0
142 146 0
141 145 0
143 146 0
141 145 0
146 148 0
147 149 0
144 148 0
140 146 0
139 145 0
143 147 0
144 147 0
139 144 0
143 147 0
142 146 0
140 144 0
143 147 0
140 145 0
143 146 0
144 148 0
142 146 0
147 149 0
143 147 0
141 146 0
144 147 0
144 147 0
143 147 0
145 148 0
143 170 0
139 167 0
143 169 0
142 169 0
138 167 0
141 168 0
145 171 0
146 171 0
144 169 0
146 171 0
145 170 0
145 171 0
140 167 0
143 170 0
140 167 0
144 169 0
141 168 0
143 169 0
138 167 0
144 170 0
140 167 0
136 163 0
144 170 0
141 168 0
140 168 0
143 168 0
144 170 0
143 170 0
142 169 0
139 167 0
141 168 0
143 169 0
143 169 0
140 167 0
140 167 0
143 169 0
139 166 0
142 168 0
139 166 0
145 171 0
139 167 0
139 167 0
140 167 0
143 169 0
145 170 0
138 165 0
141 167 0
138 165 0
136 164 0
140 166 0
138 166 0
144 169 0
139 164 0
145 170 0
141 166 0
139 165 0
137 163 0
140 166 0
137 163 0
139 166 0
139 164 0
140 166 0
135 163 0
136 163 0
139 165 0
136 163 0
136 163 0
135 162 0
136 161 0
138 167 0
136 160 0
138 164 0
135 162 0
132 159 0
133 160 0
140 166 0
140 166 0
133 159 0
129 156 0
137 164 0
132 157 0
130 158 0
137 162 0
127 154 0
138 164 0
132 158 0
131 158 0
133 158 0
126 151 0
131 157 0
131 158 0
126 154 0
121 147 0
125 151 0
126 151 0
122 148 0
127 152 0
129 155 0
122 146 0
119 144 0
119 145 0
121 144 0
121 143 0
112 136 0
106 129 0
111 133 32
100 122 32
100 121 31
101 124 47
90 111 45
88 107 47
99 119 53
83 103 42
74 93 47
66 87 66
59 80 61
67 87 49
58 78 65
63 84 73
46 69 65
55 76 60
42 68 76
48 70 62
43 66 57
37 60 49
39 64 67
34 57 37
40 61 41
35 58 37
39 61 56
43 62 50
42 61 23
39 58 42
56 76 44
59 78 37
80 98 34
79 99 31
56 86 107
51 83 95
53 85 113
56 90 125
54 87 111
53 85 107
57 91 123
56 90 123
53 86 117
56 91 119
56 90 122
56 90 124
56 90 124
54 88 105
55 88 117
56 91 122
57 91 123
56 90 118
57 91 128
57 92 130
57 91 121
54 89 112
56 90 126
56 90 119
58 92 128
57 92 129
55 89 108
56 90 120
58 92 135
57 91 128
57 91 125
57 91 129
58 93 133
58 93 133
57 91 125
58 93 130
54 87 111
58 93 128
57 91 121
57 92 130
57 92 133
58 93 126
59 94 131
57 91 124
58 92 133
57 92 130
57 91 125
56 90 125
57 91 122
56 90 122
57 92 125
58 93 133
58 93 139
56 90 121
58 93 126
57 91 130
58 93 125
55 89 114
55 90 126
57 91 128
57 91 129
54 88 108
57 92 125
57 92 128
56 91 122
57 91 129
58 92 128
58 93 134
58 92 135
58 92 129
57 91 125
55 90 120
56 91 124
56 90 118
57 91 129
53 87 105
58 93 134
58 92 128
56 90 122
55 90 115
56 90 130
57 92 125
59 94 134
57 92 130
56 90 120
58 92 121
56 91 122
56 90 121
57 92 128
56 90 121
57 91 130
58 93 136
56 90 113
59 93 130
57 90 129
57 91 120
56 90 120
57 91 129
55 89 111
55 89 114
58 92 134
55 87 110
57 91 128
56 91 124
54 87 107
57 90 130
57 91 128
57 90 126
56 90 120
55 88 119
56 88 121
55 89 115
56 89 119
54 88 118
57 90 122
55 87 114
55 86 111
55 87 114
56 88 123
54 86 107
54 85 107
54 84 108
53 85 102
53 82 100
57 83 99
41 51 16
33 43 12
31 41 15
37 47 15
33 43 14
32 40 15
34 43 16
34 44 16
36 46 22
39 50 21
37 48 25
38 49 21
36 48 22
41 54 30
40 54 27
43 56 31
42 56 30
44 59 34
43 56 30
43 58 35
42 57 23
41 56 32
41 57 27
43 60 37
63 72 27
99 102 0
88 93 0
110 113 0
117 119 0
102 107 0
113 115 0
106 111 0
107 114 0
115 119 0
121 124 0
118 122 0
125 128 0
125 129 0
124 128 0
123 129 0
130 133 0
116 124 0
126 131 0
124 128 0
127 132 0
126 132 0
122 130 0
130 136 0
122 126 0
128 133 0
128 133 0
126 132 0
130 136 0
130 135 0
130 137 0
135 140 0
134 138 0
132 137 0
135 139 0
135 139 0
134 138 0
129 136 0
138 140 0
133 139 0
138 142 0
137 141 0
139 143 0
140 144 0
137 142 0
135 141 0
131 138 0
139 140 0
139 143 0
140 143 0
137 143 0
141 144 0
139 142 0
141 144 0
140 142 0
139 143 0
140 144 0
140 143 0
138 143 0
140 145 0
139 143 0
143 146 0
139 144 0
139 144 0
138 143 0
142 145 0
138 142 0
139 144 0
138 143 0
139 143 0
142 145 0
142 144 0
140 144 0
140 145 0
140 144 0
140 144 0
142 146 0
137 142 0
143 145 0
140 146 0
138 143 0
137 143 0
140 145 0
139 144 0
141 146 0
141 146 0
140 144 0
143 147 0
143 147 0
143 146 0
143 146 0
139 144 0
142 146 0
142 145 0
140 144 0
144 147 0
142 146 0
141 146 0
142 146 0
143 146 0
138 144 0
142 146 0
141 146 0
145 148 0
136 143 0
144 146 0
139 144 0
146 148 0
142 146 0
144 147 0
145 148 0
137 143 0
144 147 0
142 146 0
139 168 0
146 171 0
141 168 0
141 168 0
143 169 0
146 171 0
142 168 0
146 170 0
140 167 0
139 167 0
141 169 0
140 168 0
140 167 0
142 168 0
142 169 0
146 171 0
141 168 0
141 168 0
142 169 0
146 171 0
142 169 0
139 167 0
140 167 0
142 169 0
143 169 0
141 168 0
139 167 0
142 168 0
147 171 0
140 167 0
142 168 0
141 169 0
138 167 0
138 166 0
143 169 0
141 167 0
143 169 0
141 167 0
142 168 0
142 168 0
143 168 0
141 167 0
140 167 0
141 167 0
142 169 0
142 168 0
142 167 0
140 167 0
134 162 0
142 168 0
134 160 0
137 165 0
138 165 0
136 163 0
137 165 0
136 162 0
142 167 0
140 166 0
142 168 0
140 167 0
142 168 0
137 165 0
135 162 0
136 164 0
139 166 0
137 164 0
133 162 0
138 165 0
135 162 0
136 163 0
139 165 0
129 155 0
134 161 0
137 163 0
133 158 0
131 156 0
133 157 0
135 160 0
136 163 0
128 155 0
136 160 0
139 164 0
131 157 0
127 155 0
132 158 0
129 157 0
135 160 0
130 156 0
133 159 0
128 154 0
130 156 0
126 151 0
126 150 0
131 155 0
123 148 0
128 153 0
125 147 0
124 148 0
120 144 0
119 142 0
119 143 0
116 139 0
120 143 0
116 140 0
109 131 0
115 137 0
103 125 23
106 127 23
99 119 35
94 115 44
95 116 47
88 107 47
74 95 48
87 106 50
60 80 50
69 88 52
61 81 58
49 70 55
63 82 55
53 74 52
51 71 45
40 62 54
44 66 53
42 63 51
41 61 55
44 65 52
47 68 49
36 56 37
44 65 57
57 75 34
47 67 35
53 72 49
61 79 21
68 86 31
70 88 23
79 99 22
89 108 27
72 98 85
54 87 113
54 87 113
53 86 110
55 88 122
53 86 115
55 89 117
55 89 119
56 90 119
56 89 115
56 90 120
57 91 129
57 91 125
55 89 118
57 91 128
57 91 121
56 91 124
56 91 118
57 91 124
56 90 123
58 92 128
56 90 119
56 89 126
57 91 126
56 90 123
56 90 125
57 91 129
56 90 114
56 90 120
56 91 131
58 93 129
56 90 115
54 88 115
57 92 122
57 91 122
58 93 136
55 89 124
58 92 130
58 92 133
57 92 124
57 92 129
56 90 128
58 92 123
57 91 121
57 91 128
55 89 122
56 91 122
58 92 134
56 91 124
57 92 131
57 91 125
57 91 125
56 89 120
55 89 117
58 93 130
55 89 121
57 91 128
56 89 118
58 92 122
57 91 125
57 91 118
57 91 128
57 92 126
56 90 111
59 93 133
57 92 129
57 91 125
56 89 117
56 91 120
58 93 134
56 89 122
57 91 120
56 90 124
56 90 126
57 90 121
57 91 120
58 93 134
58 92 134
57 91 125
58 92 126
59 93 131
55 89 117
56 90 120
57 92 129
56 90 121
56 90 120
56 90 115
58 92 123
57 90 121
58 93 136
57 91 124
58 91 121
57 90 117
56 90 118
59 93 130
58 93 122
57 90 116
59 93 133
57 91 124
55 89 118
57 90 129
55 88 113
55 89 110
57 90 119
57 90 124
56 89 125
56 88 110
55 87 103
57 91 127
55 87 108
57 90 116
55 86 110
55 87 108
56 89 115
58 91 129
57 90 122
58 90 120
55 87 112
54 86 109
54 85 102
55 87 119
54 85 108
52 84 99
53 82 104
87 103 95
102 106 0
43 53 19
35 46 15
33 42 6
32 42 6
34 44 14
33 43 14
34 45 16
38 51 22
38 51 21
36 47 20
37 50 18
38 50 24
40 52 28
40 53 27
39 52 23
41 54 30
41 56 36
41 55 29
41 55 34
43 58 32
40 55 28
42 57 34
75 78 12
100 103 0
94 95 0
102 106 0
101 104 0
107 110 0
96 101 0
117 119 0
106 111 0
113 116 0
113 117 0
123 125 0
120 123 0
119 123 0
118 123 0
116 122 0
127 130 0
121 126 0
123 129 0
119 126 0
118 124 0
123 130 0
127 133 0
132 136 0
130 135 0
128 133 0
129 134 0
126 133 0
139 141 0
134 139 0
127 133 0
133 136 0
128 134 0
126 132 0
133 137 0
130 137 0
137 140 0
134 138 0
131 138 0
132 137 0
134 141 0
136 141 0
138 140 0
137 142 0
135 138 0
138 143 0
140 142 0
139 144 0
137 141 0
141 144 0
135 140 0
142 145 0
135 139 0
136 142 0
139 144 0
141 143 0
138 143 0
136 142 0
136 140 0
141 145 0
136 142 0
139 143 0
141 144 0
142 145 0
141 143 0
137 141 0
142 146 0
141 142 0
138 143 0
139 141 0
141 145 0
145 148 0
145 147 0
142 144 0
139 143 0
135 142 0
143 147 0
139 144 0
138 142 0
143 144 0
143 144 0
139 144 0
144 147 0
139 143 0
142 146 0
140 144 0
141 146 0
144 146 0
140 145 0
145 147 0
141 144 0
140 145 0
141 145 0
143 146 0
141 145 0
140 145 0
144 147 0
145 147 0
142 146 0
143 147 0
141 146 0
143 146 0
141 144 0
144 147 0
144 147 0
144 146 0
145 148 0
140 145 0
146 148 0
143 147 0
141 146 0
139 145 0
142 146 0
141 146 0
146 148 0
139 166 0
145 171 0
142 169 0
140 168 0
142 168 0
145 171 0
141 168 0
142 169 0
141 167 0
144 170 0
143 170 0
148 172 0
142 169 0
141 168 0
142 170 0
144 169 0
143 169 0
138 165 0
142 169 0
140 167 0
140 167 0
137 167 0
141 168 0
144 170 0
144 169 0
141 168 0
139 166 0
143 169 0
141 167 0
142 169 0
140 167 0
140 167 0
140 168 0
142 169 0
140 167 0
142 167 0
138 166 0
136 164 0
135 163 0
141 167 0
140 167 0
139 165 0
140 167 0
141 165 0
138 165 0
139 165 0
139 166 0
138 165 0
142 169 0
142 166 0
140 167 0
136 163 0
136 163 0
142 167 0
139 166 0
138 166 0
137 165 0
140 166 0
138 165 0
139 166 0
138 162 0
139 165 0
141 167 0
140 165 0
133 162 0
134 162 0
134 162 0
134 160 0
135 161 0
132 160 0
133 159 0
138 164 0
128 155 0
132 159 0
130 156 0
133 159 0
133 159 0
133 158 0
127 155 0
130 157 0
136 161 0
137 162 0
125 152 0
131 158 0
132 158 0
125 153 0
127 152 0
127 153 0
129 156 0
124 151 0
128 153 0
131 156 0
122 148 0
122 146 0
122 148 0
129 154 0
125 149 0
125 149 0
122 144 0
117 141 0
119 142 0
122 145 0
119 141 0
108 133 0
107 128 0
114 135 16
98 119 16
112 135 32
96 119 16
92 112 46
82 105 46
91 112 28
88 105 31
78 99 42
73 92 57
72 91 50
73 93 49
70 89 56
58 78 53
62 82 52
55 73 55
64 82 57
58 75 49
57 77 52
52 72 44
58 75 47
50 70 49
52 72 44
47 67 54
47 65 39
55 73 39
61 80 39
75 92 30
88 107 33
76 95 28
91 112 35
103 124 14
99 121 36
51 82 105
55 88 122
54 87 113
55 88 124
54 87 116
56 89 112
56 90 117
54 88 115
56 90 123
56 89 121
56 90 126
57 90 126
56 90 125
57 90 122
55 89 114
57 91 131
55 89 112
55 89 126
55 90 120
54 88 111
56 89 123
55 89 122
56 90 121
56 90 120
56 90 125
59 93 125
55 90 126
57 92 125
57 91 122
58 92 125
58 92 130
57 91 122
58 92 133
56 91 121
56 90 117
54 87 105
55 89 121
56 90 117
56 90 118
57 91 121
57 92 126
57 91 129
57 91 120
56 90 118
57 91 124
56 91 122
57 91 126
57 92 129
58 91 121
57 91 126
58 92 124
58 92 125
59 93 139
58 92 128
56 90 120
55 89 114
56 89 115
56 90 121
56 90 124
58 92 124
58 93 125
58 93 129
57 91 121
59 93 137
57 90 122
56 90 121
59 93 135
57 92 126
57 92 130
57 92 120
56 90 114
56 90 121
56 90 115
56 90 124
55 89 115
57 92 128
58 92 125
56 90 121
57 91 122
58 92 128
56 90 117
58 93 125
58 92 128
58 93 126
56 89 115
55 89 117
55 89 113
56 90 113
58 92 132
57 91 128
57 91 124
55 88 113
55 89 111
56 89 121
56 90 123
56 89 117
57 91 126
56 89 113
55 89 115
57 91 126
56 89 120
56 89 111
57 92 130
55 88 117
58 91 125
55 89 108
55 89 116
57 91 123
55 87 106
56 89 124
57 90 114
56 90 113
53 85 106
54 87 111
55 87 117
56 89 118
56 89 122
54 86 114
52 84 97
55 86 108
54 86 112
54 84 110
52 80 94
112 117 45
111 113 0
119 122 0
78 84 17
38 49 20
37 48 11
36 47 15
37 49 19
36 47 21
34 45 13
36 48 22
36 49 24
37 50 20
39 51 22
39 52 25
38 51 21
38 50 22
40 53 32
40 54 28
42 55 32
38 52 28
40 53 32
45 56 30
76 80 23
90 90 0
99 98 0
99 100 0
98 101 0
108 109 0
103 105 0
103 105 0
105 106 0
114 117 0
107 113 0
111 112 0
120 122 0
119 122 0
126 127 0
118 121 0
121 125 0
112 118 0
126 129 0
119 124 0
121 126 0
121 129 0
125 130 0
128 132 0
119 125 0
127 133 0
127 132 0
130 135 0
138 139 0
126 130 0
134 135 0
135 140 0
131 134 0
127 132 0
127 132 0
133 138 0
132 138 0
131 137 0
133 137 0
131 136 0
135 138 0
136 140 0
137 141 0
137 142 0
131 137 0
133 138 0
141 144 0
137 141 0
138 142 0
139 142 0
137 141 0
132 139 0
139 144 0
140 143 0
137 140 0
136 139 0
145 147 0
137 140 0
140 143 0
138 143 0
138 143 0
140 143 0
138 143 0
144 145 0
137 141 0
137 142 0
137 142 0
142 145 0
139 142 0
139 144 0
139 144 0
140 144 0
139 144 0
140 144 0
144 146 0
140 144 0
135 140 0
145 146 0
142 146 0
141 145 0
144 146 0
141 143 0
137 142 0
141 144 0
144 147 0
139 145 0
141 144 0
140 145 0
141 145 0
144 147 0
142 145 0
136 142 0
148 149 0
141 144 0
140 145 0
144 147 0
142 145 0
138 143 0
132 141 0
142 145 0
140 145 0
139 144 0
143 145 0
140 143 0
143 147 0
145 147 0
145 148 0
142 146 0
145 148 0
141 145 0
141 145 0
141 146 0
142 146 0
143 147 0
145 147 0
144 147 0
142 169 0
146 170 0
142 169 0
145 171 0
141 168 0
142 169 0
144 170 0
145 171 0
142 168 0
141 167 0
140 168 0
145 170 0
143 169 0
140 167 0
142 169 0
142 168 0
143 169 0
145 170 0
143 170 0
143 169 0
141 168 0
139 167 0
138 166 0
136 164 0
139 166 0
141 169 0
142 169 0
141 166 0
140 166 0
143 169 0
139 167 0
143 168 0
139 166 0
143 168 0
139 167 0
145 170 0
140 167 0
139 166 0
139 167 0
136 165 0
139 166 0
141 167 0
143 168 0
142 168 0
140 167 0
141 167 0
135 161 0
139 165 0
140 167 0
136 162 0
140 166 0
134 161 0
136 164 0
139 166 0
138 164 0
142 169 0
137 165 0
142 168 0
140 166 0
140 167 0
134 161 0
138 165 0
138 164 0
134 162 0
138 164 0
134 161 0
133 159 0
131 159 0
134 161 0
137 163 0
131 161 0
137 163 0
130 156 0
133 160 0
132 157 0
131 157 0
132 158 0
136 162 0
131 158 0
132 157 0
129 158 0
130 158 0
128 153 0
131 157 0
132 160 0
129 156 0
131 156 0
130 154 0
125 151 0
127 154 0
131 156 0
127 152 0
124 150 0
124 148 0
120 146 0
121 144 0
119 145 0
124 148 0
124 147 0
114 139 0
118 142 0
117 139 0
116 140 0
109 131 0
116 139 0
113 135 0
109 130 0
103 125 0
99 120 23
90 110 16
82 102 28
87 104 31
88 105 41
82 100 40
85 104 42
68 89 50
68 86 34
68 86 41
66 82 45
63 82 43
62 79 28
67 84 56
54 72 25
52 70 31
59 77 40
59 77 43
48 67 51
58 75 40
64 81 50
63 81 25
76 93 32
60 79 31
74 91 27
86 104 19
87 107 31
109 129 16
106 130 0
115 139 0
63 93 108
54 87 108
54 86 109
54 86 110
54 87 119
54 87 115
54 87 103
54 88 118
56 89 116
54 87 115
56 89 120
56 90 121
55 89 114
56 89 113
55 89 118
57 90 131
55 88 115
56 89 119
55 89 122
57 91 125
57 91 126
57 91 121
57 90 118
55 89 122
56 90 117
57 91 122
57 91 126
55 89 115
58 92 126
56 90 117
56 89 122
57 91 114
57 91 126
57 91 126
58 93 129
55 89 120
57 91 130
55 90 115
56 90 117
58 91 125
57 91 120
57 91 115
55 89 113
57 91 129
57 91 126
57 91 121
58 92 125
56 89 122
58 93 133
55 89 117
58 92 129
59 94 135
57 92 125
58 93 140
56 89 113
57 92 131
56 90 115
57 91 124
57 91 120
55 89 110
55 88 111
59 93 125
55 89 115
58 92 131
58 92 134
55 90 117
57 90 125
57 92 125
58 93 131
57 91 126
56 91 122
57 91 129
57 91 124
57 92 122
58 92 129
59 93 130
60 96 143
57 91 120
57 91 115
56 90 125
59 94 133
57 91 117
56 90 122
57 91 125
56 90 122
56 91 121
58 93 128
56 90 124
55 89 114
58 92 141
57 91 124
59 93 133
54 86 115
58 92 130
56 90 120
56 90 119
56 90 116
59 94 133
55 89 111
57 91 121
55 88 111
55 88 116
56 89 115
55 89 114
55 88 113
56 89 119
57 91 124
55 87 116
57 90 119
55 87 112
53 86 105
54 86 108
56 90 122
56 90 122
57 89 125
51 82 95
57 89 125
54 85 110
55 88 113
55 87 108
53 84 111
56 87 115
61 86 92
112 117 0
116 119 0
118 119 0
96 98 0
101 101 0
74 77 16
42 50 19
34 44 15
34 44 14
35 47 18
37 48 19
40 52 25
36 48 23
36 47 17
41 54 25
36 49 26
40 53 31
41 55 33
41 55 33
41 55 34
48 56 23
68 72 16
86 87 0
71 74 0
92 91 0
99 100 0
96 97 0
94 96 0
99 99 0
101 105 0
107 111 0
103 107 0
104 107 0
115 117 0
115 117 0
118 120 0
116 120 0
120 123 0
124 124 0
123 125 0
115 120 0
124 128 0
131 133 0
126 130 0
128 132 0
123 127 0
120 128 0
128 132 0
126 131 0
125 128 0
129 132 0
130 133 0
125 131 0
130 134 0
130 134 0
128 133 0
131 135 0
130 134 0
132 138 0
132 136 0
133 138 0
132 137 0
132 138 0
131 136 0
134 137 0
133 138 0
134 137 0
136 139 0
133 137 0
130 137 0
134 139 0
136 141 0
136 139 0
134 138 0
140 143 0
138 140 0
128 134 0
139 141 0
133 138 0
136 140 0
138 142 0
139 143 0
140 143 0
135 140 0
139 142 0
136 141 0
137 141 0
135 140 0
140 143 0
135 140 0
142 145 0
136 143 0
138 142 0
142 145 0
138 141 0
138 143 0
140 143 0
139 144 0
143 146 0
139 143 0
140 144 0
140 142 0
139 143 0
140 144 0
141 143 0
138 142 0
139 144 0
140 145 0
142 146 0
142 145 0
143 147 0
143 146 0
140 144 0
139 143 0
141 145 0
142 146 0
141 146 0
143 145 0
144 145 0
141 145 0
145 147 0
139 145 0
143 147 0
140 144 0
142 147 0
145 147 0
145 147 0
145 147 0
142 145 0
142 146 0
138 144 0
143 146 0
143 147 0
145 148 0
142 145 0
143 147 0
142 146 0
142 146 0
144 148 0
143 170 0
142 170 0
144 168 0
146 171 0
141 169 0
142 169 0
141 168 0
141 166 0
144 170 0
140 168 0
143 168 0
143 170 0
138 165 0
142 169 0
141 168 0
142 169 0
143 169 0
140 167 0
139 166 0
144 170 0
138 166 0
142 167 0
145 170 0
139 167 0
140 166 0
139 167 0
142 168 0
140 167 0
142 168 0
144 169 0
140 167 0
141 167 0
140 167 0
137 164 0
141 166 0
141 168 0
140 167 0
140 167 0
137 166 0
138 165 0
140 166 0
138 165 0
139 165 0
139 166 0
138 164 0
144 169 0
140 166 0
138 164 0
135 162 0
138 164 0
143 168 0
139 166 0
142 167 0
134 163 0
135 163 0
136 164 0
132 160 0
135 163 0
136 163 0
137 164 0
137 163 0
140 165 0
136 163 0
137 163 0
138 164 0
134 161 0
135 159 0
131 159 0
133 159 0
138 164 0
136 162 0
131 160 0
136 162 0
134 160 0
132 160 0
126 154 0
129 156 0
129 155 0
134 161 0
133 158 0
126 153 0
130 156 0
131 157 0
131 157 0
131 156 0
133 156 0
124 151 0
125 149 0
126 152 0
126 147 0
120 145 0
119 145 0
125 150 0
125 149 0
116 142 0
122 147 0
116 140 0
122 145 0
113 138 0
117 141 0
120 141 0
112 134 0
113 136 0
112 134 0
109 128 0
102 124 0
109 129 0
102 122 0
95 115 16
106 126 23
87 107 32
82 102 23
78 95 28
82 102 35
84 102 32
84 104 45
80 97 30
68 84 16
74 92 48
62 80 39
57 74 40
64 82 39
67 84 45
52 70 43
48 67 43
48 66 34
57 75 23
75 92 34
60 77 41
70 86 35
69 88 36
81 99 28
75 93 20
98 119 28
94 115 26
115 137 14
116 140 23
117 140 0
88 113 91
50 82 90
54 87 108
54 86 110
56 89 114
53 85 115
55 87 115
56 90 118
56 89 126
56 89 125
55 89 121
56 90 123
55 89 118
56 89 117
55 89 117
55 89 113
55 89 126
56 89 129
53 87 100
56 90 120
57 91 121
57 91 124
57 90 126
55 88 115
56 90 125
58 92 132
56 90 120
57 91 120
57 91 129
57 92 134
56 90 117
56 91 121
58 92 128
55 88 124
58 92 130
56 91 130
58 92 131
56 90 118
56 89 120
57 92 122
55 89 111
54 87 117
57 91 121
57 91 125
56 90 118
54 88 111
55 89 115
57 92 125
56 90 120
57 92 126
56 91 121
57 91 117
56 91 114
57 92 126
57 91 115
56 88 118
56 91 122
56 90 114
55 89 114
55 89 108
57 91 125
57 91 120
57 92 118
54 88 100
57 91 126
56 90 115
57 91 124
57 91 121
55 88 110
58 93 130
58 93 129
55 89 105
54 88 107
58 92 122
58 92 129
57 91 120
57 91 118
57 92 124
57 91 125
55 89 122
56 89 114
59 93 129
59 93 126
55 89 120
55 89 108
56 90 114
57 90 121
57 92 120
57 90 130
56 90 121
57 91 126
57 91 128
56 90 114
57 91 120
57 91 120
56 89 125
57 91 121
56 90 122
55 89 111
55 89 121
57 91 119
56 89 121
55 88 116
58 92 129
56 89 121
56 90 115
56 90 123
56 89 119
54 87 112
56 90 119
57 90 121
55 88 104
56 89 128
55 88 113
57 90 119
56 88 116
54 85 111
54 86 113
53 85 107
54 85 106
54 85 112
52 82 97
90 103 62
123 126 0
110 114 0
110 113 0
110 111 0
108 109 0
92 93 0
95 94 0
74 76 4
63 69 14
37 48 16
36 47 19
36 49 23
36 48 13
37 49 19
37 48 23
35 47 18
42 54 25
39 50 18
49 53 16
76 75 8
83 82 0
82 80 0
76 75 0
86 86 0
88 87 0
93 94 0
95 96 0
104 105 0
108 109 0
109 109 0
110 112 0
103 105 0
104 107 0
117 120 0
117 121 0
115 119 0
115 119 0
120 123 0
111 114 0
112 118 0
114 118 0
121 127 0
121 124 0
121 126 0
121 127 0
124 130 0
117 125 0
126 129 0
120 124 0
121 126 0
125 129 0
123 127 0
127 129 0
125 128 0
134 138 0
133 137 0
132 136 0
124 129 0
131 136 0
128 134 0
125 130 0
140 142 0
129 135 0
132 137 0
133 138 0
134 138 0
137 139 0
136 138 0
136 139 0
135 138 0
137 142 0
131 135 0
130 135 0
135 140 0
139 141 0
138 142 0
134 140 0
136 139 0
132 137 0
134 141 0
137 141 0
138 140 0
138 141 0
138 142 0
142 143 0
135 140 0
135 139 0
143 145 0
140 144 0
135 141 0
140 143 0
142 144 0
141 145 0
137 142 0
138 142 0
139 144 0
143 145 0
137 142 0
141 145 0
144 145 0
141 145 0
135 141 0
138 144 0
136 142 0
140 143 0
140 143 0
142 145 0
141 144 0
144 146 0
133 140 0
143 146 0
139 144 0
144 145 0
140 143 0
140 145 0
141 145 0
137 142 0
141 145 0
139 144 0
145 147 0
142 146 0
139 143 0
140 145 0
144 146 0
143 147 0
145 147 0
142 145 0
142 146 0
143 147 0
142 146 0
139 144 0
143 147 0
142 146 0
142 146 0
143 147 0
144 146 0
141 146 0
142 146 0
143 147 0
141 169 0
142 168 0
139 167 0
141 167 0
146 171 0
141 168 0
139 166 0
143 169 0
141 168 0
144 170 0
138 166 0
140 168 0
143 169 0
140 168 0
142 169 0
142 168 0
140 168 0
142 168 0
139 166 0
141 168 0
142 168 0
143 169 0
143 169 0
141 167 0
144 169 0
143 168 0
144 169 0
141 168 0
137 166 0
135 162 0
138 166 0
136 164 0
141 168 0
137 165 0
141 168 0
140 167 0
140 167 0
140 166 0
136 163 0
136 164 0
141 167 0
141 168 0
139 165 0
138 165 0
137 165 0
139 165 0
139 166 0
136 164 0
140 167 0
136 163 0
136 162 0
135 162 0
137 163 0
135 161 0
137 163 0
136 163 0
143 168 0
135 161 0
135 162 0
136 164 0
134 160 0
137 163 0
136 163 0
136 162 0
129 156 0
136 163 0
140 165 0
139 165 0
135 161 0
135 161 0
133 158 0
133 160 0
132 160 0
128 155 0
130 158 0
127 154 0
130 155 0
132 158 0
129 154 0
134 160 0
135 161 0
130 156 0
126 153 0
132 158 0
132 157 0
128 153 0
130 156 0
126 150 0
128 153 0
130 152 0
122 146 0
119 147 0
127 152 0
118 144 0
121 147 0
117 141 0
115 140 0
118 142 0
117 142 0
111 135 0
114 138 0
116 138 0
111 133 0
112 135 0
116 136 0
117 139 0
106 126 0
108 125 0
106 124 0
97 115 0
95 112 0
93 112 23
87 104 16
100 117 32
75 93 28
84 101 48
82 98 48
74 90 35
70 87 36
65 81 28
73 88 37
61 76 33
69 86 36
68 84 41
67 84 44
62 78 27
81 96 27
70 85 28
86 104 35
82 98 27
83 100 0
83 102 14
97 116 16
97 116 0
102 123 0
107 128 0
113 138 0
117 142 0
108 134 52
51 83 98
54 86 114
54 86 113
52 84 105
55 88 119
55 89 112
57 91 123
56 90 117
56 90 122
56 89 117
54 87 108
54 87 100
54 87 105
56 89 122
56 90 117
53 86 115
53 86 111
57 91 123
57 91 126
57 91 122
55 89 120
55 89 122
55 89 105
57 91 126
55 89 112
56 90 118
56 89 111
55 88 108
57 91 118
56 90 115
57 91 121
60 94 139
57 91 121
57 91 129
56 90 122
55 88 107
56 89 111
56 90 113
57 90 121
56 90 117
57 92 126
54 88 108
57 91 118
56 91 113
55 88 111
58 92 117
56 90 117
54 88 108
55 89 117
57 91 124
57 91 126
57 91 124
58 93 124
55 89 120
56 89 126
57 91 125
56 89 118
56 90 120
58 93 131
58 92 133
57 90 126
57 92 129
56 90 120
54 88 113
56 90 120
56 91 108
56 90 121
56 90 121
57 92 122
57 91 124
53 86 100
55 89 120
56 91 126
57 90 121
58 91 115
58 93 137
57 92 129
55 88 117
59 93 134
58 92 130
54 87 108
56 91 120
57 91 124
55 88 115
57 91 122
55 89 111
55 88 110
58 92 125
57 91 126
54 88 108
56 90 122
56 90 115
58 92 128
56 90 120
57 91 126
53 85 108
57 90 122
59 94 136
56 90 117
58 92 132
55 88 105
54 87 111
57 90 126
55 88 122
57 91 130
55 88 104
56 89 117
54 87 110
55 88 114
58 92 128
54 87 112
56 90 123
54 86 114
56 88 123
55 86 105
54 86 101
53 85 109
54 85 103
53 84 104
55 85 110
52 80 96
116 122 38
113 118 0
116 120 0
113 115 0
113 116 0
107 108 0
107 109 0
99 99 0
91 92 0
89 90 0
84 83 0
87 82 0
64 66 14
56 56 0
69 67 8
57 57 12
63 63 8
60 62 0
69 68 0
64 63 0
83 82 0
83 81 0
70 70 0
86 86 0
87 86 0
107 103 0
86 87 0
101 101 0
88 90 0
100 102 0
107 108 0
105 105 0
112 113 0
114 114 0
106 111 0
124 126 0
117 121 0
114 118 0
116 122 0
114 118 0
121 123 0
116 119 0
118 121 0
121 124 0
134 134 0
125 130 0
128 131 0
120 125 0
126 130 0
129 133 0
121 125 0
123 128 0
128 133 0
126 133 0
123 129 0
128 134 0
127 133 0
127 133 0
130 135 0
125 129 0
131 133 0
131 136 0
133 137 0
135 138 0
126 134 0
135 138 0
136 140 0
137 141 0
132 137 0
139 142 0
135 137 0
135 139 0
134 137 0
133 137 0
138 140 0
134 138 0
136 140 0
136 139 0
138 141 0
132 137 0
138 141 0
145 146 0
138 142 0
138 141 0
135 140 0
139 143 0
133 138 0
136 140 0
136 139 0
136 142 0
137 142 0
140 144 0
137 141 0
132 138 0
141 144 0
137 142 0
135 140 0
138 142 0
133 139 0
138 142 0
140 145 0
142 145 0
139 143 0
142 143 0
143 145 0
141 144 0
139 144 0
141 144 0
140 144 0
138 142 0
139 143 0
140 144 0
145 146 0
144 145 0
139 143 0
142 146 0
137 143 0
143 146 0
143 146 0
141 145 0
141 144 0
139 143 0
141 145 0
140 143 0
141 146 0
143 146 0
140 144 0
137 143 0
142 146 0
140 143 0
141 145 0
141 145 0
142 146 0
142 146 0
141 143 0
145 147 0
144 147 0
143 147 0
145 147 0
143 146 0
140 168 0
140 168 0
141 168 0
140 168 0
138 166 0
144 170 0
140 166 0
140 168 0
141 168 0
144 170 0
144 169 0
140 167 0
140 168 0
140 167 0
138 166 0
139 166 0
141 168 0
141 168 0
142 167 0
138 166 0
140 167 0
144 169 0
141 168 0
138 166 0
136 164 0
140 168 0
141 167 0
141 168 0
141 168 0
142 168 0
142 167 0
142 168 0
140 166 0
142 168 0
141 167 0
139 164 0
138 165 0
132 162 0
136 164 0
134 163 0
137 163 0
139 167 0
141 167 0
140 168 0
137 162 0
134 162 0
135 162 0
137 164 0
134 162 0
141 168 0
140 167 0
137 166 0
140 167 0
134 162 0
133 162 0
135 161 0
132 160 0
137 164 0
135 161 0
137 162 0
140 166 0
132 159 0
138 165 0
134 161 0
136 163 0
133 157 0
137 162 0
133 159 0
136 161 0
136 161 0
128 158 0
134 161 0
125 152 0
134 160 0
134 158 0
131 157 0
133 160 0
129 156 0
125 151 0
132 158 0
131 158 0
134 161 0
128 154 0
121 147 0
130 153 0
125 151 0
131 157 0
125 151 0
125 150 0
127 153 0
119 143 0
122 150 0
128 153 0
123 146 0
126 149 0
119 146 0
124 148 0
121 145 0
118 141 0
111 134 0
118 142 0
105 128 0
113 135 0
101 123 0
115 138 0
108 132 0
114 136 0
105 125 0
95 114 0
86 105 0
91 109 0
96 114 16
102 120 0
85 101 16
96 115 16
83 99 14
80 96 23
74 89 43
80 96 0
74 89 35
69 85 39
72 89 40
70 84 16
74 91 22
58 76 27
78 93 25
79 94 22
76 91 20
80 98 23
76 93 27
87 104 24
101 120 16
96 116 0
104 125 14
110 131 0
115 138 0
118 144 0
117 142 0
120 145 18
72 98 83
51 82 98
52 86 102
52 83 105
54 87 115
57 91 124
55 87 115
55 88 104
56 90 120
54 88 111
55 88 119
56 90 115
56 90 120
53 87 108
56 90 120
57 91 122
57 91 122
56 90 122
56 89 109
54 87 107
56 91 121
57 91 128
54 88 103
58 92 128
55 89 114
55 88 112
57 91 122
57 91 121
57 92 120
56 91 130
56 91 122
55 89 110
57 91 124
57 92 124
57 92 129
56 89 121
57 92 127
57 92 124
54 87 111
58 92 123
56 91 115
57 92 115
57 91 128
55 89 113
54 87 108
56 90 118
54 86 113
56 89 118
56 90 111
56 89 128
55 89 113
56 90 118
56 90 115
57 90 122
55 89 114
55 88 124
56 91 114
54 88 107
58 92 130
55 89 121
56 89 115
57 91 122
58 92 129
57 91 118
57 91 122
58 93 126
55 88 111
56 90 114
54 88 104
58 92 126
54 88 115
57 92 121
58 92 125
56 90 117
57 92 122
57 91 120
54 88 114
56 91 121
56 89 122
57 91 122
56 90 121
54 89 110
58 92 128
58 92 133
56 91 117
55 89 115
54 87 113
58 92 128
58 92 130
54 87 108
55 89 107
58 92 130
56 89 122
55 88 108
56 90 114
56 89 112
56 89 107
57 90 121
55 89 120
56 89 111
56 88 116
54 86 104
55 88 116
57 91 117
56 88 115
56 89 116
56 89 119
55 89 120
55 87 113
55 89 109
56 88 110
57 89 127
56 88 114
54 86 112
53 85 94
54 85 105
53 84 104
55 85 111
52 83 95
52 83 102
65 86 83
126 130 0
124 126 0
110 113 0
114 116 0
111 113 0
96 99 0
102 102 0
106 105 0
95 93 0
83 84 0
81 81 0
82 81 0
77 75 0
84 81 0
84 81 0
59 58 0
84 79 0
72 69 0
85 80 0
86 82 0
75 75 0
83 80 0
85 84 0
103 102 0
96 95 0
88 89 0
95 94 0
101 102 0
103 104 0
100 99 0
108 109 0
106 107 0
98 103 0
115 116 0
118 119 0
113 115 0
112 112 0
114 116 0
123 124 0
111 113 0
115 119 0
123 127 0
121 126 0
126 129 0
123 127 0
124 127 0
118 123 0
124 126 0
113 119 0
119 127 0
126 129 0
127 130 0
121 127 0
123 126 0
130 134 0
129 133 0
119 128 0
130 137 0
128 133 0
134 137 0
127 134 0
125 130 0
133 137 0
131 135 0
130 134 0
137 140 0
130 135 0
130 136 0
130 135 0
133 137 0
130 138 0
132 135 0
124 130 0
131 137 0
133 136 0
139 141 0
133 138 0
142 144 0
135 140 0
129 135 0
143 145 0
139 142 0
133 138 0
139 141 0
137 143 0
141 143 0
138 142 0
135 137 0
135 139 0
137 141 0
141 145 0
137 141 0
134 141 0
136 141 0
136 142 0
132 137 0
142 144 0
140 143 0
139 143 0
140 144 0
139 142 0
142 143 0
143 145 0
141 145 0
140 144 0
136 142 0
139 143 0
140 144 0
140 144 0
142 145 0
140 144 0
140 144 0
137 142 0
142 144 0
144 146 0
137 141 0
137 142 0
146 147 0
142 146 0
138 144 0
141 143 0
142 144 0
141 145 0
142 146 0
140 145 0
142 146 0
144 146 0
140 145 0
144 145 0
143 146 0
144 146 0
144 146 0
142 146 0
144 146 0
143 146 0
138 144 0
140 144 0
139 143 0
146 148 0
141 146 0
135 165 0
140 168 0
139 167 0
140 168 0
139 167 0
141 168 0
144 169 0
141 168 0
142 168 0
143 169 0
139 167 0
142 168 0
138 167 0
141 168 0
142 167 0
139 166 0
141 167 0
139 166 0
143 169 0
143 169 0
136 164 0
138 166 0
139 165 0
142 167 0
141 168 0
140 167 0
142 168 0
139 166 0
140 166 0
137 163 0
142 167 0
140 167 0
141 167 0
133 161 0
142 167 0
140 167 0
140 167 0
140 166 0
143 168 0
137 164 0
138 166 0
138 165 0
139 166 0
138 165 0
137 163 0
138 163 0
134 160 0
135 161 0
136 162 0
139 165 0
136 164 0
134 162 0
135 160 0
141 166 0
137 165 0
141 167 0
136 164 0
138 164 0
134 159 0
139 166 0
135 161 0
137 161 0
138 164 0
136 163 0
131 158 0
135 160 0
135 161 0
132 161 0
133 160 0
132 158 0
134 161 0
127 154 0
130 157 0
129 156 0
126 153 0
130 156 0
126 153 0
126 151 0
132 158 0
131 158 0
126 150 0
130 155 0
127 152 0
128 154 0
124 150 0
128 152 0
129 155 0
121 146 0
123 148 0
117 142 0
129 153 0
120 147 0
122 146 0
124 149 0
122 148 0
115 140 0
117 141 0
119 143 0
119 142 0
117 140 0
114 136 0
113 135 0
114 136 0
109 130 0
102 124 0
107 128 0
105 126 0
113 133 0
104 125 0
96 116 0
103 122 0
102 119 0
91 109 0
110 127 16
97 115 28
99 116 28
79 96 23
78 93 0
73 88 28
83 99 28
81 96 27
80 95 31
82 99 35
80 96 32
84 100 0
73 88 0
74 90 22
91 107 0
81 98 16
95 113 22
97 116 16
98 116 0
109 129 0
116 137 0
111 133 0
118 140 0
112 134 0
130 152 0
120 143 0
99 125 68
52 84 102
57 90 123
55 88 114
55 87 106
55 88 114
53 86 113
57 90 124
55 88 115
54 87 106
55 87 114
57 90 124
54 87 112
55 89 112
57 91 129
55 89 118
53 87 109
55 89 124
54 88 109
55 89 118
57 91 121
54 88 113
57 92 126
58 93 125
54 88 113
54 87 114
58 92 125
56 90 126
56 90 115
56 90 128
55 90 114
54 88 110
56 90 124
55 88 114
57 92 125
54 88 115
56 90 113
56 90 115
54 87 118
56 90 122
55 89 110
57 90 122
57 92 126
55 88 117
57 91 121
58 92 128
55 88 113
56 89 124
54 87 108
57 91 121
56 91 118
56 91 125
55 89 120
57 90 120
58 92 122
57 91 122
57 90 129
54 88 115
58 92 130
55 89 114
56 90 118
54 87 111
56 89 120
56 90 121
57 91 124
57 91 124
57 91 117
56 90 124
58 92 129
58 92 125
55 89 110
57 91 122
57 91 121
57 91 117
55 89 120
57 91 125
55 89 105
57 91 122
56 90 118
57 91 126
58 92 131
57 91 118
56 90 117
56 90 111
56 89 121
55 88 108
57 91 124
55 89 117
57 90 118
56 90 113
56 89 119
56 89 118
56 90 115
56 90 117
55 89 111
53 86 100
56 90 108
56 90 115
56 90 121
56 90 117
56 89 123
56 89 118
56 89 110
55 88 114
56 88 122
53 85 98
55 88 120
57 90 120
56 88 115
55 88 108
54 87 108
54 87 111
56 89 111
56 88 114
53 85 107
52 82 101
54 85 109
54 86 100
55 86 113
52 81 97
102 110 56
120 123 0
123 127 0
116 120 0
110 112 0
112 113 0
107 110 0
111 110 0
99 99 0
99 97 0
93 94 0
97 93 0
95 93 0
81 79 0
84 82 0
86 84 0
67 66 0
75 73 0
90 87 0
80 78 0
89 85 0
80 78 0
89 86 0
86 84 0
88 89 0
90 89 0
88 90 0
96 95 0
101 101 0
98 99 0
94 95 0
103 103 0
102 103 0
104 105 0
106 109 0
107 109 0
105 109 0
116 119 0
103 108 0
119 121 0
120 122 0
116 117 0
116 117 0
123 126 0
122 126 0
120 121 0
120 125 0
126 129 0
121 123 0
117 122 0
123 125 0
117 124 0
123 128 0
123 127 0
121 127 0
128 133 0
125 129 0
124 129 0
130 133 0
128 131 0
132 135 0
131 132 0
130 133 0
131 137 0
133 136 0
127 131 0
127 133 0
132 135 0
133 136 0
134 138 0
131 132 0
131 136 0
132 134 0
134 138 0
130 136 0
135 140 0
135 140 0
137 141 0
136 140 0
134 137 0
135 138 0
138 140 0
136 140 0
138 141 0
138 141 0
136 140 0
134 140 0
136 141 0
132 138 0
131 137 0
137 140 0
138 141 0
134 139 0
135 141 0
137 140 0
138 141 0
134 140 0
136 140 0
141 144 0
136 139 0
139 141 0
142 145 0
138 141 0
138 142 0
139 142 0
140 144 0
139 143 0
138 143 0
138 142 0
142 145 0
140 142 0
137 142 0
141 143 0
140 145 0
137 141 0
141 144 0
141 142 0
138 143 0
141 145 0
139 143 0
144 145 0
142 144 0
139 144 0
141 144 0
137 143 0
142 144 0
141 145 0
140 144 0
146 147 0
143 147 0
142 146 0
140 144 0
141 145 0
142 145 0
143 146 0
143 145 0
143 146 0
146 147 0
139 145 0
141 146 0
143 146 0
138 167 0
142 169 0
142 169 0
147 171 0
145 170 0
142 169 0
141 167 0
141 167 0
138 167 0
142 168 0
142 168 0
137 164 0
148 172 0
139 167 0
139 166 0
137 165 0
141 168 0
143 168 0
142 168 0
135 164 0
137 165 0
138 165 0
143 168 0
133 163 0
139 166 0
137 165 0
143 168 0
138 165 0
136 164 0
136 163 0
141 168 0
141 167 0
139 165 0
141 167 0
136 165 0
137 165 0
140 167 0
142 167 0
140 166 0
136 163 0
136 163 0
136 162 0
142 167 0
134 163 0
141 166 0
133 160 0
137 165 0
132 160 0
135 162 0
139 166 0
129 157 0
136 162 0
137 163 0
136 161 0
135 161 0
129 157 0
136 164 0
128 157 0
135 163 0
133 160 0
139 165 0
137 163 0
139 164 0
132 159 0
132 157 0
130 157 0
134 159 0
127 153 0
126 153 0
134 160 0
134 159 0
132 159 0
130 156 0
131 157 0
125 154 0
137 161 0
125 151 0
126 152 0
134 159 0
130 158 0
125 152 0
125 150 0
126 151 0
124 149 0
125 151 0
129 154 0
128 153 0
121 148 0
121 147 0
118 142 0
120 145 0
116 140 0
122 146 0
121 146 0
117 144 0
117 142 0
119 142 0
113 137 0
118 141 0
111 133 0
118 141 0
111 131 0
108 131 0
113 135 0
110 130 0
100 120 0
103 124 0
103 122 0
99 117 0
106 125 0
101 120 0
98 117 0
84 100 0
80 97 0
91 104 0
88 105 0
84 99 16
88 103 0
83 99 14
79 94 0
92 108 0
83 96 0
87 102 0
86 102 0
80 93 14
85 102 27
75 92 0
80 97 16
98 114 0
101 118 0
99 119 0
103 122 0
106 125 0
105 127 0
110 131 0
121 142 0
116 143 0
125 149 0
124 149 0
115 142 31
58 88 102
53 86 115
54 86 102
55 88 112
54 87 120
56 90 121
53 87 108
54 87 110
54 87 112
53 87 104
56 90 117
56 89 122
56 90 117
55 88 107
56 90 123
56 90 117
51 84 102
56 90 118
54 88 111
56 90 114
55 88 119
57 90 119
55 88 111
55 89 122
56 90 126
54 87 115
54 87 115
56 89 115
57 91 124
57 91 125
54 88 110
57 91 125
58 92 127
55 89 111
57 91 126
55 88 117
53 87 102
56 91 122
56 90 118
56 89 122
54 89 115
56 90 121
55 89 117
56 90 118
58 92 136
55 88 107
57 91 124
58 92 120
55 89 117
55 88 117
55 90 115
58 91 126
55 89 107
57 91 122
55 89 108
58 92 129
57 91 121
58 92 126
57 92 124
57 91 122
56 90 124
56 90 121
55 89 110
55 88 111
56 90 122
54 86 117
55 89 120
56 90 118
54 88 114
54 88 110
57 92 122
56 89 120
56 90 121
57 92 125
55 90 110
55 89 117
55 89 124
55 89 115
55 88 108
55 88 108
56 89 122
55 88 111
55 89 107
57 91 125
56 91 124
56 90 121
58 92 125
55 89 117
56 89 123
56 90 118
56 90 122
56 88 116
56 89 116
55 88 113
57 90 132
57 91 123
55 88 122
56 90 117
57 91 128
54 87 114
55 88 113
55 88 107
55 88 115
56 89 119
56 89 124
54 87 117
52 83 94
55 87 123
53 84 110
52 84 93
55 87 109
54 86 113
55 86 113
54 85 107
54 84 110
54 85 108
53 84 107
51 80 93
58 83 92
126 130 32
125 128 0
122 124 0
117 119 0
116 119 0
115 116 0
101 104 0
117 117 0
99 99 0
91 91 0
95 95 0
82 81 0
92 92 0
95 93 0
91 88 0
86 82 0
75 76 0
82 82 0
85 83 0
88 86 0
75 75 0
90 85 0
89 89 0
87 87 0
99 98 0
85 86 0
93 93 0
98 98 0
96 96 0
96 98 0
95 95 0
112 114 0
99 101 0
111 113 0
105 108 0
109 110 0
110 113 0
112 113 0
114 116 0
115 117 0
117 121 0
126 127 0
116 120 0
118 119 0
124 125 0
120 122 0
119 122 0
125 128 0
127 130 0
118 122 0
118 124 0
123 124 0
128 131 0
129 131 0
125 128 0
126 130 0
128 132 0
130 133 0
124 130 0
129 133 0
134 137 0
131 133 0
128 132 0
134 137 0
130 133 0
127 133 0
132 135 0
129 133 0
131 133 0
135 139 0
138 141 0
135 138 0
127 132 0
132 135 0
131 135 0
132 136 0
134 139 0
132 138 0
132 137 0
135 140 0
135 136 0
136 140 0
135 138 0
131 134 0
135 139 0
130 133 0
132 138 0
138 142 0
139 142 0
137 141 0
134 138 0
131 138 0
136 140 0
136 139 0
138 141 0
136 140 0
138 140 0
134 139 0
140 142 0
135 138 0
140 143 0
138 140 0
138 143 0
137 141 0
136 139 0
143 144 0
139 143 0
138 141 0
142 143 0
143 146 0
141 142 0
138 142 0
136 143 0
140 142 0
141 145 0
138 142 0
139 143 0
139 144 0
143 146 0
138 142 0
135 142 0
141 143 0
141 144 0
144 146 0
140 144 0
139 143 0
140 144 0
142 144 0
142 145 0
141 145 0
139 143 0
143 144 0
142 145 0
143 146 0
143 145 0
139 144 0
143 145 0
136 142 0
142 145 0
142 146 0
145 147 0
140 167 0
138 168 0
141 167 0
146 170 0
142 168 0
142 169 0
140 167 0
141 167 0
142 168 0
142 169 0
139 165 0
146 171 0
144 169 0
138 165 0
139 167 0
138 166 0
142 168 0
142 168 0
138 165 0
141 168 0
141 168 0
139 166 0
137 165 0
140 166 0
138 162 0
138 165 0
137 164 0
140 167 0
134 162 0
141 168 0
137 165 0
136 163 0
135 164 0
139 166 0
138 164 0
139 165 0
139 167 0
134 161 0
141 167 0
137 163 0
136 164 0
134 161 0
136 164 0
136 164 0
143 167 0
138 165 0
136 162 0
142 167 0
138 164 0
140 166 0
130 158 0
136 164 0
138 163 0
137 164 0
136 162 0
134 162 0
132 159 0
137 163 0
138 164 0
131 159 0
134 160 0
136 163 0
135 162 0
133 160 0
131 157 0
135 158 0
130 157 0
136 161 0
127 153 0
133 160 0
126 154 0
129 155 0
134 159 0
128 154 0
127 153 0
131 157 0
128 153 0
121 148 0
129 156 0
126 152 0
126 152 0
126 153 0
126 152 0
118 143 0
126 150 0
124 150 0
122 146 0
119 144 0
128 152 0
127 152 0
127 152 0
117 140 0
118 144 0
121 144 0
122 145 0
112 133 0
118 142 0
116 138 0
115 140 0
106 131 0
115 137 0
109 131 0
123 146 0
104 125 0
114 135 0
111 133 0
102 122 0
114 135 0
95 116 0
107 128 0
93 112 0
101 121 0
98 117 0
98 116 0
97 113 0
97 113 0
83 97 0
73 89 0
76 90 0
93 108 0
95 112 0
88 102 23
90 107 0
86 102 0
104 119 0
92 108 0
82 96 0
95 110 0
100 117 0
102 121 0
98 116 0
106 126 0
111 130 0
105 128 0
114 134 0
123 145 0
120 142 0
124 149 0
121 146 0
117 137 23
88 115 77
53 85 104
53 85 110
51 83 105
53 86 110
52 84 95
55 88 107
56 89 122
55 88 115
53 86 104
56 89 120
54 87 117
54 86 115
54 87 109
55 89 112
57 91 117
56 90 113
55 88 115
53 86 106
53 86 92
55 89 111
55 89 113
56 90 119
56 90 117
56 90 110
55 89 109
57 91 126
53 86 111
56 90 122
57 91 123
59 93 129
57 91 128
56 90 122
56 90 112
56 90 114
56 91 117
56 89 114
57 91 118
57 91 125
58 92 131
58 92 125
57 91 126
56 90 118
54 88 108
57 91 125
57 90 125
55 89 110
58 92 118
55 90 114
57 90 114
56 89 120
56 91 126
55 89 117
57 91 120
57 92 120
57 91 122
57 91 120
57 91 124
56 90 128
56 90 114
56 90 118
57 91 121
55 89 122
57 90 121
57 92 121
55 89 117
57 91 124
56 90 115
55 89 115
57 91 124
55 89 114
56 90 108
57 91 128
58 92 135
58 92 121
57 90 117
58 91 122
57 91 126
56 89 117
56 90 122
57 91 122
57 90 120
56 91 120
56 90 122
56 89 111
56 90 118
56 90 116
57 90 117
54 86 113
55 88 117
56 89 128
55 89 120
55 88 115
56 88 110
53 85 114
55 88 111
56 89 115
55 89 116
56 90 117
56 89 119
56 89 113
55 89 119
57 89 119
53 86 113
56 89 119
55 87 113
54 86 102
56 88 116
55 87 117
54 86 110
54 86 116
56 87 113
53 85 98
55 88 116
53 85 107
54 86 109
51 81 101
54 82 107
93 115 77
137 140 0
132 135 0
125 125 0
122 122 0
122 121 0
119 119 0
104 106 0
106 107 0
103 102 0
101 101 0
92 92 0
100 98 0
100 98 0
92 91 0
92 90 0
81 78 0
86 85 0
91 89 0
81 81 0
81 81 0
88 86 0
98 96 0
100 97 0
105 103 0
98 96 0
82 83 0
97 96 0
92 92 0
97 97 0
93 95 0
101 103 0
101 105 0
111 109 0
101 104 0
106 108 0
114 116 0
115 117 0
110 111 0
116 117 0
112 115 0
118 120 0
114 116 0
112 116 0
121 124 0
121 123 0
117 122 0
126 130 0
124 127 0
114 122 0
120 121 0
117 123 0
122 125 0
126 131 0
125 128 0
125 129 0
126 129 0
126 131 0
124 128 0
130 131 0
125 131 0
134 137 0
125 130 0
132 135 0
131 135 0
128 132 0
127 130 0
134 135 0
134 135 0
136 137 0
134 136 0
130 133 0
129 134 0
133 136 0
132 136 0
134 137 0
133 134 0
130 136 0
134 139 0
132 136 0
135 139 0
138 140 0
136 139 0
134 139 0
136 140 0
140 141 0
129 133 0
137 139 0
137 140 0
134 138 0
137 141 0
137 141 0
132 137 0
131 137 0
136 139 0
134 138 0
135 140 0
139 142 0
139 141 0
134 138 0
137 141 0
137 142 0
135 141 0
136 141 0
136 140 0
139 143 0
142 144 0
136 142 0
139 142 0
139 144 0
137 141 0
138 141 0
141 145 0
141 143 0
140 143 0
141 144 0
134 142 0
136 142 0
140 145 0
139 142 0
141 145 0
139 142 0
142 144 0
140 144 0
137 142 0
142 145 0
136 142 0
139 142 0
142 145 0
137 141 0
141 144 0
142 145 0
143 146 0
140 144 0
138 143 0
139 142 0
142 143 0
139 144 0
145 147 0
145 146 0
139 145 0
140 145 0
140 167 0
141 168 0
144 169 0
140 168 0
145 171 0
142 169 0
141 168 0
142 168 0
140 166 0
142 167 0
138 165 0
140 165 0
145 170 0
141 167 0
139 166 0
139 165 0
141 166 0
139 166 0
137 164 0
139 165 0
140 165 0
141 166 0
143 168 0
136 164 0
136 164 0
142 167 0
140 167 0
137 164 0
139 167 0
145 169 0
138 166 0
136 163 0
138 165 0
139 166 0
135 163 0
140 168 0
136 163 0
141 167 0
137 165 0
136 162 0
139 165 0
135 163 0
135 161 0
131 159 0
139 165 0
134 161 0
137 164 0
139 166 0
137 164 0
137 164 0
139 164 0
136 162 0
132 160 0
135 161 0
133 160 0
137 163 0
134 160 0
134 161 0
134 160 0
133 159 0
136 160 0
133 159 0
135 162 0
136 161 0
126 154 0
130 156 0
131 156 0
131 158 0
135 160 0
132 158 0
132 158 0
127 155 0
122 149 0
133 159 0
126 153 0
126 151 0
124 151 0
130 154 0
126 152 0
123 148 0
127 153 0
121 145 0
126 152 0
129 155 0
123 148 0
120 146 0
120 147 0
121 144 0
122 147 0
120 146 0
114 139 0
124 149 0
116 140 0
125 149 0
122 146 0
124 146 0
107 132 0
118 140 0
110 136 0
123 145 0
113 134 0
121 142 0
106 126 0
116 137 0
105 128 0
106 124 0
106 126 0
115 134 0
101 119 0
99 118 0
105 123 0
109 125 0
102 120 0
95 112 0
97 114 0
98 117 0
97 113 0
82 96 0
96 110 0
86 102 0
96 111 0
104 118 0
97 113 0
87 102 0
86 103 0
92 106 0
97 115 0
101 118 0
94 111 0
102 119 0
99 117 0
100 121 0
107 129 0
107 131 0
114 136 0
122 145 0
123 147 0
127 151 0
116 139 0
136 163 23
143 174 37
53 85 101
51 83 103
54 86 119
53 85 108
54 87 107
54 87 116
53 85 108
54 88 116
57 92 130
55 88 116
53 85 102
55 87 109
56 91 121
55 89 117
55 88 111
55 87 115
53 87 111
55 88 118
53 87 111
54 86 111
54 87 108
54 86 113
55 88 117
55 88 113
56 89 117
56 89 112
55 89 115
56 90 114
53 86 112
57 91 111
56 91 117
53 86 107
56 90 122
56 90 110
57 90 121
56 91 115
58 92 135
56 89 117
55 89 108
55 89 117
55 89 120
58 91 130
57 91 118
54 88 111
55 89 113
56 90 118
56 89 120
56 89 118
56 90 129
54 87 108
57 91 121
57 91 117
56 90 117
54 89 105
57 91 126
53 87 111
57 91 128
55 89 117
54 88 117
55 89 107
55 88 110
53 86 108
55 88 117
57 91 121
58 92 126
53 86 105
56 90 121
55 89 115
55 89 117
57 92 117
57 90 115
55 89 111
53 86 102
57 92 126
56 89 117
54 87 107
55 89 110
57 91 124
56 90 117
56 91 118
55 88 116
58 91 129
56 89 115
56 89 125
55 89 118
56 89 115
55 89 110
58 92 130
56 88 116
56 89 111
55 88 122
55 89 110
56 89 114
55 88 107
57 90 121
54 87 105
56 88 113
56 89 118
55 88 114
56 90 119
56 89 118
57 90 120
55 87 102
54 87 100
55 87 115
58 92 128
53 85 95
54 85 106
55 87 108
54 86 106
55 87 114
54 85 106
56 89 117
52 83 100
53 83 109
53 82 97
59 88 106
147 172 44
146 168 0
124 129 0
126 129 0
122 124 0
120 121 0
117 118 0
108 109 0
108 106 0
113 110 0
93 94 0
93 94 0
99 96 0
96 95 0
104 101 0
104 101 0
101 97 0
93 92 0
86 86 0
86 86 0
81 81 0
96 92 0
97 93 0
86 85 0
92 91 0
104 103 0
90 88 0
111 109 0
95 95 0
104 102 0
106 107 0
103 103 0
109 110 0
110 109 0
110 110 0
109 110 0
110 111 0
104 106 0
119 121 0
108 109 0
104 108 0
112 115 0
119 121 0
114 116 0
121 122 0
123 127 0
121 125 0
120 123 0
122 126 0
117 119 0
110 116 0
119 123 0
118 122 0
123 126 0
122 123 0
126 127 0
123 128 0
129 130 0
125 130 0
125 129 0
123 127 0
122 127 0
127 132 0
125 127 0
123 129 0
132 134 0
131 132 0
122 126 0
130 134 0
127 131 0
134 138 0
135 138 0
138 140 0
137 139 0
130 133 0
136 137 0
128 133 0
130 133 0
136 138 0
134 137 0
130 134 0
130 134 0
127 131 0
133 135 0
130 136 0
131 138 0
133 137 0
134 137 0
139 142 0
139 142 0
139 140 0
135 138 0
131 137 0
133 138 0
137 140 0
134 137 0
134 138 0
132 138 0
133 140 0
134 139 0
137 141 0
136 140 0
141 144 0
140 144 0
137 142 0
138 142 0
132 136 0
135 138 0
140 142 0
139 143 0
138 142 0
136 142 0
138 143 0
134 140 0
139 142 0
137 140 0
139 142 0
138 144 0
140 143 0
142 143 0
140 143 0
138 143 0
139 143 0
140 142 0
140 143 0
143 144 0
139 144 0
136 142 0
138 143 0
137 141 0
138 143 0
140 144 0
144 144 0
141 144 0
135 142 0
141 145 0
136 141 0
143 146 0
136 142 0
144 146 0
141 144 0
138 141 0
142 168 0
143 168 0
141 168 0
138 166 0
142 168 0
142 168 0
138 165 0
140 167 0
142 169 0
137 164 0
142 168 0
141 168 0
139 166 0
140 168 0
143 169 0
140 167 0
142 168 0
141 167 0
141 167 0
141 167 0
142 167 0
138 164 0
143 168 0
140 166 0
142 167 0
139 164 0
139 167 0
137 165 0
135 163 0
139 165 0
138 164 0
141 167 0
134 161 0
138 164 0
138 164 0
137 163 0
135 160 0
140 164 0
134 162 0
133 162 0
134 161 0
138 164 0
138 165 0
134 162 0
138 163 0
138 164 0
134 162 0
137 163 0
132 158 0
134 160 0
135 160 0
137 162 0
137 164 0
133 160 0
139 164 0
134 160 0
128 155 0
132 159 0
132 159 0
132 160 0
129 157 0
132 157 0
131 157 0
129 158 0
135 160 0
134 160 0
131 155 0
132 158 0
130 157 0
131 156 0
130 156 0
129 155 0
129 156 0
138 162 0
127 152 0
124 151 0
127 154 0
130 155 0
129 153 0
122 150 0
119 144 0
131 157 0
127 153 0
123 148 0
129 155 0
119 145 0
119 144 0
123 146 0
121 144 0
123 148 0
129 151 0
112 138 0
123 145 0
126 150 0
120 143 0
120 144 0
114 137 0
108 130 0
124 146 0
118 138 0
115 138 0
114 134 0
108 129 0
109 130 0
112 133 0
114 135 0
115 135 0
98 118 0
103 122 0
104 123 0
100 119 0
98 115 0
106 124 0
97 116 0
105 121 0
93 107 0
95 110 0
90 105 0
90 107 0
98 114 0
88 103 0
80 94 0
91 106 0
89 104 0
92 108 0
94 109 0
92 109 0
95 111 0
98 115 0
102 120 0
111 127 0
99 119 0
108 129 0
106 129 0
122 145 0
113 136 0
128 152 0
114 138 0
118 144 0
151 182 0
155 183 0
105 132 63
53 86 100
51 82 99
53 85 106
54 87 110
53 85 96
54 87 115
54 86 119
53 87 111
54 86 105
53 85 103
56 89 118
54 87 110
55 88 108
55 88 117
55 88 106
55 89 114
54 87 114
55 88 115
53 86 102
56 90 120
54 86 110
56 89 118
57 92 121
57 91 128
55 88 114
53 87 95
56 90 121
58 91 124
57 91 128
55 88 114
56 90 117
55 89 113
55 89 121
55 89 108
54 88 106
57 91 120
55 89 117
55 88 118
55 89 120
54 88 107
56 90 121
55 89 113
56 90 118
58 92 134
59 94 135
58 92 117
58 92 121
56 90 115
57 91 120
57 91 121
58 92 128
57 92 125
54 88 111
56 90 122
56 89 114
58 93 131
56 91 120
54 88 114
56 91 118
56 90 115
54 88 107
56 90 115
56 90 122
57 91 111
55 89 120
57 91 121
56 89 117
57 91 122
56 90 121
56 90 124
55 89 104
56 90 115
55 89 113
54 87 108
56 89 110
55 88 118
57 91 115
56 90 125
54 88 110
56 89 126
57 91 125
57 91 126
54 87 111
56 89 114
57 91 124
56 90 117
57 90 124
55 88 119
56 89 118
56 89 117
55 88 113
56 90 121
56 90 118
56 89 110
57 91 122
55 88 102
56 89 119
55 88 111
56 89 115
53 86 107
58 91 126
55 87 109
55 87 112
54 86 110
55 88 109
55 87 115
51 84 94
55 86 114
52 83 97
52 83 99
53 85 94
51 81 89
54 85 104
53 83 107
52 82 93
102 129 76
153 181 0
150 180 0
135 148 0
124 129 0
119 120 0
116 118 0
123 124 0
111 112 0
109 108 0
116 114 0
107 103 0
101 100 0
104 101 0
110 108 0
101 98 0
100 99 0
95 92 0
103 99 0
99 97 0
94 91 0
92 92 0
100 99 0
96 93 0
99 95 0
95 93 0
108 106 0
96 97 0
106 104 0
88 89 0
105 105 0
103 102 0
107 108 0
108 105 0
110 110 0
93 97 0
106 108 0
108 108 0
113 114 0
115 118 0
109 112 0
110 111 0
110 111 0
113 115 0
115 116 0
118 119 0
123 124 0
117 118 0
118 121 0
113 115 0
116 121 0
115 120 0
124 126 0
120 124 0
122 125 0
127 128 0
118 124 0
126 130 0
122 125 0
128 130 0
123 125 0
135 136 0
131 132 0
125 128 0
118 122 0
128 131 0
124 129 0
126 131 0
127 130 0
127 133 0
130 131 0
128 132 0
133 136 0
127 131 0
126 131 0
133 134 0
135 138 0
134 137 0
136 141 0
132 136 0
129 135 0
134 136 0
135 137 0
130 134 0
133 136 0
134 138 0
132 136 0
135 137 0
132 138 0
139 141 0
132 137 0
136 136 0
137 139 0
134 140 0
137 139 0
134 136 0
129 134 0
134 139 0
137 140 0
133 137 0
140 143 0
139 141 0
132 138 0
140 141 0
137 139 0
131 137 0
141 142 0
141 142 0
139 141 0
137 141 0
140 143 0
138 141 0
136 140 0
140 143 0
134 138 0
140 144 0
139 143 0
142 145 0
137 142 0
145 147 0
141 144 0
143 144 0
140 143 0
144 143 0
139 141 0
141 144 0
140 143 0
141 144 0
140 142 0
143 143 0
142 145 0
140 144 0
139 142 0
145 146 0
144 147 0
136 140 0
137 141 0
139 142 0
142 144 0
144 146 0
139 144 0
141 145 0
141 144 0
140 167 0
138 167 0
139 166 0
139 167 0
143 169 0
140 166 0
138 165 0
139 167 0
136 164 0
140 165 0
136 165 0
142 167 0
137 164 0
137 165 0
135 162 0
134 163 0
142 168 0
135 163 0
142 168 0
139 167 0
134 162 0
140 166 0
142 166 0
141 165 0
136 164 0
135 162 0
134 161 0
139 166 0
136 164 0
136 163 0
135 163 0
135 163 0
136 163 0
139 165 0
136 163 0
138 165 0
141 167 0
138 162 0
136 162 0
138 163 0
140 164 0
137 162 0
141 167 0
137 162 0
134 160 0
135 160 0
134 162 0
137 164 0
132 160 0
132 159 0
137 162 0
137 164 0
133 158 0
136 163 0
133 158 0
135 161 0
132 159 0
136 161 0
137 163 0
133 157 0
137 162 0
133 159 0
131 155 0
133 157 0
136 161 0
136 161 0
129 155 0
128 155 0
133 157 0
128 154 0
130 155 0
133 158 0
133 159 0
131 157 0
132 156 0
125 150 0
130 156 0
124 150 0
121 149 0
124 151 0
122 149 0
121 146 0
130 154 0
126 150 0
129 152 0
127 152 0
117 143 0
121 145 0
120 145 0
125 149 0
123 147 0
122 146 0
121 143 0
114 138 0
123 144 0
123 145 0
120 142 0
114 139 0
118 139 0
117 138 0
113 134 0
116 137 0
114 137 0
100 122 0
105 127 0
113 135 0
108 126 0
104 123 0
102 120 0
99 119 0
113 131 0
104 123 0
101 119 0
97 116 0
98 115 0
102 119 0
104 118 0
100 118 0
94 109 0
91 108 0
98 114 0
91 107 0
98 115 0
103 118 0
98 116 0
102 119 0
100 115 0
105 122 0
107 124 0
105 124 0
98 116 0
108 128 0
108 127 0
112 134 0
120 143 0
121 142 0
123 147 0
116 139 0
152 181 0
159 186 0
152 182 0
140 169 30
54 84 95
52 85 111
50 81 93
53 85 108
53 86 113
54 87 113
52 84 106
55 88 121
52 86 106
55 88 112
55 89 118
53 85 102
57 91 121
53 85 101
55 89 114
54 88 111
56 89 118
55 88 116
56 90 117
56 89 113
56 90 117
56 89 115
55 90 113
54 87 105
54 87 107
57 91 117
56 91 118
53 86 102
55 88 105
54 88 111
55 89 111
56 90 113
56 89 117
54 87 109
57 92 122
55 89 113
57 91 118
55 89 112
57 91 124
58 92 130
54 88 107
55 88 110
55 88 120
55 89 115
56 90 115
58 91 124
56 89 120
55 89 110
55 88 111
57 92 120
55 88 117
54 87 111
56 89 111
56 90 118
53 87 111
56 90 111
56 90 117
55 89 120
55 89 115
57 91 125
56 91 125
56 89 111
54 88 107
58 92 129
53 86 102
55 88 110
57 90 122
54 86 111
56 90 117
56 90 115
54 87 105
56 89 111
55 88 107
56 90 108
55 88 116
55 89 117
56 90 121
56 90 117
57 91 115
57 91 118
57 90 111
56 89 115
55 88 113
56 89 125
58 91 125
56 90 114
57 91 124
55 89 111
57 91 124
54 87 107
56 90 125
57 90 115
54 86 105
56 89 105
56 89 119
55 89 115
56 90 121
56 89 113
53 86 114
54 86 98
55 88 110
56 89 116
54 85 102
56 89 113
54 87 111
56 89 115
56 89 114
55 86 117
50 81 83
57 89 113
57 89 120
55 86 112
52 83 103
52 81 94
49 78 89
153 177 27
154 182 0
155 184 0
152 178 0
134 139 0
128 128 0
125 126 0
123 124 0
114 113 0
111 110 0
95 99 0
103 102 0
102 98 0
99 96 0
105 104 0
97 96 0
100 99 0
104 100 0
97 94 0
91 91 0
101 98 0
106 104 0
102 97 0
100 98 0
103 100 0
99 97 0
95 95 0
99 96 0
102 100 0
89 90 0
86 86 0
102 101 0
108 106 0
105 106 0
102 104 0
106 106 0
115 114 0
110 112 0
121 119 0
113 114 0
118 118 0
114 116 0
107 110 0
121 120 0
114 117 0
115 116 0
119 121 0
120 120 0
118 121 0
116 117 0
117 120 0
123 124 0
117 120 0
120 121 0
124 128 0
127 128 0
123 126 0
126 130 0
119 125 0
117 123 0
130 133 0
125 127 0
128 131 0
126 129 0
129 131 0
127 130 0
126 128 0
128 132 0
122 124 0
128 131 0
135 136 0
134 136 0
131 133 0
126 130 0
135 135 0
132 134 0
126 130 0
130 134 0
132 133 0
129 132 0
135 139 0
132 133 0
124 129 0
135 138 0
132 136 0
133 135 0
132 136 0
132 135 0
132 136 0
140 140 0
131 134 0
134 137 0
136 139 0
131 136 0
138 139 0
137 140 0
129 136 0
135 139 0
133 136 0
136 138 0
136 140 0
135 138 0
140 143 0
140 143 0
139 142 0
138 141 0
134 139 0
137 140 0
138 140 0
138 141 0
132 136 0
136 140 0
142 143 0
137 140 0
140 141 0
139 144 0
134 140 0
134 140 0
140 141 0
140 144 0
142 144 0
138 143 0
137 140 0
139 142 0
137 143 0
140 143 0
141 144 0
139 143 0
145 147 0
138 142 0
142 143 0
141 143 0
140 141 0
146 147 0
142 145 0
138 142 0
140 144 0
139 144 0
142 142 0
142 144 0
142 144 0
143 146 0
144 147 0
145 171 0
140 166 0
143 168 0
141 167 0
143 168 0
145 170 0
137 165 0
141 167 0
141 167 0
142 167 0
140 167 0
142 167 0
145 169 0
138 164 0
138 164 0
139 166 0
137 165 0
140 167 0
136 163 0
138 165 0
139 165 0
137 163 0
141 167 0
139 165 0
135 162 0
140 166 0
138 166 0
145 169 0
136 164 0
142 167 0
135 162 0
140 166 0
134 162 0
137 162 0
136 164 0
132 161 0
138 166 0
135 162 0
137 162 0
139 165 0
133 160 0
130 159 0
138 163 0
136 162 0
134 161 0
135 163 0
136 162 0
137 164 0
132 160 0
136 162 0
131 157 0
133 160 0
133 158 0
131 158 0
131 158 0
131 158 0
137 163 0
134 161 0
129 156 0
129 158 0
131 157 0
127 156 0
130 156 0
133 159 0
130 153 0
128 154 0
129 154 0
133 158 0
135 161 0
131 156 0
123 150 0
136 162 0
129 153 0
127 152 0
130 154 0
129 155 0
133 157 0
123 149 0
124 150 0
124 148 0
124 150 0
123 150 0
120 143 0
121 146 0
123 145 0
128 152 0
127 152 0
122 146 0
122 146 0
121 144 0
121 145 0
120 143 0
118 142 0
120 143 0
116 139 0
115 139 0
112 137 0
111 133 0
117 141 0
114 138 0
110 132 0
118 142 0
116 137 0
111 133 0
108 128 0
106 125 0
110 130 0
110 130 0
99 118 0
109 128 0
103 122 0
110 130 0
105 123 0
102 120 0
103 117 0
100 117 0
92 111 0
96 112 0
88 105 0
94 110 0
100 116 0
97 113 0
101 117 0
93 108 0
97 112 0
99 118 0
100 118 0
99 117 0
100 118 0
102 122 0
107 128 0
115 135 0
107 128 0
113 135 0
118 141 0
121 143 0
113 134 0
142 168 0
155 184 0
156 184 0
155 186 0
155 184 0
89 119 73
50 81 93
50 82 100
54 86 114
53 86 115
50 82 95
54 87 110
54 87 120
54 86 112
52 85 100
53 85 110
55 88 112
53 86 108
55 88 110
56 90 121
57 90 121
56 90 119
56 89 111
54 88 106
55 88 114
57 90 118
54 88 110
55 90 114
54 87 106
56 89 115
52 85 100
56 90 113
53 86 112
56 90 124
53 86 99
56 90 122
55 88 111
56 89 117
56 90 124
54 87 108
54 86 107
55 89 107
55 89 117
57 91 122
53 87 104
56 90 111
56 89 120
53 86 107
57 90 117
56 89 114
53 86 107
55 88 114
55 88 114
57 91 125
55 88 115
56 89 110
55 88 115
54 88 104
56 90 124
55 89 111
56 90 115
57 92 120
55 89 120
59 93 134
56 89 110
55 89 117
55 89 111
55 88 114
54 88 107
54 86 113
57 91 124
53 86 108
56 90 111
55 88 110
56 89 113
57 91 125
57 90 118
56 90 110
56 89 113
57 91 121
56 90 113
57 91 120
56 90 113
56 90 117
53 84 104
54 88 111
54 87 108
55 89 115
53 86 105
57 91 121
55 89 114
56 91 121
57 91 117
57 90 120
54 86 111
56 89 110
55 88 115
55 89 113
53 86 113
55 87 115
53 85 103
57 91 121
56 89 111
56 88 112
53 85 111
55 88 108
56 88 123
55 88 111
54 86 110
56 88 106
53 84 108
55 87 115
55 88 102
54 85 101
52 84 97
53 84 100
53 83 108
53 83 106
51 80 100
106 131 76
154 179 0
149 178 0
150 176 0
152 179 0
148 172 0
133 135 0
120 120 0
117 117 0
116 114 0
113 111 0
108 109 0
108 106 0
108 105 0
97 97 0
101 98 0
101 96 0
104 102 0
101 98 0
95 93 0
101 97 0
103 98 0
97 93 0
110 108 0
100 99 0
98 97 0
106 104 0
98 95 0
103 101 0
106 105 0
102 100 0
92 93 0
111 110 0
105 106 0
95 96 0
117 115 0
108 107 0
106 105 0
101 101 0
111 112 0
112 114 0
114 115 0
113 114 0
109 112 0
114 115 0
112 115 0
117 121 0
120 123 0
117 121 0
122 122 0
120 119 0
117 120 0
119 118 0
121 121 0
122 123 0
125 126 0
112 117 0
125 127 0
117 121 0
126 127 0
132 132 0
124 127 0
120 124 0
119 125 0
124 123 0
128 132 0
124 126 0
123 124 0
132 134 0
128 131 0
124 129 0
132 133 0
133 136 0
128 131 0
122 124 0
120 123 0
125 130 0
132 134 0
131 133 0
130 133 0
134 136 0
136 136 0
131 135 0
135 136 0
133 137 0
130 135 0
132 136 0
133 135 0
132 135 0
131 132 0
130 135 0
134 138 0
135 137 0
135 139 0
134 136 0
137 139 0
137 140 0
134 138 0
138 140 0
129 135 0
132 135 0
131 133 0
141 142 0
139 140 0
136 138 0
136 138 0
139 142 0
137 142 0
138 141 0
137 141 0
133 138 0
137 140 0
141 141 0
139 141 0
141 142 0
135 140 0
138 140 0
136 138 0
140 142 0
138 142 0
141 143 0
137 141 0
141 144 0
137 140 0
142 144 0
140 143 0
140 142 0
134 140 0
142 143 0
139 142 0
143 143 0
144 145 0
139 143 0
137 141 0
143 144 0
143 146 0
138 142 0
136 141 0
143 145 0
141 145 0
142 145 0
140 143 0
140 144 0
139 143 0
142 168 0
138 166 0
141 167 0
143 169 0
145 170 0
139 167 0
137 164 0
139 166 0
138 165 0
139 166 0
138 165 0
141 167 0
137 164 0
140 167 0
146 171 0
138 165 0
138 165 0
139 166 0
142 166 0
139 165 0
140 166 0
138 166 0
138 164 0
134 162 0
139 165 0
137 165 0
134 162 0
131 158 0
138 164 0
140 166 0
137 163 0
143 168 0
133 160 0
135 161 0
136 163 0
136 163 0
138 165 0
133 160 0
132 159 0
136 163 0
140 164 0
140 165 0
132 159 0
137 163 0
138 163 0
137 164 0
134 159 0
132 160 0
137 163 0
134 160 0
133 159 0
133 158 0
134 160 0
135 160 0
134 160 0
127 153 0
131 158 0
129 155 0
135 161 0
130 156 0
130 157 0
130 158 0
129 155 0
131 157 0
130 155 0
127 153 0
130 157 0
129 153 0
129 157 0
131 158 0
126 151 0
126 152 0
128 155 0
128 154 0
125 149 0
126 151 0
128 153 0
128 154 0
119 143 0
124 149 0
124 150 0
124 149 0
114 138 0
121 146 0
120 145 0
116 142 0
127 149 0
121 146 0
116 140 0
125 149 0
120 144 0
119 142 0
120 144 0
124 147 0
110 133 0
120 142 0
113 134 0
117 138 0
112 133 0
116 139 0
116 138 0
104 128 0
111 132 0
110 131 0
103 125 0
100 120 0
105 128 0
97 116 0
97 116 0
102 121 0
107 126 0
107 127 0
103 122 0
103 119 0
107 123 0
94 111 0
99 117 0
108 127 0
90 108 0
96 112 0
103 120 0
101 115 0
96 113 0
93 110 0
99 117 0
102 119 0
100 117 0
109 126 0
107 125 0
107 126 0
111 131 0
113 133 0
114 135 0
117 139 0
113 137 0
110 132 0
128 153 0
152 182 0
159 188 0
153 181 0
150 181 0
152 183 0
148 177 24
62 92 103
53 84 110
51 83 92
49 81 78
54 87 115
52 84 99
54 86 113
55 87 117
52 83 100
55 90 117
55 89 110
55 88 105
55 89 114
53 85 94
54 86 109
55 89 121
54 87 102
55 89 114
53 86 118
55 89 111
56 89 108
56 90 122
54 87 102
56 88 115
55 88 108
54 87 107
56 89 121
53 87 111
56 89 108
56 89 108
56 90 121
55 89 115
54 88 106
52 85 104
54 88 111
55 88 112
55 89 115
56 90 120
56 90 117
53 86 97
59 93 130
55 88 108
56 90 120
56 89 120
57 91 126
54 88 110
55 88 100
57 91 115
56 90 110
55 89 113
57 90 120
57 91 128
56 90 124
53 86 107
56 90 117
53 86 105
55 89 118
53 86 104
56 90 115
56 89 117
56 90 118
54 88 107
56 90 118
56 90 125
57 92 120
55 89 122
55 87 111
56 90 126
53 86 107
54 88 111
56 90 110
56 90 114
55 88 113
57 91 125
54 87 113
55 88 113
57 90 120
53 85 110
55 89 110
58 93 126
53 85 108
54 87 110
55 88 117
55 88 110
54 87 108
54 87 116
56 89 117
58 92 130
55 88 115
55 88 120
55 88 108
54 87 110
56 89 117
51 83 97
56 89 119
53 87 99
56 88 117
53 85 100
54 86 102
54 86 105
56 89 112
56 89 114
53 84 92
54 86 104
55 87 110
56 88 117
54 87 110
50 82 86
52 83 103
54 86 111
52 82 100
54 84 103
58 85 78
139 167 20
151 177 0
150 176 0
154 178 0
152 181 0
153 183 0
147 169 0
123 125 0
122 121 0
108 106 0
116 114 0
112 108 0
109 106 0
105 101 0
102 100 0
104 103 0
107 104 0
107 101 0
106 102 0
101 100 0
96 93 0
108 105 0
95 93 0
101 99 0
101 99 0
104 100 0
101 97 0
100 99 0
108 105 0
93 90 0
96 95 0
98 96 0
101 100 0
101 100 0
101 103 0
100 102 0
114 112 0
105 105 0
104 107 0
103 104 0
112 112 0
111 112 0
109 110 0
112 111 0
120 120 0
107 111 0
117 118 0
109 112 0
120 121 0
121 123 0
120 120 0
120 121 0
126 126 0
124 125 0
121 122 0
121 122 0
117 122 0
120 122 0
124 126 0
125 131 0
130 132 0
123 125 0
118 120 0
118 124 0
132 135 0
131 131 0
130 132 0
120 125 0
129 131 0
124 126 0
129 128 0
128 131 0
128 129 0
130 130 0
127 132 0
128 131 0
133 135 0
124 130 0
134 136 0
136 137 0
124 130 0
131 134 0
126 130 0
135 137 0
135 138 0
133 136 0
133 138 0
135 136 0
130 137 0
138 140 0
136 138 0
135 138 0
131 135 0
135 136 0
137 139 0
135 137 0
138 140 0
138 141 0
136 139 0
135 138 0
139 142 0
131 133 0
135 137 0
135 137 0
138 141 0
132 137 0
138 138 0
136 139 0
135 137 0
136 137 0
137 140 0
140 143 0
134 138 0
137 140 0
140 142 0
138 142 0
137 141 0
137 141 0
141 143 0
133 138 0
139 143 0
137 139 0
139 142 0
137 141 0
139 142 0
137 139 0
137 142 0
140 142 0
140 143 0
137 141 0
138 142 0
141 143 0
141 143 0
141 143 0
142 144 0
138 142 0
142 144 0
141 143 0
138 142 0
136 142 0
137 142 0
143 146 0
142 144 0
142 144 0
139 168 0
141 167 0
143 168 0
136 164 0
143 169 0
136 164 0
143 169 0
141 167 0
137 166 0
140 166 0
134 162 0
138 166 0
136 164 0
143 168 0
141 166 0
141 167 0
142 168 0
140 165 0
137 165 0
142 168 0
141 165 0
135 160 0
139 164 0
135 163 0
139 166 0
138 164 0
137 165 0
135 161 0
136 163 0
139 166 0
140 166 0
135 163 0
134 162 0
137 165 0
136 163 0
138 164 0
135 163 0
136 163 0
134 161 0
140 165 0
138 162 0
141 168 0
134 160 0
137 162 0
133 158 0
136 163 0
134 160 0
132 160 0
137 163 0
127 153 0
132 158 0
131 157 0
132 156 0
133 160 0
129 155 0
136 160 0
132 159 0
131 158 0
131 157 0
125 152 0
131 156 0
133 159 0
127 154 0
127 156 0
127 152 0
133 158 0
129 154 0
129 155 0
128 155 0
128 155 0
130 156 0
130 154 0
125 152 0
133 156 0
122 145 0
125 150 0
126 151 0
123 149 0
125 150 0
128 152 0
119 140 0
124 147 0
129 153 0
120 146 0
125 149 0
127 150 0
121 145 0
126 149 0
117 141 0
124 149 0
115 138 0
117 140 0
119 139 0
124 147 0
113 137 0
105 128 0
116 139 0
113 135 0
113 135 0
111 132 0
104 128 0
106 126 0
115 135 0
104 125 0
110 130 0
109 128 0
98 118 0
103 122 0
103 124 0
108 127 0
101 120 0
111 130 0
101 119 0
88 105 0
112 128 0
97 114 0
103 122 0
91 106 0
105 121 0
106 123 0
103 121 0
98 115 0
107 125 0
95 110 0
95 113 0
104 121 0
114 132 0
104 123 0
108 125 0
113 132 0
107 126 0
112 133 0
114 134 0
116 137 0
115 135 0
140 165 0
154 184 0
153 182 0
152 183 0
150 181 0
155 181 0
153 183 0
151 180 0
107 137 54
50 82 95
52 84 98
52 84 104
53 85 103
52 85 93
54 86 94
52 84 96
53 85 99
53 86 105
55 88 119
54 87 112
57 91 117
55 87 114
55 89 113
52 85 101
56 90 116
55 88 98
56 89 116
52 85 100
55 88 109
54 88 106
56 89 118
55 88 107
53 85 97
56 90 110
55 89 113
55 88 111
56 90 122
54 87 97
55 89 115
55 88 118
55 89 107
55 89 112
56 89 114
56 89 118
57 91 125
56 89 114
56 90 118
55 88 113
57 91 120
56 90 131
56 90 120
56 90 124
53 86 102
55 89 114
54 88 114
53 86 105
56 90 117
56 90 113
55 88 104
55 89 111
57 91 117
56 89 108
55 88 117
55 88 100
54 87 105
57 91 128
55 88 114
55 88 111
56 90 117
55 87 117
54 87 110
55 89 110
55 88 118
52 86 105
56 90 108
55 88 114
56 89 124
56 90 114
55 89 115
55 89 114
56 89 111
54 88 107
56 90 117
56 89 125
56 90 122
54 88 117
51 83 100
56 89 114
56 90 111
56 89 114
55 88 110
55 88 114
54 88 111
54 86 104
55 89 117
54 88 108
55 88 111
54 87 113
54 87 108
54 86 111
52 83 99
57 90 121
56 89 115
53 87 96
53 86 107
56 89 113
55 88 112
51 82 86
52 84 97
54 87 109
54 85 113
52 83 99
55 87 117
52 83 97
51 82 91
55 87 112
51 81 87
55 86 109
49 78 89
50 80 81
110 132 56
143 171 0
152 178 0
153 176 0
152 176 0
152 178 0
151 177 0
148 175 0
141 159 0
124 121 0
124 122 0
116 114 0
112 109 0
112 111 0
109 106 0
107 103 0
107 106 0
109 106 0
105 104 0
95 93 0
104 102 0
102 97 0
90 87 0
100 98 0
101 98 0
102 98 0
92 92 0
106 103 0
103 100 0
104 103 0
97 98 0
100 97 0
100 98 0
109 107 0
111 108 0
114 113 0
110 107 0
106 106 0
114 113 0
114 113 0
118 116 0
113 113 0
118 120 0
108 108 0
124 121 0
117 117 0
112 113 0
113 116 0
115 114 0
114 116 0
122 122 0
113 116 0
120 119 0
123 124 0
121 122 0
118 118 0
126 128 0
126 123 0
129 127 0
122 124 0
118 120 0
125 127 0
123 127 0
120 123 0
120 124 0
127 129 0
126 131 0
129 131 0
130 131 0
133 136 0
127 130 0
124 127 0
131 134 0
130 133 0
132 135 0
128 130 0
124 126 0
132 135 0
131 132 0
130 132 0
131 132 0
133 135 0
135 136 0
137 139 0
136 138 0
130 134 0
135 137 0
135 137 0
137 136 0
133 136 0
136 139 0
135 137 0
139 139 0
132 136 0
133 135 0
132 134 0
138 139 0
130 134 0
132 136 0
134 137 0
132 136 0
131 136 0
141 142 0
131 135 0
137 139 0
132 135 0
134 136 0
136 138 0
134 136 0
137 141 0
136 139 0
140 142 0
135 137 0
137 140 0
134 139 0
141 141 0
139 139 0
137 138 0
140 142 0
137 141 0
137 137 0
140 141 0
140 142 0
139 143 0
142 143 0
136 140 0
143 146 0
138 141 0
139 144 0
136 140 0
137 140 0
140 144 0
136 142 0
137 142 0
141 143 0
142 143 0
139 143 0
138 141 0
139 143 0
141 144 0
139 143 0
135 141 0
139 143 0
139 143 0
142 144 0
142 168 0
141 167 0
141 167 0
144 168 0
140 166 0
141 167 0
141 166 0
136 163 0
140 166 0
139 165 0
138 164 0
139 166 0
138 165 0
140 166 0
137 164 0
136 163 0
137 164 0
141 164 0
139 166 0
140 167 0
138 163 0
145 168 0
139 164 0
136 162 0
142 168 0
141 166 0
136 163 0
136 162 0
137 164 0
136 162 0
134 162 0
139 165 0
137 163 0
133 161 0
141 167 0
135 162 0
134 163 0
139 165 0
138 163 0
134 160 0
136 161 0
134 162 0
135 163 0
137 164 0
139 162 0
134 160 0
137 163 0
135 160 0
137 164 0
133 160 0
130 156 0
129 156 0
131 157 0
133 158 0
131 157 0
128 154 0
133 158 0
135 161 0
131 155 0
131 158 0
131 156 0
126 153 0
131 156 0
131 156 0
134 158 0
127 152 0
132 157 0
126 153 0
132 155 0
122 149 0
131 157 0
126 151 0
125 153 0
125 149 0
125 152 0
124 148 0
127 151 0
123 145 0
131 155 0
124 148 0
127 150 0
127 149 0
124 148 0
122 147 0
123 147 0
122 147 0
125 149 0
121 144 0
119 142 0
116 138 0
121 144 0
121 143 0
127 151 0
118 142 0
123 145 0
116 138 0
113 135 0
110 130 0
116 136 0
111 133 0
120 141 0
114 133 0
116 138 0
113 133 0
111 132 0
110 132 0
109 128 0
98 118 0
104 124 0
93 112 0
105 122 0
107 125 0
101 119 0
97 114 0
105 124 0
102 119 0
104 120 0
100 119 0
101 118 0
102 119 0
99 116 0
106 122 0
110 128 0
107 124 0
107 125 0
105 123 0
103 120 0
105 123 0
102 120 0
113 133 0
108 128 0
119 138 0
114 137 0
115 135 0
128 150 0
151 180 0
152 181 0
152 181 0
145 174 0
152 180 0
150 179 0
150 179 0
151 178 0
145 173 0
63 94 98
51 82 84
52 85 98
53 84 114
52 84 100
53 86 102
52 84 100
55 88 106
53 86 106
53 86 99
54 87 111
54 86 113
55 89 117
54 87 106
54 87 104
54 87 107
55 87 121
54 87 103
56 89 113
52 85 95
54 87 115
55 89 117
56 89 109
53 86 103
56 89 113
54 87 110
53 86 102
57 90 120
56 89 114
55 88 114
55 89 117
54 87 117
55 88 113
56 90 121
57 90 117
53 86 97
55 89 122
54 87 110
54 87 105
57 91 130
57 90 124
55 88 102
57 91 118
55 88 115
55 88 108
54 87 100
55 88 115
54 87 111
55 88 121
57 91 121
56 89 121
56 89 110
57 91 124
55 89 114
55 89 111
55 89 117
52 86 102
56 90 120
56 89 114
57 91 121
57 92 121
53 87 100
55 89 120
57 90 126
55 89 113
54 87 108
56 90 118
56 89 114
55 88 111
55 88 108
55 89 115
54 87 104
55 88 113
54 87 110
55 89 113
53 86 94
52 85 100
56 90 120
56 90 113
54 87 107
54 87 108
54 87 111
53 86 113
55 88 117
55 88 117
56 89 116
55 88 111
54 87 105
55 88 107
53 85 96
54 87 111
54 85 105
55 88 109
55 88 115
54 87 99
54 86 99
57 90 116
53 84 98
52 83 101
51 82 92
52 83 87
55 87 113
55 87 112
54 85 110
51 83 93
52 83 100
55 86 114
55 86 111
53 83 108
52 82 97
71 97 72
146 173 0
150 178 0
146 173 0
150 173 0
156 181 0
150 175 0
153 178 0
154 177 0
154 180 0
140 153 0
117 117 0
123 120 0
123 121 0
112 110 0
103 102 0
102 100 0
104 102 0
103 101 0
110 105 0
97 94 0
93 91 0
101 97 0
108 105 0
106 104 0
103 98 0
98 93 0
105 103 0
90 90 0
106 105 0
88 88 0
97 95 0
106 104 0
100 99 0
104 103 0
108 106 0
108 102 0
113 113 0
110 108 0
96 98 0
105 103 0
105 106 0
115 115 0
110 112 0
113 113 0
113 113 0
113 114 0
109 109 0
118 121 0
115 115 0
124 122 0
119 122 0
118 118 0
117 121 0
116 118 0
120 121 0
122 122 0
121 122 0
122 122 0
127 129 0
122 123 0
125 127 0
118 119 0
120 122 0
128 130 0
126 127 0
126 126 0
129 131 0
129 131 0
125 125 0
125 126 0
126 128 0
129 128 0
129 129 0
128 131 0
123 126 0
131 133 0
130 130 0
135 135 0
129 131 0
128 130 0
125 129 0
131 133 0
130 133 0
134 136 0
132 133 0
131 132 0
134 135 0
129 132 0
136 137 0
136 138 0
131 133 0
129 130 0
137 137 0
133 136 0
130 133 0
134 137 0
134 137 0
132 134 0
133 137 0
136 137 0
136 139 0
132 135 0
138 137 0
136 138 0
139 141 0
133 138 0
129 134 0
137 138 0
135 137 0
135 137 0
135 138 0
139 141 0
135 139 0
141 141 0
140 142 0
137 139 0
138 142 0
138 139 0
139 142 0
136 138 0
137 139 0
136 139 0
139 141 0
137 141 0
134 141 0
139 140 0
138 141 0
141 142 0
141 142 0
137 141 0
138 140 0
140 143 0
134 139 0
141 145 0
140 143 0
140 143 0
140 144 0
139 142 0
146 147 0
142 145 0
140 142 0
140 141 0
140 143 0
142 144 0
138 140 0
141 167 0
141 168 0
140 167 0
140 167 0
138 163 0
137 164 0
140 166 0
139 166 0
135 162 0
142 168 0
136 164 0
134 161 0
138 164 0
137 163 0
141 166 0
138 165 0
140 166 0
139 166 0
139 165 0
140 165 0
138 165 0
136 163 0
136 163 0
141 166 0
136 165 0
135 163 0
136 162 0
132 159 0
141 165 0
139 165 0
140 165 0
139 163 0
139 165 0
139 163 0
133 161 0
137 163 0
135 162 0
131 158 0
134 161 0
135 161 0
134 159 0
138 163 0
140 163 0
139 164 0
144 167 0
133 159 0
132 157 0
136 161 0
138 162 0
129 157 0
131 156 0
137 163 0
133 159 0
134 161 0
131 157 0
132 158 0
130 155 0
130 157 0
131 159 0
134 157 0
136 160 0
127 154 0
131 157 0
126 151 0
129 156 0
130 157 0
123 150 0
128 153 0
130 154 0
124 147 0
123 149 0
128 152 0
131 155 0
120 146 0
127 154 0
125 148 0
124 148 0
123 149 0
124 147 0
127 152 0
125 149 0
126 149 0
127 151 0
125 149 0
124 148 0
121 144 0
119 142 0
122 143 0
119 143 0
123 146 0
127 149 0
120 142 0
124 147 0
122 144 0
120 144 0
116 138 0
115 136 0
116 137 0
112 133 0
105 125 0
113 135 0
112 133 0
103 124 0
110 128 0
110 130 0
117 136 0
107 128 0
98 117 0
111 130 0
103 123 0
105 125 0
119 136 0
100 118 0
107 124 0
101 118 0
106 124 0
101 117 0
104 120 0
109 126 0
102 120 0
114 131 0
114 130 0
102 119 0
108 124 0
109 126 0
113 131 0
104 120 0
105 123 0
109 129 0
113 134 0
111 132 0
115 135 0
109 132 0
130 154 0
150 179 0
154 180 0
145 174 0
145 173 0
145 174 0
148 175 0
143 172 0
147 175 0
145 173 0
148 177 0
125 152 47
48 78 76
50 81 93
52 84 100
54 87 106
54 86 109
53 86 109
57 90 119
52 85 103
55 87 112
52 85 100
54 87 110
54 87 113
52 84 102
55 88 108
55 89 118
55 88 105
51 84 97
56 89 115
56 89 111
53 85 100
55 89 110
56 90 120
54 87 110
56 89 113
55 89 109
56 90 123
54 87 111
55 90 105
54 87 104
54 88 111
55 88 105
56 89 114
56 89 114
56 90 113
55 89 111
57 91 121
53 86 114
55 89 110
55 88 110
56 90 113
55 88 108
56 89 115
55 88 110
55 88 114
55 89 118
55 89 111
57 90 115
53 87 99
56 89 115
55 88 118
55 89 102
53 86 97
54 87 108
54 87 108
57 91 115
54 88 117
56 90 125
56 90 117
59 93 130
54 87 113
56 89 115
55 89 114
55 88 114
56 90 110
57 91 125
55 89 115
56 90 115
54 88 102
57 91 123
54 86 105
56 90 117
55 88 115
53 86 108
57 91 118
53 86 104
55 88 115
56 89 114
56 89 111
55 87 113
54 87 107
57 91 118
53 85 108
53 86 105
55 88 117
55 88 116
53 85 105
56 89 112
53 86 108
56 89 110
55 89 111
55 88 119
55 87 110
56 89 114
55 87 112
52 85 108
55 89 110
55 88 114
54 86 107
54 86 102
54 87 108
55 87 113
55 87 114
53 84 105
54 85 108
54 85 106
52 84 93
49 77 86
52 82 102
52 81 107
127 153 44
147 170 0
152 178 0
149 171 0
151 175 0
148 171 0
146 168 0
147 173 0
144 169 0
150 175 0
150 172 0
141 151 0
120 115 0
113 112 0
112 109 0
115 111 0
107 102 0
112 107 0
99 95 0
101 97 0
93 91 0
100 96 0
106 100 0
104 100 0
107 102 0
89 85 0
104 99 0
98 94 0
104 99 0
103 100 0
110 109 0
98 95 0
99 97 0
107 107 0
101 97 0
102 100 0
115 112 0
105 104 0
104 103 0
124 121 0
113 112 0
100 99 0
113 111 0
111 112 0
105 103 0
109 107 0
115 115 0
112 115 0
115 116 0
109 111 0
108 111 0
122 120 0
123 123 0
118 118 0
122 121 0
113 113 0
117 118 0
123 126 0
121 123 0
122 125 0
122 124 0
121 122 0
123 126 0
123 126 0
123 126 0
125 124 0
125 126 0
127 128 0
127 131 0
130 131 0
118 121 0
126 126 0
122 126 0
121 125 0
128 131 0
125 130 0
121 125 0
130 132 0
128 131 0
132 133 0
127 129 0
130 133 0
133 133 0
131 133 0
134 134 0
132 133 0
117 123 0
138 137 0
134 138 0
135 136 0
130 132 0
134 133 0
130 132 0
133 136 0
132 135 0
131 135 0
135 137 0
136 139 0
135 138 0
136 139 0
135 138 0
134 136 0
135 137 0
133 136 0
134 138 0
140 141 0
139 139 0
132 134 0
138 140 0
139 140 0
134 136 0
133 137 0
138 140 0
141 142 0
137 137 0
136 138 0
139 139 0
137 137 0
137 140 0
136 139 0
138 141 0
133 135 0
136 138 0
137 139 0
139 141 0
141 141 0
139 143 0
138 138 0
141 143 0
139 142 0
144 144 0
140 142 0
135 139 0
142 143 0
138 138 0
139 142 0
142 144 0
138 139 0
144 144 0
141 143 0
139 142 0
138 140 0
141 143 0
141 145 0
138 141 0
137 142 0
141 166 0
137 165 0
143 168 0
144 168 0
148 171 0
140 166 0
140 166 0
134 160 0
140 165 0
142 168 0
137 165 0
140 166 0
141 166 0
138 165 0
134 162 0
136 163 0
139 166 0
138 165 0
139 166 0
139 165 0
135 162 0
137 164 0
132 159 0
137 163 0
135 162 0
141 166 0
136 162 0
134 161 0
139 165 0
136 160 0
134 158 0
136 161 0
141 165 0
137 162 0
137 161 0
134 161 0
131 156 0
135 159 0
135 161 0
136 162 0
136 161 0
136 160 0
137 162 0
138 162 0
128 154 0
130 157 0
135 161 0
133 157 0
134 159 0
140 165 0
129 156 0
128 155 0
136 161 0
130 156 0
132 158 0
133 158 0
135 160 0
131 156 0
130 154 0
133 158 0
125 153 0
129 154 0
133 159 0
134 158 0
130 155 0
135 158 0
129 154 0
126 150 0
132 156 0
125 149 0
130 156 0
127 152 0
128 153 0
125 150 0
129 152 0
126 152 0
124 147 0
126 151 0
124 148 0
125 149 0
119 142 0
120 143 0
124 151 0
127 149 0
126 149 0
132 155 0
123 148 0
121 145 0
119 144 0
124 146 0
124 145 0
120 143 0
120 143 0
118 141 0
114 135 0
112 133 0
114 136 0
119 140 0
106 125 0
114 135 0
114 135 0
121 141 0
103 125 0
113 134 0
111 131 0
114 134 0
117 136 0
114 133 0
105 124 0
105 122 0
101 119 0
106 124 0
102 119 0
104 123 0
103 120 0
99 117 0
111 129 0
107 124 0
104 122 0
107 123 0
98 114 0
110 126 0
99 117 0
100 117 0
110 127 0
104 124 0
112 130 0
102 119 0
108 127 0
108 127 0
115 133 0
108 128 0
121 144 0
149 176 0
140 169 0
149 176 0
152 179 0
146 173 0
155 182 0
148 173 0
140 168 0
138 165 0
148 175 0
144 171 0
142 172 0
100 124 57
52 83 102
53 85 103
51 83 99
52 84 100
52 84 91
52 83 108
55 88 121
52 85 102
53 86 107
50 83 95
54 86 103
53 86 98
53 85 102
53 86 102
55 89 112
56 88 115
53 86 109
53 86 109
54 88 107
53 86 108
55 87 110
51 83 90
54 88 108
53 86 92
56 90 118
53 86 104
56 90 107
53 85 95
55 88 118
55 88 104
55 88 113
53 86 99
57 91 113
54 87 114
57 91 120
54 87 102
55 89 111
55 89 111
54 87 105
53 86 111
55 89 120
55 88 115
54 87 114
54 87 104
53 86 97
57 91 117
54 88 108
52 85 94
54 87 111
55 88 117
54 87 105
53 87 99
54 87 105
54 88 107
54 88 108
57 91 125
56 90 120
55 89 97
58 92 125
56 90 111
54 88 102
55 89 110
52 85 100
56 89 114
54 86 107
57 90 110
56 90 104
55 88 111
55 88 108
53 86 99
55 89 115
53 87 107
55 89 110
54 87 105
55 88 105
57 90 125
54 88 104
55 89 111
60 94 132
55 89 111
57 90 120
55 87 114
52 84 105
53 86 102
55 88 113
56 90 114
55 89 115
53 85 102
53 85 105
53 85 97
54 86 105
55 87 108
54 86 104
53 86 102
53 86 102
54 86 103
55 88 111
54 86 105
54 85 99
52 82 96
55 87 111
55 85 100
54 84 106
52 82 97
52 82 96
54 85 105
51 80 92
91 113 81
142 167 0
146 171 0
139 163 0
148 173 0
147 170 0
145 172 0
150 173 0
145 171 0
146 169 0
144 169 0
152 173 0
144 166 0
135 144 0
121 117 0
115 112 0
108 106 0
108 106 0
113 108 0
98 94 0
105 101 0
111 108 0
108 105 0
98 94 0
107 102 0
98 94 0
104 100 0
110 105 0
95 92 0
113 108 0
99 97 0
99 96 0
106 104 0
102 99 0
101 99 0
106 103 0
105 105 0
105 104 0
100 99 0
109 106 0
114 112 0
111 108 0
112 112 0
111 110 0
117 115 0
117 115 0
111 113 0
113 114 0
120 120 0
114 112 0
115 115 0
113 112 0
118 117 0
112 116 0
119 120 0
117 118 0
119 120 0
121 120 0
117 119 0
116 117 0
126 124 0
124 123 0
125 126 0
126 128 0
124 126 0
121 122 0
121 123 0
124 126 0
121 122 0
122 122 0
127 129 0
115 118 0
127 129 0
126 128 0
129 132 0
128 131 0
130 133 0
131 131 0
131 131 0
126 128 0
132 131 0
134 134 0
128 128 0
124 128 0
125 127 0
128 130 0
135 137 0
136 137 0
127 129 0
135 136 0
133 133 0
131 133 0
138 139 0
134 135 0
132 135 0
136 136 0
131 133 0
133 133 0
133 136 0
133 135 0
133 136 0
138 138 0
135 136 0
131 134 0
139 138 0
140 140 0
138 140 0
133 139 0
135 137 0
135 137 0
137 139 0
137 139 0
136 138 0
134 138 0
141 142 0
140 141 0
135 138 0
137 141 0
138 139 0
141 142 0
136 137 0
139 141 0
137 139 0
135 137 0
137 139 0
141 141 0
139 141 0
138 141 0
135 138 0
138 143 0
139 141 0
139 139 0
140 141 0
137 141 0
137 141 0
141 141 0
137 140 0
140 142 0
139 141 0
142 144 0
138 141 0
138 142 0
139 143 0
140 143 0
141 144 0
141 144 0
145 145 0
143 169 0
136 165 0
137 164 0
140 166 0
143 167 0
137 164 0
141 167 0
139 166 0
134 162 0
142 166 0
136 162 0
138 164 0
136 163 0
140 167 0
141 166 0
137 163 0
138 163 0
136 163 0
137 164 0
136 162 0
142 167 0
140 165 0
141 166 0
137 163 0
140 165 0
135 161 0
136 162 0
135 160 0
134 162 0
139 165 0
135 160 0
142 166 0
133 158 0
137 161 0
138 163 0
135 162 0
131 159 0
138 163 0
132 159 0
136 159 0
130 157 0
135 160 0
131 157 0
134 160 0
135 159 0
133 157 0
136 163 0
135 159 0
129 157 0
132 157 0
136 161 0
132 156 0
130 157 0
127 155 0
132 159 0
130 154 0
136 162 0
127 153 0
132 157 0
127 152 0
128 154 0
135 158 0
127 154 0
126 151 0
134 158 0
130 152 0
132 154 0
130 154 0
127 152 0
130 154 0
129 151 0
130 154 0
126 150 0
124 149 0
132 155 0
128 150 0
132 154 0
124 149 0
129 154 0
125 149 0
128 151 0
127 151 0
116 140 0
125 147 0
125 148 0
125 148 0
121 145 0
127 150 0
120 142 0
107 130 0
119 142 0
115 138 0
124 145 0
120 142 0
119 141 0
117 139 0
120 141 0
116 137 0
116 135 0
106 129 0
105 125 0
110 130 0
116 134 0
103 123 0
110 129 0
106 125 0
105 124 0
104 122 0
102 121 0
106 126 0
112 129 0
102 120 0
101 119 0
97 113 0
106 122 0
107 125 0
110 127 0
100 115 0
102 118 0
109 125 0
111 126 0
101 117 0
94 110 0
112 129 0
102 120 0
102 119 0
100 119 0
105 122 0
109 128 0
110 130 0
110 128 0
128 151 0
149 175 0
145 175 0
145 173 0
145 170 0
151 178 0
149 177 0
148 176 0
149 173 0
145 172 0
143 169 0
140 167 0
147 174 0
141 167 0
145 171 29
70 97 88
51 82 92
53 84 98
51 81 94
52 84 105
54 86 105
53 85 111
50 81 93
52 84 109
56 89 120
52 85 98
55 87 114
53 86 109
56 89 114
54 87 104
54 86 102
54 88 99
55 88 110
57 90 114
53 85 104
54 87 105
55 89 108
53 86 111
53 85 103
54 87 106
53 86 100
56 89 114
56 88 119
55 88 110
55 88 113
56 90 109
55 88 107
53 85 100
53 86 108
53 85 113
53 86 102
55 88 111
53 86 99
54 87 108
56 90 121
57 92 122
54 87 104
55 89 118
52 84 110
57 90 114
55 88 118
54 88 108
54 88 105
56 90 114
55 88 114
56 89 115
56 90 113
54 87 108
55 87 113
53 86 104
57 90 117
54 87 105
54 88 111
54 88 105
56 89 114
55 88 108
54 88 108
54 88 111
53 86 110
55 88 105
55 88 114
56 89 114
55 87 113
58 91 120
56 90 123
53 85 108
54 87 111
54 88 107
54 87 111
55 89 111
54 86 110
56 90 118
55 87 104
54 86 108
54 87 119
55 89 118
52 84 107
56 89 110
54 87 97
54 86 110
54 87 105
56 89 115
53 85 107
55 89 108
55 87 114
52 83 85
54 86 105
55 88 108
53 86 105
51 83 92
53 85 108
56 89 117
56 89 111
53 85 102
54 86 101
55 87 103
54 86 104
53 84 102
53 84 104
52 83 103
53 83 89
61 89 93
141 165 32
151 175 0
143 166 0
141 164 0
145 165 0
145 165 0
146 170 0
150 174 0
139 162 0
148 171 0
147 169 0
147 171 0
149 172 0
146 167 0
138 148 0
122 116 0
116 113 0
111 107 0
108 101 0
102 98 0
100 97 0
108 104 0
106 101 0
112 106 0
110 105 0
107 101 0
118 113 0
102 99 0
103 98 0
101 99 0
101 98 0
115 109 0
109 106 0
108 104 0
106 101 0
112 108 0
110 108 0
111 107 0
113 111 0
108 107 0
102 101 0
102 96 0
110 110 0
111 109 0
114 113 0
116 115 0
118 116 0
124 121 0
118 117 0
116 114 0
114 112 0
119 118 0
117 116 0
118 119 0
116 117 0
117 115 0
116 115 0
120 119 0
124 123 0
119 120 0
122 122 0
121 122 0
128 129 0
123 123 0
123 122 0
126 125 0
127 129 0
126 125 0
126 124 0
123 127 0
125 126 0
121 120 0
128 131 0
123 123 0
127 127 0
128 128 0
132 129 0
127 127 0
131 132 0
127 130 0
132 134 0
129 130 0
129 131 0
126 130 0
132 132 0
131 132 0
128 128 0
125 128 0
128 130 0
127 127 0
132 133 0
128 132 0
133 132 0
138 138 0
135 135 0
133 134 0
131 134 0
132 133 0
132 136 0
139 139 0
132 134 0
133 137 0
139 139 0
131 133 0
128 133 0
139 140 0
131 135 0
140 140 0
130 134 0
137 140 0
129 132 0
136 138 0
136 139 0
135 138 0
136 138 0
137 138 0
135 137 0
136 137 0
138 138 0
137 139 0
134 139 0
135 137 0
144 144 0
136 136 0
135 137 0
134 135 0
138 141 0
137 139 0
138 140 0
135 138 0
139 140 0
137 140 0
136 137 0
141 142 0
142 143 0
136 139 0
140 143 0
139 140 0
142 143 0
140 142 0
142 142 0
139 141 0
138 140 0
142 143 0
138 142 0
144 144 0
135 140 0
144 168 0
140 165 0
139 165 0
136 164 0
139 166 0
139 166 0
137 165 0
141 168 0
136 164 0
137 163 0
141 166 0
137 163 0
139 166 0
141 166 0
138 163 0
140 165 0
140 165 0
137 164 0
136 163 0
139 165 0
134 160 0
132 159 0
139 166 0
138 164 0
129 158 0
134 162 0
137 164 0
138 162 0
140 165 0
138 164 0
135 162 0
134 161 0
132 159 0
140 165 0
135 162 0
137 162 0
135 161 0
137 165 0
132 158 0
138 162 0
134 160 0
137 159 0
132 158 0
135 162 0
132 157 0
136 162 0
134 161 0
133 159 0
135 163 0
132 157 0
134 158 0
134 160 0
133 159 0
132 159 0
129 153 0
133 157 0
133 157 0
131 155 0
126 150 0
131 154 0
132 156 0
128 154 0
134 160 0
129 153 0
132 157 0
128 153 0
131 156 0
127 151 0
123 147 0
128 152 0
128 152 0
129 153 0
126 149 0
124 148 0
129 153 0
128 150 0
130 152 0
125 149 0
128 149 0
128 153 0
119 140 0
119 142 0
114 142 0
123 146 0
122 146 0
115 139 0
123 147 0
115 136 0
111 135 0
122 143 0
112 133 0
120 141 0
119 142 0
113 134 0
112 134 0
112 134 0
110 132 0
106 128 0
121 141 0
106 126 0
107 129 0
106 127 0
112 131 0
104 125 0
115 134 0
113 131 0
108 126 0
104 123 0
100 118 0
106 125 0
109 126 0
106 123 0
110 128 0
102 119 0
95 113 0
109 125 0
105 120 0
114 129 0
111 127 0
102 118 0
111 129 0
102 118 0
109 126 0
105 122 0
110 126 0
101 118 0
111 129 0
111 128 0
109 129 0
104 122 0
124 146 0
147 173 0
151 176 0
144 168 0
152 177 0
143 168 0
136 163 0
150 176 0
146 171 0
142 169 0
151 178 0
144 170 0
147 173 0
143 167 0
143 170 0
146 173 0
132 157 52
51 84 97
50 82 88
49 80 90
49 80 96
53 85 105
53 86 101
51 83 90
52 84 97
54 86 100
50 82 97
53 86 110
52 85 104
53 85 98
56 89 117
53 87 94
51 84 82
53 86 115
54 86 111
53 86 93
55 88 117
54 88 113
52 84 97
55 88 110
53 86 102
56 88 110
54 87 111
55 90 118
53 87 97
55 89 110
53 86 108
53 86 104
52 85 100
56 89 117
51 84 92
56 89 114
54 87 104
52 85 105
56 89 113
57 90 114
54 88 102
53 86 99
56 89 118
55 89 108
56 90 118
55 89 115
55 88 113
54 87 104
55 88 121
55 88 102
55 89 113
54 87 100
55 88 108
55 88 118
56 89 113
54 87 108
54 87 110
54 87 110
54 87 105
54 88 114
52 85 99
56 89 118
52 85 95
56 89 117
54 86 111
57 90 126
54 87 110
54 86 108
52 84 104
55 89 114
56 90 118
54 87 107
54 87 107
55 89 120
58 92 119
54 87 107
55 88 115
53 87 99
52 83 104
57 90 120
54 86 104
56 90 113
55 88 100
55 87 111
53 85 102
53 85 91
56 89 117
53 84 101
54 86 107
52 85 105
55 87 113
54 86 113
55 86 110
53 84 99
55 87 111
52 83 100
54 86 109
52 84 105
53 86 105
54 86 107
52 82 96
53 84 92
51 83 88
52 82 93
53 84 100
47 74 82
127 151 46
141 166 0
143 163 0
141 164 0
143 167 0
147 170 0
137 159 0
145 164 0
146 169 0
144 163 0
140 158 0
143 164 0
148 167 0
149 169 0
152 173 0
148 168 0
128 136 0
123 117 0
117 112 0
117 113 0
107 102 0
100 92 0
107 103 0
100 95 0
99 92 0
106 100 0
97 95 0
105 100 0
113 106 0
108 103 0
104 100 0
107 102 0
108 105 0
107 105 0
108 103 0
106 101 0
105 100 0
107 106 0
113 111 0
114 109 0
107 105 0
112 107 0
102 99 0
102 101 0
109 107 0
106 103 0
110 110 0
114 111 0
125 122 0
116 114 0
115 113 0
121 120 0
113 113 0
113 112 0
117 119 0
123 119 0
122 120 0
122 120 0
122 121 0
121 119 0
117 116 0
118 118 0
124 124 0
120 121 0
118 119 0
124 123 0
119 120 0
124 126 0
126 125 0
125 128 0
126 121 0
127 127 0
124 124 0
128 129 0
129 129 0
130 131 0
127 131 0
131 130 0
128 127 0
128 128 0
130 131 0
130 131 0
127 129 0
129 131 0
132 131 0
125 127 0
128 130 0
125 129 0
127 131 0
126 129 0
134 133 0
135 137 0
137 136 0
129 132 0
131 133 0
131 133 0
135 135 0
131 132 0
126 129 0
136 135 0
136 136 0
133 134 0
138 138 0
137 139 0
137 137 0
131 134 0
141 137 0
136 135 0
139 139 0
135 136 0
133 135 0
137 138 0
136 137 0
134 138 0
133 136 0
135 137 0
135 137 0
138 140 0
137 138 0
138 138 0
139 140 0
138 139 0
138 138 0
138 139 0
134 139 0
138 140 0
137 141 0
139 139 0
133 136 0
139 139 0
137 140 0
139 140 0
136 140 0
138 137 0
141 143 0
142 143 0
138 140 0
138 141 0
136 139 0
138 141 0
140 142 0
137 140 0
140 141 0
141 143 0
142 142 0
141 143 0
137 139 0
141 142 0
140 166 0
140 165 0
137 164 0
139 165 0
141 167 0
137 165 0
141 167 0
138 163 0
141 166 0
142 166 0
138 164 0
134 162 0
140 165 0
137 162 0
137 164 0
132 160 0
134 161 0
136 162 0
139 164 0
140 165 0
136 161 0
140 165 0
141 166 0
140 165 0
142 165 0
133 160 0
142 167 0
134 161 0
131 158 0
138 164 0
136 162 0
132 160 0
132 160 0
134 161 0
130 158 0
139 163 0
133 160 0
138 165 0
130 157 0
134 158 0
137 162 0
134 160 0
131 158 0
131 156 0
127 153 0
136 161 0
133 159 0
137 162 0
135 161 0
135 159 0
135 160 0
133 158 0
132 158 0
126 150 0
130 156 0
128 153 0
134 160 0
124 150 0
124 151 0
130 155 0
130 156 0
131 155 0
126 150 0
126 151 0
124 149 0
124 150 0
128 151 0
124 149 0
125 151 0
128 151 0
129 153 0
129 153 0
129 153 0
124 147 0
126 150 0
128 152 0
121 144 0
127 151 0
123 147 0
124 147 0
120 144 0
128 148 0
111 137 0
113 136 0
121 145 0
122 143 0
117 140 0
124 145 0
120 142 0
116 139 0
115 138 0
119 140 0
111 133 0
121 142 0
112 134 0
111 132 0
114 135 0
118 139 0
110 131 0
109 128 0
113 134 0
114 134 0
109 127 0
121 141 0
104 123 0
111 129 0
105 123 0
106 124 0
104 123 0
99 118 0
107 125 0
99 118 0
88 105 0
92 108 0
108 126 0
107 123 0
112 130 0
105 121 0
108 124 0
103 119 0
102 119 0
106 121 0
102 119 0
104 119 0
110 127 0
113 131 0
105 122 0
114 129 0
98 115 0
134 154 0
141 165 0
143 169 0
148 174 0
138 164 0
140 167 0
141 167 0
145 167 0
142 167 0
148 172 0
139 165 0
140 166 0
141 166 0
135 162 0
145 170 0
142 168 0
139 166 0
140 164 0
100 125 73
47 76 82
52 84 96
49 80 90
53 85 97
51 83 95
53 85 99
53 85 95
53 85 104
53 86 98
52 85 93
53 86 100
53 85 103
55 87 118
52 85 102
54 87 113
55 89 107
55 89 110
53 87 104
53 86 108
54 88 105
53 86 106
55 88 100
52 84 99
53 86 105
53 86 102
54 87 107
53 87 108
54 88 107
54 88 111
54 87 104
53 86 99
54 87 104
52 85 99
55 88 111
54 87 102
51 84 90
57 90 114
54 87 105
55 88 105
52 84 99
55 88 115
54 87 115
54 88 108
55 89 110
55 88 111
54 87 102
57 91 121
53 87 94
54 88 107
55 88 111
56 90 114
55 88 111
54 87 110
53 86 108
55 88 105
58 92 130
56 90 115
54 88 104
53 86 111
56 89 108
56 90 107
54 86 111
53 86 114
55 89 111
55 88 107
52 84 102
54 87 110
54 87 110
52 85 90
52 85 88
54 88 108
55 88 110
54 87 113
53 85 102
56 89 121
55 88 115
53 86 102
52 86 94
53 85 100
55 88 113
55 88 111
54 86 107
54 88 113
56 89 114
56 88 107
57 91 121
53 86 104
53 86 101
55 88 105
54 86 111
55 87 108
53 86 108
54 86 103
54 86 110
50 80 94
54 85 112
55 86 113
53 85 103
54 85 99
49 78 81
53 84 94
51 81 99
51 80 95
100 123 68
138 158 0
148 168 0
144 159 0
144 166 0
139 160 0
143 163 0
137 161 0
149 168 0
143 167 0
143 162 0
138 160 0
142 161 0
147 166 0
144 164 0
142 158 0
142 161 0
143 163 0
140 152 0
115 111 0
120 111 0
114 106 0
114 105 0
110 103 0
109 104 0
94 89 0
104 98 0
99 95 0
99 94 0
99 93 0
104 97 0
106 101 0
108 103 0
111 103 0
109 103 0
101 98 0
102 99 0
107 101 0
113 109 0
109 106 0
113 107 0
97 95 0
113 111 0
109 106 0
108 105 0
108 106 0
112 110 0
114 111 0
109 108 0
117 114 0
116 114 0
116 115 0
112 107 0
108 106 0
115 114 0
123 119 0
120 118 0
115 114 0
113 112 0
122 120 0
119 120 0
118 119 0
117 117 0
120 118 0
122 120 0
120 123 0
119 122 0
127 124 0
123 122 0
122 121 0
125 124 0
128 125 0
123 123 0
126 126 0
124 124 0
122 124 0
127 128 0
134 132 0
131 130 0
134 132 0
127 126 0
126 126 0
131 131 0
130 129 0
130 129 0
124 125 0
132 132 0
126 125 0
127 128 0
128 132 0
125 129 0
135 136 0
130 130 0
130 130 0
133 135 0
133 132 0
134 135 0
130 132 0
135 136 0
134 136 0
127 131 0
132 133 0
138 137 0
130 133 0
134 135 0
131 131 0
134 133 0
135 137 0
136 134 0
135 137 0
133 134 0
136 138 0
130 132 0
133 136 0
132 136 0
136 137 0
133 136 0
138 138 0
133 134 0
133 136 0
138 139 0
134 138 0
135 138 0
137 138 0
141 141 0
138 138 0
139 142 0
136 140 0
136 140 0
135 138 0
135 138 0
134 136 0
141 141 0
140 139 0
139 141 0
141 142 0
137 140 0
137 139 0
138 140 0
138 141 0
142 142 0
144 141 0
141 142 0
139 142 0
139 140 0
140 142 0
142 143 0
137 140 0
141 142 0
138 165 0
138 164 0
139 166 0
139 165 0
138 165 0
139 165 0
138 164 0
142 167 0
136 162 0
139 165 0
141 166 0
140 166 0
143 167 0
140 166 0
137 164 0
136 161 0
139 164 0
137 163 0
135 162 0
137 162 0
137 163 0
141 166 0
134 160 0
138 162 0
138 165 0
139 165 0
141 166 0
136 162 0
139 163 0
141 167 0
135 161 0
138 164 0
134 161 0
135 161 0
136 161 0
135 160 0
134 160 0
133 160 0
137 162 0
138 163 0
135 160 0
135 158 0
131 156 0
133 159 0
135 159 0
133 158 0
131 156 0
131 156 0
131 156 0
131 157 0
130 156 0
126 152 0
130 156 0
132 156 0
127 151 0
127 151 0
132 155 0
135 160 0
131 155 0
126 153 0
134 159 0
122 150 0
134 159 0
127 153 0
125 149 0
125 149 0
126 153 0
128 152 0
131 155 0
129 151 0
130 154 0
126 148 0
122 146 0
121 145 0
130 152 0
120 144 0
124 144 0
123 146 0
126 149 0
122 144 0
116 141 0
117 139 0
117 139 0
125 148 0
120 143 0
115 140 0
130 152 0
120 143 0
119 141 0
117 139 0
114 137 0
118 138 0
116 136 0
119 140 0
119 137 0
119 140 0
111 131 0
109 128 0
109 128 0
113 134 0
114 136 0
112 131 0
110 128 0
105 122 0
108 127 0
112 130 0
115 135 0
108 126 0
97 117 0
110 127 0
110 126 0
107 123 0
100 117 0
107 123 0
115 132 0
91 109 0
100 117 0
99 115 0
97 114 0
104 119 0
104 119 0
100 115 0
111 127 0
112 129 0
111 125 0
106 124 0
101 120 0
104 121 0
130 152 0
145 170 0
145 169 0
140 164 0
136 160 0
144 170 0
139 164 0
140 164 0
143 167 0
138 162 0
141 165 0
141 165 0
142 169 0
140 164 0
140 165 0
141 167 0
138 165 0
137 162 0
129 157 0
140 166 0
75 103 81
50 81 98
51 81 89
54 86 107
51 83 95
53 84 108
49 82 86
52 85 104
50 81 88
52 84 96
52 84 100
54 87 90
51 83 100
51 83 89
54 87 100
51 83 113
54 88 111
54 87 103
55 87 109
55 88 110
53 86 100
55 89 105
51 83 97
56 90 111
54 88 105
52 84 95
54 86 102
52 85 94
49 82 81
53 85 107
55 88 118
54 85 104
52 84 110
54 87 105
53 86 99
51 84 94
55 88 111
54 87 110
53 87 102
57 90 125
54 88 97
54 87 102
55 88 110
54 87 110
55 88 111
53 86 95
57 90 117
54 87 102
55 88 110
56 90 115
54 87 107
53 86 92
57 90 125
56 90 121
56 89 118
52 84 95
55 88 105
53 86 110
54 87 108
53 86 105
56 89 117
55 89 110
54 87 104
52 84 99
54 86 105
54 88 104
56 89 108
52 84 94
53 85 104
55 88 110
56 89 118
54 87 110
53 86 102
54 86 110
54 86 100
56 89 115
54 87 102
54 86 110
54 87 107
52 84 97
54 87 117
54 87 110
53 86 97
54 87 111
55 87 115
52 84 100
53 85 101
54 86 111
54 87 101
54 87 102
53 83 98
56 87 113
54 86 102
51 82 91
56 88 113
52 84 99
53 85 101
51 80 87
54 86 95
54 86 103
52 82 102
50 78 83
83 106 81
140 164 0
142 162 0
138 158 0
136 158 0
143 162 0
137 153 0
139 161 0
140 159 0
140 157 0
139 155 0
140 158 0
139 158 0
143 160 0
144 162 0
142 159 0
149 166 0
142 156 0
147 163 0
142 163 0
142 156 0
116 109 0
111 103 0
114 107 0
101 95 0
109 100 0
90 88 0
103 96 0
99 93 0
99 92 0
109 102 0
108 100 0
107 103 0
107 101 0
101 100 0
98 95 0
105 100 0
107 102 0
106 103 0
105 101 0
111 108 0
106 101 0
112 106 0
111 106 0
104 101 0
108 104 0
119 115 0
114 110 0
115 111 0
120 115 0
119 116 0
115 113 0
117 114 0
116 115 0
124 120 0
107 105 0
112 111 0
120 119 0
115 113 0
120 121 0
123 121 0
122 121 0
119 119 0
122 119 0
120 118 0
121 121 0
119 119 0
121 121 0
126 124 0
119 119 0
132 130 0
124 124 0
124 124 0
123 124 0
125 126 0
120 119 0
129 127 0
132 129 0
128 128 0
129 130 0
126 126 0
128 125 0
124 123 0
119 119 0
127 127 0
130 130 0
130 129 0
133 134 0
129 127 0
129 130 0
132 131 0
134 133 0
133 131 0
127 130 0
130 131 0
128 131 0
131 132 0
138 137 0
133 135 0
132 134 0
128 130 0
133 134 0
133 134 0
135 134 0
132 131 0
125 128 0
130 132 0
136 137 0
137 137 0
130 132 0
130 133 0
136 137 0
135 135 0
135 137 0
134 136 0
135 134 0
136 138 0
137 138 0
135 135 0
139 140 0
137 135 0
137 139 0
139 141 0
132 135 0
136 137 0
139 141 0
137 138 0
138 138 0
134 136 0
132 136 0
135 137 0
142 142 0
137 141 0
143 142 0
140 141 0
138 139 0
133 137 0
142 144 0
138 138 0
136 138 0
139 141 0
138 142 0
138 142 0
141 140 0
142 143 0
139 143 0
140 142 0
142 142 0
141 142 0
138 140 0
140 166 0
137 164 0
139 166 0
134 161 0
136 162 0
142 167 0
141 165 0
139 165 0
140 163 0
135 162 0
141 166 0
139 166 0
138 164 0
136 162 0
139 163 0
139 164 0
135 161 0
137 163 0
139 162 0
137 163 0
140 165 0
134 162 0
134 161 0
134 161 0
139 162 0
137 161 0
133 160 0
138 163 0
135 159 0
139 163 0
135 159 0
136 161 0
136 162 0
134 159 0
135 162 0
141 165 0
138 163 0
134 159 0
137 162 0
130 156 0
130 157 0
134 158 0
133 158 0
128 153 0
137 161 0
135 158 0
135 160 0
136 162 0
136 160 0
134 159 0
132 157 0
130 154 0
131 155 0
134 157 0
130 154 0
133 158 0
132 156 0
130 154 0
128 151 0
125 151 0
126 150 0
134 158 0
131 155 0
128 151 0
126 149 0
128 153 0
131 156 0
124 149 0
124 147 0
124 148 0
126 151 0
122 147 0
125 148 0
127 149 0
125 148 0
124 147 0
119 142 0
122 145 0
125 148 0
120 144 0
115 138 0
129 150 0
119 144 0
118 140 0
124 144 0
125 148 0
131 152 0
122 143 0
113 136 0
119 141 0
112 132 0
117 139 0
119 142 0
115 136 0
110 130 0
112 131 0
111 131 0
112 132 0
108 126 0
115 134 0
109 128 0
124 144 0
111 126 0
114 132 0
112 129 0
100 119 0
109 126 0
106 124 0
114 131 0
107 125 0
102 119 0
107 124 0
96 114 0
99 116 0
119 134 0
86 101 0
110 124 0
110 126 0
108 124 0
103 118 0
107 121 0
104 119 0
103 118 0
104 121 0
111 129 0
108 125 0
103 119 0
137 158 0
142 166 0
144 167 0
134 157 0
140 164 0
135 159 0
153 177 0
140 164 0
139 163 0
136 161 0
150 175 0
134 159 0
139 164 0
134 158 0
143 166 0
144 167 0
141 166 0
138 162 0
134 160 0
138 163 0
134 157 0
132 159 26
55 84 95
53 84 107
51 82 91
52 84 101
49 80 72
51 82 102
53 85 99
53 85 97
52 84 97
48 81 72
54 86 105
52 85 97
53 85 110
52 84 95
54 86 108
55 88 107
51 84 83
55 87 118
52 85 90
55 87 113
55 88 113
51 84 99
53 86 94
53 86 104
56 89 114
55 88 115
54 88 104
53 86 102
55 88 111
56 90 110
53 86 102
54 87 102
53 86 107
54 86 100
54 87 110
54 87 100
55 88 113
55 88 108
54 88 111
53 85 102
57 90 113
53 85 97
55 89 110
55 87 104
55 88 111
54 87 108
56 89 117
54 87 104
53 86 107
53 85 99
53 87 108
56 90 114
54 87 105
53 86 97
55 88 113
53 86 100
57 91 122
52 85 102
53 86 102
55 88 102
54 86 111
55 88 102
54 87 113
55 88 117
54 86 111
54 87 104
55 88 113
54 88 114
54 87 107
54 87 108
54 87 107
53 87 108
53 86 104
54 86 105
54 86 107
54 87 99
53 85 102
53 85 94
56 88 113
54 87 104
52 84 95
53 87 107
53 86 108
54 86 111
52 84 96
53 85 97
54 87 106
52 82 105
55 87 110
53 85 105
52 84 96
54 85 108
52 84 97
53 85 94
54 86 110
54 86 104
51 82 101
52 82 95
52 81 90
52 82 87
62 89 77
126 146 18
141 161 0
143 163 0
126 143 0
134 154 0
133 154 0
142 158 0
141 159 0
139 156 0
138 152 0
135 151 0
139 157 0
146 161 0
145 161 0
145 161 0
142 154 0
145 160 0
144 160 0
149 166 0
143 157 0
141 155 0
143 156 0
125 122 0
123 115 0
116 106 0
102 92 0
102 93 0
102 94 0
111 101 0
97 91 0
103 96 0
94 87 0
104 98 0
112 104 0
100 95 0
103 100 0
103 95 0
95 89 0
100 94 0
112 107 0
112 107 0
118 109 0
125 120 0
120 115 0
107 101 0
108 103 0
105 103 0
107 103 0
112 110 0
106 103 0
114 110 0
114 114 0
105 104 0
110 109 0
112 109 0
122 120 0
120 117 0
124 122 0
110 113 0
121 121 0
125 123 0
121 118 0
117 116 0
123 120 0
125 123 0
121 122 0
121 118 0
123 120 0
121 121 0
126 123 0
122 121 0
120 119 0
126 122 0
124 123 0
123 121 0
127 126 0
130 129 0
118 118 0
131 129 0
131 128 0
128 127 0
128 128 0
132 130 0
124 125 0
133 130 0
135 131 0
129 127 0
124 125 0
127 128 0
129 128 0
132 132 0
128 128 0
129 129 0
127 128 0
136 136 0
132 132 0
137 136 0
128 130 0
129 130 0
133 131 0
132 131 0
128 132 0
128 131 0
134 134 0
134 134 0
136 136 0
133 133 0
133 133 0
139 138 0
131 131 0
135 135 0
129 130 0
135 136 0
134 137 0
138 137 0
134 135 0
137 138 0
130 132 0
136 133 0
137 138 0
135 135 0
136 136 0
136 139 0
133 134 0
137 136 0
135 136 0
137 139 0
137 139 0
141 139 0
138 138 0
137 138 0
136 138 0
137 139 0
139 138 0
139 139 0
137 139 0
140 141 0
137 138 0
135 137 0
142 142 0
140 141 0
137 141 0
142 143 0
136 139 0
140 141 0
138 139 0
140 141 0
138 141 0
139 139 0
141 141 0
142 167 0
140 166 0
136 163 0
137 163 0
134 161 0
140 165 0
144 168 0
141 166 0
134 161 0
141 166 0
133 160 0
138 164 0
140 165 0
141 167 0
140 165 0
138 163 0
138 162 0
137 162 0
137 163 0
139 163 0
133 159 0
136 161 0
136 162 0
135 161 0
136 163 0
135 161 0
135 159 0
134 158 0
136 160 0
136 161 0
137 162 0
139 163 0
132 157 0
136 162 0
132 159 0
135 159 0
137 163 0
135 158 0
133 158 0
138 163 0
133 159 0
134 160 0
129 154 0
136 162 0
128 156 0
132 157 0
129 153 0
135 159 0
136 159 0
129 155 0
128 153 0
129 154 0
128 154 0
135 158 0
126 151 0
127 152 0
132 157 0
130 156 0
131 155 0
129 154 0
126 149 0
120 145 0
128 152 0
127 149 0
130 156 0
132 157 0
122 147 0
133 155 0
124 146 0
126 150 0
132 156 0
128 152 0
129 152 0
121 143 0
121 144 0
122 146 0
126 146 0
124 146 0
122 141 0
131 153 0
121 144 0
124 146 0
124 145 0
123 145 0
127 149 0
120 142 0
124 143 0
121 141 0
115 135 0
123 143 0
113 135 0
112 133 0
119 140 0
112 134 0
107 130 0
111 132 0
109 128 0
115 134 0
109 126 0
105 124 0
110 128 0
110 129 0
113 132 0
114 132 0
113 131 0
119 137 0
110 129 0
107 124 0
106 123 0
107 125 0
109 125 0
102 120 0
104 120 0
102 118 0
111 126 0
103 120 0
101 116 0
99 113 0
102 117 0
104 120 0
109 124 0
108 123 0
114 129 0
106 123 0
105 120 0
108 125 0
145 166 0
139 162 0
143 167 0
144 165 0
138 162 0
139 163 0
133 158 0
136 160 0
139 162 0
143 166 0
137 160 0
143 163 0
140 163 0
139 162 0
139 163 0
129 152 0
141 166 0
134 157 0
138 163 0
136 162 0
128 154 0
132 155 0
138 163 0
109 134 44
52 80 80
51 82 93
50 81 92
50 82 97
51 83 97
53 85 105
50 82 97
52 85 98
49 81 77
53 85 111
53 85 103
53 86 100
53 86 102
52 84 93
53 85 99
54 87 110
51 83 95
54 87 114
52 85 100
54 86 113
52 85 95
54 86 111
53 84 110
55 89 110
52 85 92
52 84 105
53 86 102
52 85 99
52 84 97
52 84 92
55 88 114
57 91 117
54 87 107
54 87 105
52 85 104
54 87 110
54 87 111
55 89 115
52 84 92
53 86 100
50 82 92
55 87 114
54 87 100
55 88 120
55 88 111
54 87 105
53 84 102
53 86 104
55 88 110
55 88 107
55 88 114
53 86 99
53 85 95
54 87 107
54 87 108
53 85 99
57 91 122
55 88 105
53 85 94
55 88 118
53 86 102
52 83 97
56 88 110
54 87 108
52 84 97
54 86 105
54 87 113
57 90 115
50 82 99
53 86 99
53 85 105
51 82 99
55 88 113
53 86 102
51 83 99
55 87 116
54 86 105
55 88 105
56 89 111
56 89 114
53 86 99
54 86 114
55 87 107
54 86 108
53 83 104
51 83 100
55 88 111
54 85 104
51 81 89
52 84 108
52 84 97
51 82 97
54 85 101
52 83 96
55 86 114
52 83 95
50 80 90
47 77 83
59 84 80
116 132 31
125 143 0
132 150 0
127 144 0
135 153 0
138 155 0
137 152 0
135 151 0
133 152 0
134 148 0
138 154 0
138 153 0
134 148 0
143 160 0
136 151 0
134 147 0
126 144 0
141 156 0
146 158 0
142 158 0
137 148 0
140 153 0
146 160 0
142 154 0
126 122 0
114 104 0
103 94 0
120 110 0
98 91 0
94 89 0
109 101 0
100 95 0
97 92 0
109 102 0
109 100 0
100 91 0
103 95 0
109 105 0
102 96 0
110 103 0
108 103 0
113 108 0
106 99 0
115 108 0
109 104 0
110 103 0
102 100 0
114 110 0
118 114 0
106 102 0
115 109 0
113 108 0
109 105 0
105 104 0
114 111 0
120 113 0
119 117 0
113 109 0
105 105 0
122 119 0
123 120 0
121 118 0
127 123 0
114 114 0
118 117 0
116 114 0
122 120 0
120 120 0
126 122 0
118 121 0
125 124 0
115 113 0
119 120 0
122 121 0
123 123 0
128 124 0
128 128 0
124 123 0
122 124 0
128 128 0
125 125 0
124 121 0
128 127 0
131 128 0
128 128 0
127 129 0
129 130 0
128 127 0
131 130 0
125 126 0
129 129 0
134 134 0
124 124 0
128 129 0
128 129 0
129 129 0
134 133 0
137 136 0
128 128 0
135 134 0
133 134 0
127 128 0
132 133 0
132 129 0
128 130 0
132 134 0
132 133 0
134 133 0
137 135 0
136 136 0
133 135 0
130 130 0
133 134 0
130 133 0
135 132 0
133 133 0
137 138 0
134 134 0
130 130 0
130 133 0
135 132 0
136 136 0
137 137 0
136 136 0
139 140 0
139 140 0
132 134 0
137 137 0
131 135 0
139 141 0
138 140 0
137 137 0
138 139 0
138 138 0
143 142 0
135 137 0
139 139 0
137 141 0
141 141 0
136 138 0
139 140 0
140 140 0
138 139 0
133 136 0
140 140 0
140 142 0
138 142 0
140 143 0
140 141 0
138 140 0
136 136 0
137 164 0
142 166 0
139 165 0
138 164 0
139 164 0
136 163 0
139 165 0
134 161 0
137 165 0
142 167 0
138 164 0
138 164 0
134 161 0
138 162 0
136 161 0
137 162 0
135 163 0
134 160 0
138 163 0
136 161 0
135 162 0
138 162 0
134 161 0
134 160 0
136 161 0
135 160 0
135 159 0
137 162 0
135 158 0
133 157 0
138 162 0
135 159 0
134 157 0
137 162 0
135 159 0
134 162 0
134 158 0
138 162 0
137 163 0
129 154 0
133 160 0
131 154 0
133 158 0
130 155 0
134 158 0
124 150 0
134 157 0
130 154 0
132 156 0
135 157 0
131 154 0
137 160 0
133 158 0
127 152 0
133 156 0
131 156 0
125 150 0
134 157 0
132 154 0
131 155 0
128 152 0
130 154 0
123 145 0
133 156 0
126 149 0
133 156 0
130 152 0
119 144 0
119 145 0
123 144 0
127 150 0
122 144 0
123 146 0
119 142 0
122 146 0
125 146 0
124 145 0
110 131 0
128 149 0
122 146 0
128 149 0
126 150 0
121 142 0
125 146 0
113 134 0
121 143 0
127 147 0
115 137 0
120 142 0
119 140 0
117 136 0
103 125 0
102 122 0
116 135 0
115 135 0
113 131 0
114 133 0
114 132 0
110 128 0
109 126 0
120 138 0
101 119 0
111 129 0
106 124 0
107 127 0
112 130 0
109 126 0
111 130 0
110 127 0
108 124 0
107 125 0
108 124 0
115 130 0
112 127 0
105 122 0
104 120 0
110 127 0
94 108 0
108 122 0
101 115 0
106 121 0
97 113 0
109 124 0
103 116 0
112 130 0
136 158 0
135 156 0
141 163 0
137 158 0
134 155 0
139 159 0
135 157 0
136 157 0
137 159 0
143 165 0
129 151 0
130 152 0
129 152 0
130 154 0
127 151 0
142 164 0
141 164 0
136 158 0
134 157 0
128 150 0
130 153 0
125 149 0
131 156 0
127 152 0
135 161 0
114 136 48
50 79 89
50 82 82
50 79 91
50 82 90
50 82 95
51 82 105
53 85 100
52 85 92
52 85 104
50 83 83
55 87 112
53 85 106
52 84 86
52 84 98
46 77 79
53 86 105
51 83 81
55 87 115
53 86 102
52 83 100
54 86 107
54 87 107
52 85 97
51 84 90
52 84 100
54 87 110
56 90 114
53 86 97
53 86 95
55 87 104
56 89 121
53 87 94
51 83 90
54 87 108
51 84 95
52 85 102
54 85 108
54 88 115
55 89 111
50 82 95
52 84 95
54 87 114
55 89 95
53 86 105
54 86 105
55 89 114
53 86 97
54 86 105
56 89 115
55 88 105
55 88 104
52 84 94
56 89 110
52 85 100
53 86 99
55 88 114
56 89 108
54 86 100
53 86 102
53 86 99
55 88 100
52 84 94
54 86 100
55 88 104
53 86 104
53 86 94
55 87 105
55 89 104
53 86 94
55 87 108
54 87 110
54 86 105
56 90 113
49 81 81
54 87 107
52 84 99
54 86 99
53 85 97
54 87 102
54 87 120
51 82 99
53 85 107
54 86 107
51 81 93
54 86 110
50 81 90
51 82 97
51 82 99
53 84 98
52 83 92
51 82 89
51 80 93
51 81 85
49 79 75
51 81 96
49 78 84
48 76 83
114 135 51
124 139 0
139 161 0
129 147 0
133 146 0
131 143 0
138 152 0
136 153 0
129 147 0
142 157 0
141 154 0
129 143 0
134 149 0
138 153 0
136 149 0
133 146 0
142 159 0
134 148 0
133 147 0
126 134 0
132 142 0
133 141 0
150 162 0
139 150 0
138 149 0
144 157 0
127 128 0
114 107 0
117 107 0
102 93 0
112 104 0
110 101 0
104 94 0
102 96 0
99 90 0
104 97 0
96 92 0
103 93 0
108 102 0
113 106 0
108 102 0
99 94 0
100 95 0
104 98 0
110 105 0
107 102 0
108 102 0
106 100 0
108 105 0
114 107 0
107 102 0
111 105 0
119 110 0
105 99 0
115 113 0
117 115 0
117 112 0
119 115 0
119 118 0
118 114 0
124 119 0
115 112 0
114 111 0
121 118 0
121 117 0
121 120 0
114 113 0
121 119 0
125 123 0
125 123 0
124 122 0
118 117 0
122 120 0
123 123 0
130 127 0
121 120 0
125 123 0
123 122 0
126 124 0
129 126 0
128 125 0
123 121 0
124 121 0
128 128 0
126 126 0
130 130 0
127 128 0
133 132 0
126 124 0
122 123 0
126 129 0
132 131 0
129 129 0
131 133 0
130 127 0
129 129 0
132 131 0
135 135 0
132 133 0
136 134 0
136 134 0
126 128 0
132 133 0
129 129 0
127 128 0
136 135 0
134 134 0
131 131 0
131 130 0
138 138 0
133 134 0
135 133 0
133 134 0
137 136 0
128 131 0
135 137 0
138 137 0
136 133 0
134 136 0
138 139 0
137 137 0
138 137 0
140 139 0
144 141 0
131 131 0
135 137 0
138 138 0
133 133 0
143 141 0
138 135 0
144 144 0
137 140 0
138 138 0
134 137 0
139 137 0
135 138 0
134 138 0
138 139 0
140 140 0
137 138 0
141 141 0
139 138 0
134 136 0
139 139 0
136 139 0
138 139 0
140 138 0
138 140 0
141 141 0
140 141 0
136 136 0
141 141 0
141 167 0
142 168 0
136 162 0
137 164 0
138 164 0
136 164 0
141 165 0
140 165 0
139 165 0
133 160 0
138 164 0
136 161 0
138 163 0
136 160 0
135 160 0
139 164 0
137 164 0
139 165 0
139 164 0
138 163 0
138 163 0
135 160 0
136 163 0
133 160 0
138 162 0
140 165 0
136 161 0
135 159 0
138 161 0
135 159 0
137 161 0
137 161 0
133 157 0
134 161 0
138 162 0
135 159 0
135 160 0
133 157 0
132 155 0
138 161 0
133 158 0
136 161 0
129 153 0
128 154 0
136 161 0
128 155 0
133 159 0
127 152 0
132 155 0
132 157 0
127 151 0
132 156 0
128 152 0
131 154 0
132 155 0
132 157 0
135 157 0
133 158 0
129 152 0
131 155 0
132 155 0
125 149 0
121 144 0
127 151 0
127 148 0
126 149 0
130 154 0
122 147 0
123 147 0
130 153 0
124 145 0
121 144 0
124 147 0
126 148 0
121 142 0
128 152 0
120 143 0
122 144 0
123 143 0
117 139 0
119 140 0
116 139 0
117 137 0
118 141 0
126 146 0
111 133 0
118 138 0
122 143 0
117 139 0
120 140 0
113 133 0
125 144 0
116 136 0
111 130 0
118 139 0
111 132 0
114 133 0
112 132 0
103 121 0
117 134 0
126 143 0
110 128 0
100 119 0
115 133 0
105 122 0
103 120 0
102 118 0
102 119 0
114 130 0
111 126 0
109 124 0
107 121 0
103 118 0
106 122 0
105 121 0
104 119 0
94 107 0
99 113 0
90 104 0
113 127 0
112 127 0
109 123 0
97 111 0
132 150 0
136 155 0
135 155 0
134 155 0
133 153 0
145 165 0
137 158 0
136 157 0
139 158 0
140 162 0
134 156 0
137 158 0
131 152 0
122 144 0
132 153 0
134 156 0
133 156 0
127 149 0
132 153 0
131 155 0
130 154 0
137 161 0
128 152 0
122 146 0
122 147 0
121 145 0
129 153 0
128 152 0
104 130 60
47 76 67
50 82 91
50 81 85
51 81 97
52 83 90
53 85 97
55 87 106
53 85 100
53 86 106
52 84 97
52 84 102
51 82 92
51 82 91
53 86 99
52 85 92
51 83 94
53 85 105
52 84 102
52 84 102
51 84 95
55 88 111
52 85 94
55 88 110
56 89 111
55 88 110
53 86 92
55 88 113
52 85 94
55 89 114
50 80 83
52 85 95
52 85 97
55 88 105
54 86 115
54 88 108
52 85 92
53 85 105
53 86 108
55 88 110
54 87 111
53 87 104
53 85 100
54 86 100
54 86 107
54 87 99
53 86 100
52 84 99
52 84 100
54 88 110
53 86 99
54 86 111
55 89 105
52 84 90
56 90 121
54 87 95
53 86 100
56 89 108
54 87 115
52 85 99
54 86 107
52 84 102
51 83 97
53 85 104
53 86 104
53 85 104
55 88 107
54 87 107
56 89 115
50 82 86
51 84 86
55 89 104
52 85 96
52 84 94
53 85 100
54 87 102
51 83 104
52 84 85
52 85 97
53 85 111
53 84 102
56 88 118
51 82 87
54 86 105
52 84 88
52 83 92
55 88 108
52 83 92
51 82 93
54 85 91
52 83 96
54 85 105
48 77 74
48 77 79
49 79 79
47 77 75
105 125 54
126 142 0
123 140 0
130 147 0
120 135 0
123 137 0
133 149 0
138 153 0
130 147 0
127 140 0
131 145 0
135 148 0
125 140 0
135 151 0
132 144 0
134 148 0
142 155 0
130 141 0
139 153 0
132 146 0
141 155 0
122 132 0
141 151 0
141 153 0
133 142 0
137 143 0
139 148 0
136 143 0
128 133 0
118 114 0
108 99 0
107 95 0
117 107 0
97 88 0
98 88 0
97 89 0
107 96 0
109 99 0
100 93 0
106 96 0
99 91 0
106 100 0
110 104 0
99 95 0
110 102 0
117 109 0
105 101 0
109 104 0
113 106 0
111 105 0
121 115 0
106 102 0
117 108 0
110 105 0
116 113 0
114 110 0
116 109 0
112 109 0
124 120 0
113 111 0
119 112 0
117 115 0
119 118 0
118 117 0
123 117 0
120 114 0
125 119 0
117 113 0
117 114 0
122 119 0
124 124 0
123 118 0
120 116 0
123 123 0
132 127 0
123 118 0
123 118 0
121 120 0
125 124 0
119 117 0
120 120 0
119 118 0
130 127 0
131 124 0
131 126 0
132 128 0
126 126 0
124 123 0
124 122 0
130 127 0
123 121 0
131 127 0
131 130 0
132 128 0
126 126 0
131 130 0
131 130 0
127 124 0
131 130 0
136 132 0
135 132 0
140 137 0
129 129 0
130 128 0
131 131 0
127 125 0
136 136 0
132 130 0
126 129 0
132 133 0
131 133 0
133 132 0
135 134 0
128 129 0
135 135 0
139 135 0
132 133 0
132 132 0
128 128 0
137 139 0
135 136 0
132 135 0
131 132 0
135 133 0
132 132 0
136 135 0
137 136 0
140 141 0
142 142 0
138 137 0
141 141 0
139 139 0
138 137 0
137 139 0
135 137 0
134 135 0
139 138 0
140 140 0
139 138 0
141 138 0
135 137 0
138 138 0
141 140 0
142 142 0
139 140 0
135 138 0
136 137 0
143 143 0
141 142 0
143 142 0
137 137 0
139 142 0
139 141 0
135 162 0
137 164 0
137 163 0
135 163 0
143 168 0
138 163 0
138 163 0
137 163 0
138 164 0
138 164 0
137 162 0
139 166 0
140 164 0
136 162 0
138 164 0
137 162 0
135 161 0
138 164 0
133 160 0
138 163 0
135 161 0
141 165 0
139 163 0
138 163 0
139 161 0
132 159 0
132 156 0
133 157 0
139 165 0
140 164 0
134 158 0
130 156 0
134 159 0
135 158 0
137 160 0
133 156 0
133 157 0
132 158 0
133 156 0
135 158 0
132 157 0
133 156 0
129 153 0
135 157 0
128 155 0
130 152 0
130 153 0
132 156 0
130 155 0
134 156 0
129 154 0
133 158 0
127 151 0
129 155 0
129 151 0
128 152 0
131 153 0
134 157 0
126 150 0
121 146 0
124 148 0
128 152 0
129 152 0
134 156 0
124 145 0
123 144 0
131 152 0
127 150 0
127 150 0
125 148 0
126 149 0
128 149 0
117 137 0
127 149 0
123 146 0
134 154 0
127 148 0
120 143 0
124 144 0
121 143 0
123 143 0
121 143 0
120 141 0
123 143 0
128 149 0
115 136 0
118 138 0
123 143 0
121 142 0
115 137 0
114 134 0
124 143 0
113 132 0
111 131 0
112 133 0
123 143 0
124 144 0
112 129 0
116 134 0
107 123 0
113 131 0
114 133 0
115 132 0
100 118 0
106 123 0
107 124 0
107 124 0
105 121 0
112 128 0
98 113 0
112 127 0
103 117 0
107 122 0
100 115 0
104 119 0
98 111 0
104 118 0
108 122 0
106 119 0
99 113 0
94 107 0
102 117 0
137 155 0
136 156 0
128 146 0
137 157 0
142 162 0
138 156 0
131 151 0
138 157 0
132 152 0
122 143 0
131 152 0
127 146 0
135 157 0
130 152 0
131 151 0
133 154 0
127 149 0
120 143 0
128 150 0
129 150 0
127 151 0
134 158 0
133 155 0
127 149 0
118 143 0
118 139 0
122 145 0
124 147 0
119 142 0
126 148 0
90 115 61
50 80 82
50 81 99
48 78 84
50 81 86
53 85 105
53 85 105
47 77 85
51 82 97
51 83 93
55 88 99
52 85 102
52 83 95
51 82 90
51 82 95
56 89 113
54 86 97
52 84 95
50 81 91
53 86 100
53 86 108
53 85 98
52 84 90
55 87 113
54 87 108
53 85 102
54 86 105
53 86 102
52 83 94
53 85 104
53 86 108
53 85 110
52 84 92
54 86 104
55 88 107
56 89 117
52 84 102
53 86 95
55 88 108
52 84 99
55 88 110
54 88 111
55 88 111
54 86 102
53 85 99
54 87 105
55 88 115
55 89 102
55 87 117
55 89 115
53 85 102
55 88 111
56 89 122
53 86 104
52 84 97
53 87 105
55 88 114
52 84 95
55 88 113
54 87 108
56 89 118
54 87 115
54 86 110
52 84 97
52 84 92
53 85 104
54 87 102
52 83 94
53 85 99
54 86 110
52 85 102
54 87 114
54 86 108
52 84 104
54 85 100
51 82 96
52 84 98
52 84 94
52 84 97
51 82 92
56 88 115
54 86 97
54 85 110
50 81 97
52 84 107
53 85 94
54 85 110
52 83 96
50 80 83
52 83 99
52 83 97
47 75 70
49 78 82
47 75 71
98 118 62
133 145 0
130 149 0
125 143 0
130 147 0
126 143 0
127 142 0
119 134 0
128 146 0
122 138 0
123 138 0
127 145 0
126 138 0
134 146 0
126 141 0
118 133 0
130 141 0
123 136 0
124 137 0
135 148 0
132 142 0
126 135 0
135 145 0
134 145 0
143 149 0
133 137 0
133 142 0
135 142 0
126 136 0
138 148 0
130 135 0
124 122 0
116 104 0
106 93 0
109 98 0
115 104 0
109 99 0
102 92 0
98 90 0
101 93 0
93 85 0
99 91 0
114 108 0
97 90 0
102 93 0
107 98 0
113 106 0
111 106 0
115 109 0
111 103 0
113 105 0
108 101 0
103 99 0
114 107 0
110 106 0
110 108 0
112 107 0
113 107 0
114 107 0
115 111 0
110 105 0
120 114 0
129 122 0
119 115 0
123 118 0
112 110 0
120 114 0
126 121 0
116 112 0
118 114 0
125 121 0
122 118 0
127 125 0
124 120 0
123 119 0
125 124 0
129 126 0
125 123 0
119 117 0
120 121 0
123 118 0
122 119 0
129 128 0
120 116 0
132 127 0
124 119 0
123 122 0
122 121 0
129 127 0
129 124 0
122 119 0
127 128 0
130 126 0
128 128 0
128 127 0
127 127 0
131 129 0
132 130 0
129 126 0
126 127 0
133 129 0
127 123 0
133 131 0
127 125 0
131 133 0
131 130 0
129 132 0
131 128 0
135 130 0
131 129 0
131 132 0
130 130 0
137 136 0
134 132 0
137 135 0
135 135 0
135 135 0
133 130 0
132 133 0
139 137 0
132 131 0
130 129 0
133 131 0
138 138 0
132 130 0
133 132 0
136 135 0
134 136 0
138 136 0
136 135 0
134 132 0
140 138 0
139 137 0
133 135 0
136 136 0
132 135 0
138 138 0
137 137 0
140 139 0
140 137 0
134 136 0
133 137 0
142 141 0
134 136 0
136 137 0
140 139 0
139 141 0
141 141 0
140 139 0
139 140 0
141 142 0
138 140 0
140 142 0
143 142 0
139 165 0
143 167 0
143 168 0
137 163 0
138 165 0
131 160 0
136 160 0
138 163 0
135 160 0
137 162 0
139 164 0
138 165 0
133 160 0
142 166 0
134 159 0
138 162 0
139 163 0
137 163 0
133 158 0
134 158 0
135 160 0
136 161 0
139 166 0
130 155 0
138 161 0
132 155 0
138 162 0
134 159 0
134 158 0
138 163 0
135 161 0
138 163 0
125 151 0
133 158 0
136 162 0
134 158 0
137 159 0
135 159 0
133 158 0
140 163 0
132 159 0
130 155 0
135 159 0
131 155 0
131 155 0
135 158 0
122 146 0
131 156 0
132 158 0
133 157 0
135 156 0
134 158 0
128 152 0
131 154 0
134 156 0
135 157 0
130 152 0
132 154 0
135 157 0
129 152 0
129 153 0
133 154 0
129 150 0
129 152 0
129 152 0
125 147 0
130 151 0
129 152 0
119 142 0
126 148 0
124 146 0
124 145 0
121 145 0
122 145 0
124 146 0
125 145 0
120 141 0
124 147 0
122 142 0
122 142 0
119 136 0
122 143 0
126 146 0
123 144 0
119 139 0
119 139 0
117 137 0
123 143 0
120 140 0
112 132 0
119 138 0
128 147 0
107 126 0
110 129 0
115 134 0
115 133 0
112 130 0
110 129 0
108 125 0
109 126 0
109 127 0
103 121 0
112 128 0
105 121 0
101 117 0
107 124 0
104 118 0
103 119 0
96 112 0
109 124 0
102 117 0
105 121 0
102 117 0
102 116 0
107 121 0
102 115 0
106 119 0
106 121 0
101 114 0
104 117 0
124 139 0
140 159 0
131 151 0
133 151 0
142 159 0
131 150 0
130 147 0
141 159 0
137 155 0
134 152 0
126 149 0
129 147 0
127 146 0
125 147 0
120 142 0
121 143 0
126 147 0
133 155 0
125 146 0
128 148 0
125 146 0
120 141 0
127 149 0
131 154 0
126 147 0
124 148 0
112 134 0
125 146 0
126 148 0
123 145 0
128 148 0
126 147 0
120 141 0
83 107 62
46 75 77
51 82 97
48 77 76
50 81 69
52 83 97
53 84 100
51 83 86
52 84 99
53 86 100
49 80 81
45 75 81
53 85 99
52 85 90
54 86 111
49 80 90
54 86 111
53 86 102
51 83 95
51 82 97
50 83 90
54 87 107
53 86 94
55 88 114
56 89 108
55 86 104
53 85 99
53 85 107
53 86 113
54 86 102
54 88 108
54 87 97
54 86 111
55 87 111
52 84 90
55 88 113
53 86 104
54 87 111
51 82 97
52 85 95
55 87 115
52 83 105
52 85 97
54 87 95
53 87 102
55 87 105
56 90 107
55 87 102
52 84 94
54 87 110
55 88 115
56 89 118
55 88 107
51 83 99
54 88 110
53 86 100
54 87 100
52 85 97
53 86 94
55 87 115
56 88 113
53 86 104
53 84 94
55 87 113
49 80 85
55 89 102
53 87 102
52 84 104
54 86 107
53 86 107
51 83 100
53 85 100
50 80 83
50 81 77
53 85 100
52 84 90
54 86 102
50 82 92
53 84 97
53 85 102
51 82 92
53 84 105
51 81 85
52 83 97
53 84 94
50 81 92
50 80 98
50 79 85
50 80 90
51 81 95
48 76 87
48 77 77
87 107 52
129 145 0
124 140 0
127 145 0
123 140 0
125 140 0
131 145 0
124 141 0
121 138 0
123 139 0
135 148 0
127 141 0
123 139 0
119 133 0
127 137 0
131 145 0
134 147 0
138 147 0
123 137 0
135 147 0
125 135 0
131 142 0
125 135 0
134 144 0
126 134 0
135 143 0
137 144 0
134 137 0
132 134 0
127 131 0
131 134 0
134 139 0
132 137 0
121 119 0
108 99 0
109 96 0
99 90 0
110 98 0
98 89 0
106 95 0
104 93 0
105 95 0
100 93 0
107 98 0
101 94 0
105 95 0
110 100 0
104 97 0
103 94 0
105 99 0
110 102 0
107 100 0
106 100 0
110 103 0
115 109 0
114 110 0
116 111 0
117 111 0
117 110 0
114 109 0
113 108 0
116 108 0
123 118 0
119 113 0
114 108 0
117 114 0
121 113 0
120 115 0
116 113 0
126 123 0
112 111 0
123 117 0
112 107 0
119 116 0
125 121 0
111 109 0
128 125 0
123 118 0
126 121 0
128 124 0
127 122 0
123 117 0
121 116 0
126 124 0
121 122 0
134 131 0
128 125 0
126 121 0
120 120 0
131 127 0
128 125 0
122 121 0
127 124 0
131 128 0
131 130 0
130 126 0
132 129 0
138 133 0
127 125 0
135 130 0
123 123 0
129 128 0
131 130 0
135 132 0
133 133 0
134 133 0
136 136 0
132 128 0
132 131 0
133 134 0
129 129 0
129 128 0
135 135 0
136 137 0
137 136 0
137 134 0
133 134 0
134 133 0
136 136 0
134 132 0
132 131 0
134 132 0
141 139 0
136 134 0
137 135 0
131 131 0
135 135 0
136 136 0
136 136 0
139 136 0
134 134 0
134 135 0
134 133 0
130 132 0
135 136 0
133 132 0
134 135 0
133 131 0
137 137 0
132 135 0
139 139 0
143 138 0
136 136 0
136 136 0
140 140 0
136 135 0
140 140 0
137 138 0
140 142 0
139 138 0
135 141 0
139 139 0
142 143 0
138 140 0
139 139 0
138 163 0
142 167 0
136 164 0
141 165 0
137 161 0
138 163 0
144 167 0
140 164 0
136 162 0
136 162 0
139 164 0
136 161 0
141 167 0
138 163 0
133 160 0
138 162 0
140 164 0
134 160 0
138 164 0
138 162 0
134 159 0
133 159 0
136 161 0
139 165 0
133 157 0
133 160 0
136 159 0
136 160 0
134 159 0
136 160 0
137 157 0
131 158 0
136 159 0
135 160 0
133 157 0
135 159 0
138 162 0
134 159 0
138 160 0
133 157 0
124 148 0
133 158 0
136 160 0
127 152 0
126 150 0
132 154 0
129 153 0
130 155 0
127 151 0
131 155 0
131 152 0
131 152 0
128 150 0
131 153 0
130 154 0
126 148 0
133 155 0
128 150 0
130 152 0
127 147 0
132 153 0
120 143 0
125 148 0
126 148 0
128 150 0
131 153 0
127 151 0
132 153 0
124 146 0
126 149 0
124 146 0
129 151 0
125 147 0
120 142 0
121 141 0
123 143 0
123 143 0
120 142 0
120 141 0
117 139 0
121 141 0
123 143 0
119 139 0
123 142 0
115 135 0
116 136 0
122 141 0
120 140 0
118 137 0
119 138 0
115 132 0
119 138 0
119 138 0
112 129 0
111 130 0
116 132 0
109 127 0
118 135 0
113 130 0
110 129 0
110 127 0
103 119 0
107 121 0
104 120 0
107 124 0
109 125 0
115 130 0
109 125 0
104 119 0
109 123 0
102 116 0
104 117 0
95 108 0
93 105 0
102 117 0
94 108 0
108 121 0
104 116 0
112 127 0
128 145 0
129 146 0
136 153 0
124 141 0
128 146 0
114 130 0
138 156 0
127 145 0
119 138 0
125 143 0
129 147 0
133 152 0
124 141 0
119 137 0
134 154 0
125 144 0
124 144 0
129 148 0
120 140 0
129 150 0
128 148 0
127 147 0
123 145 0
130 150 0
125 147 0
133 152 0
116 137 0
126 148 0
120 139 0
133 155 0
124 144 0
119 140 0
122 144 0
124 145 0
112 133 0
95 118 40
46 75 77
48 78 74
49 79 77
51 82 97
50 80 93
51 82 92
52 83 97
51 83 82
52 83 95
49 80 92
54 87 98
53 84 102
54 87 107
51 84 97
50 81 88
54 86 107
50 82 88
51 82 95
52 85 92
55 89 110
53 85 99
52 84 105
54 87 97
54 87 102
57 91 122
56 89 114
54 86 92
54 86 102
54 86 104
54 86 100
51 83 95
52 84 90
50 82 88
55 88 97
52 85 107
53 86 107
53 85 104
55 88 105
52 83 95
54 86 99
54 86 92
52 84 90
51 83 94
53 85 99
55 88 104
53 85 92
55 87 111
55 88 111
54 85 105
54 87 99
53 86 99
54 86 102
52 84 95
55 88 111
55 88 114
52 84 86
53 86 95
54 86 107
54 87 105
54 88 111
54 86 97
51 83 92
55 88 107
52 83 99
55 88 107
53 84 97
51 82 95
51 83 88
51 83 88
52 84 100
56 89 118
52 82 89
52 84 102
52 84 98
52 83 94
56 88 100
55 87 111
52 84 85
52 83 100
52 82 101
51 81 95
53 86 104
50 80 87
52 82 89
49 79 71
54 85 101
49 78 86
47 76 79
47 76 85
85 105 58
126 145 0
125 142 0
123 140 0
116 134 0
116 132 0
132 148 0
123 138 0
128 143 0
118 135 0
125 137 0
118 131 0
126 140 0
117 131 0
123 138 0
134 149 0
132 142 0
115 123 0
119 133 0
129 140 0
127 139 0
134 143 0
116 123 0
130 136 0
136 148 0
131 139 0
133 138 0
126 132 0
134 141 0
128 134 0
133 136 0
125 130 0
133 136 0
137 141 0
136 141 0
130 130 0
118 111 0
105 92 0
100 91 0
105 94 0
105 93 0
106 96 0
99 87 0
98 88 0
103 93 0
109 98 0
115 107 0
103 95 0
107 95 0
108 99 0
110 100 0
114 105 0
115 108 0
110 105 0
109 100 0
111 104 0
121 115 0
110 100 0
107 103 0
111 104 0
107 101 0
110 107 0
118 112 0
111 104 0
116 109 0
118 114 0
115 109 0
124 120 0
115 110 0
118 113 0
114 109 0
119 114 0
116 110 0
122 116 0
127 122 0
128 123 0
134 128 0
126 123 0
128 124 0
123 118 0
118 115 0
128 123 0
119 118 0
132 126 0
129 126 0
134 128 0
130 127 0
128 123 0
123 120 0
122 119 0
125 122 0
125 124 0
129 127 0
129 126 0
129 127 0
129 127 0
134 132 0
130 126 0
136 132 0
131 130 0
126 121 0
126 127 0
130 126 0
134 130 0
130 129 0
137 134 0
138 135 0
131 128 0
130 127 0
132 129 0
134 129 0
130 131 0
136 134 0
133 133 0
134 130 0
134 134 0
138 136 0
132 128 0
133 132 0
130 130 0
135 132 0
133 134 0
135 133 0
138 136 0
136 133 0
136 135 0
139 137 0
135 136 0
136 134 0
134 133 0
138 137 0
140 137 0
139 135 0
137 137 0
131 131 0
140 140 0
137 136 0
138 138 0
138 136 0
138 136 0
135 137 0
138 139 0
141 141 0
136 136 0
136 136 0
141 142 0
139 139 0
142 140 0
137 139 0
138 139 0
137 137 0
139 139 0
138 136 0
139 141 0
142 142 0
142 142 0
140 166 0
139 164 0
141 166 0
138 162 0
134 162 0
136 161 0
135 162 0
137 161 0
138 163 0
136 162 0
135 160 0
135 161 0
135 160 0
137 160 0
140 163 0
140 164 0
137 160 0
142 164 0
134 160 0
137 162 0
133 158 0
139 163 0
137 161 0
130 156 0
138 162 0
140 163 0
137 159 0
136 159 0
137 160 0
135 161 0
139 161 0
133 157 0
136 160 0
134 157 0
132 157 0
129 153 0
132 157 0
133 157 0
135 159 0
132 157 0
135 160 0
130 154 0
124 149 0
131 154 0
130 154 0
129 153 0
130 154 0
130 152 0
127 152 0
137 159 0
135 158 0
130 153 0
131 152 0
132 156 0
131 153 0
126 149 0
125 148 0
126 148 0
129 151 0
127 149 0
130 153 0
125 147 0
125 147 0
131 152 0
127 148 0
127 147 0
127 147 0
121 142 0
126 148 0
122 143 0
125 147 0
126 149 0
118 138 0
129 151 0
128 149 0
127 148 0
132 153 0
120 141 0
123 142 0
121 142 0
122 143 0
122 141 0
120 139 0
121 140 0
121 140 0
117 136 0
116 135 0
118 138 0
113 132 0
106 125 0
122 140 0
109 128 0
112 130 0
109 127 0
107 124 0
113 130 0
116 132 0
111 126 0
113 129 0
105 122 0
116 132 0
107 123 0
104 119 0
103 117 0
106 122 0
106 120 0
110 126 0
102 116 0
101 115 0
101 113 0
106 120 0
109 123 0
99 112 0
92 104 0
93 106 0
88 100 0
95 107 0
124 139 0
125 141 0
119 134 0
131 147 0
133 148 0
128 145 0
124 141 0
126 142 0
127 143 0
126 142 0
121 139 0
121 140 0
127 144 0
124 143 0
127 144 0
124 141 0
118 137 0
121 139 0
125 145 0
113 132 0
116 135 0
130 149 0
120 138 0
131 151 0
127 147 0
120 139 0
124 142 0
129 150 0
117 138 0
120 142 0
119 139 0
120 142 0
121 143 0
116 135 0
129 148 0
117 137 0
122 143 0
120 141 0
91 113 62
48 77 81
50 81 85
49 80 81
52 84 99
52 84 97
52 84 92
51 82 99
52 85 98
49 80 86
49 81 83
53 86 97
53 85 105
51 83 95
50 82 92
54 86 105
52 84 104
51 82 92
54 88 102
54 87 111
53 85 99
52 84 90
54 88 100
53 84 113
51 84 97
52 83 105
51 83 92
54 86 104
51 83 94
54 88 99
52 84 92
52 85 100
52 84 92
52 84 102
51 83 97
54 87 105
50 82 85
53 86 95
55 89 107
55 88 118
52 85 95
52 85 107
53 85 104
51 82 94
51 83 92
53 86 92
54 87 105
56 90 114
52 84 97
52 84 83
54 87 104
54 87 100
51 84 97
52 85 100
53 86 90
53 86 107
53 85 100
53 86 107
52 84 86
52 85 102
56 88 113
54 86 110
50 81 90
52 85 99
55 88 111
53 86 107
52 83 97
53 86 99
54 86 97
53 85 94
53 84 95
53 84 102
53 84 104
50 81 90
51 83 95
53 84 94
52 83 85
53 84 104
52 83 100
51 81 85
50 80 87
51 82 102
49 78 83
54 86 104
50 81 89
50 81 86
50 79 85
48 77 85
96 114 48
115 130 0
122 139 0
125 139 0
125 142 0
109 127 0
125 142 0
111 124 0
119 136 0
121 135 0
117 131 0
123 133 0
122 137 0
119 130 0
120 134 0
129 140 0
120 132 0
125 134 0
124 133 0
130 142 0
115 126 0
119 132 0
126 135 0
129 140 0
124 131 0
130 138 0
129 137 0
127 130 0
125 130 0
126 133 0
119 121 0
120 125 0
138 145 0
116 118 0
122 123 0
128 128 0
129 132 0
131 134 0
123 118 0
107 98 0
107 94 0
105 93 0
97 85 0
100 88 0
106 94 0
104 94 0
102 91 0
109 98 0
102 93 0
109 98 0
111 101 0
101 94 0
105 96 0
112 103 0
108 100 0
111 103 0
113 107 0
103 92 0
109 103 0
121 114 0
111 105 0
111 105 0
108 101 0
116 110 0
112 104 0
112 104 0
111 105 0
118 111 0
113 107 0
115 111 0
115 111 0
118 115 0
119 113 0
120 114 0
128 121 0
116 113 0
121 115 0
124 121 0
121 115 0
120 112 0
128 122 0
128 124 0
130 126 0
125 121 0
116 113 0
127 121 0
123 120 0
134 128 0
132 128 0
129 126 0
132 128 0
124 119 0
128 127 0
126 125 0
125 120 0
122 118 0
131 126 0
121 118 0
127 122 0
135 133 0
129 127 0
132 129 0
133 130 0
124 124 0
132 129 0
132 131 0
130 125 0
129 128 0
131 129 0
130 128 0
131 128 0
132 127 0
131 128 0
134 132 0
135 132 0
137 136 0
135 134 0
136 132 0
137 134 0
136 133 0
136 134 0
139 136 0
130 127 0
133 132 0
134 133 0
137 133 0
135 135 0
131 130 0
138 136 0
136 135 0
134 131 0
134 133 0
132 131 0
133 133 0
139 136 0
137 135 0
136 136 0
138 136 0
137 133 0
136 134 0
139 135 0
140 138 0
139 138 0
137 134 0
137 137 0
138 136 0
138 136 0
140 138 0
135 135 0
138 136 0
139 138 0
137 138 0
138 140 0
139 139 0
140 139 0
140 140 0
139 140 0
143 166 0
139 164 0
138 163 0
141 165 0
136 161 0
138 161 0
143 167 0
136 162 0
137 161 0
141 166 0
136 161 0
140 164 0
140 162 0
139 165 0
136 161 0
139 164 0
137 161 0
136 161 0
136 161 0
141 165 0
136 161 0
139 161 0
137 160 0
135 158 0
141 165 0
135 159 0
137 161 0
133 159 0
135 159 0
136 160 0
136 158 0
134 158 0
134 155 0
134 159 0
128 151 0
134 158 0
128 153 0
135 158 0
130 155 0
131 155 0
130 153 0
136 158 0
132 155 0
133 157 0
132 156 0
141 161 0
128 153 0
133 156 0
133 155 0
135 158 0
131 153 0
137 159 0
124 146 0
124 148 0
128 150 0
122 145 0
126 148 0
124 147 0
124 148 0
132 155 0
127 151 0
133 157 0
129 150 0
135 156 0
136 157 0
126 149 0
126 148 0
124 145 0
120 141 0
120 142 0
132 153 0
124 145 0
119 139 0
119 142 0
118 138 0
120 142 0
128 148 0
123 143 0
125 145 0
112 131 0
113 133 0
119 138 0
113 131 0
123 142 0
116 135 0
113 134 0
120 138 0
122 140 0
118 136 0
118 137 0
107 127 0
116 135 0
115 131 0
111 127 0
111 129 0
113 131 0
106 123 0
113 131 0
112 128 0
116 132 0
111 125 0
106 121 0
106 121 0
110 124 0
102 116 0
104 118 0
108 123 0
100 114 0
106 119 0
96 109 0
100 114 0
100 113 0
98 109 0
90 101 0
97 109 0
103 116 0
124 140 0
121 136 0
109 124 0
130 146 0
127 143 0
119 133 0
133 148 0
124 140 0
123 139 0
112 128 0
131 147 0
125 141 0
124 141 0
122 139 0
123 140 0
120 139 0
127 145 0
136 155 0
120 138 0
122 141 0
115 135 0
127 148 0
121 141 0
118 138 0
119 139 0
127 145 0
117 136 0
122 143 0
119 139 0
115 137 0
112 132 0
119 140 0
110 131 0
124 144 0
130 151 0
115 135 0
120 142 0
122 142 0
120 141 0
119 140 0
97 118 26
49 78 76
49 79 94
50 82 94
49 79 94
50 81 90
48 80 80
51 83 85
52 83 99
51 83 93
52 84 97
49 79 83
49 80 95
54 86 102
52 84 100
52 84 97
50 81 90
52 84 97
50 82 72
50 82 74
51 83 100
49 80 85
53 85 95
54 87 107
50 81 97
54 87 94
53 85 97
54 87 108
52 84 102
53 85 94
52 84 97
50 82 88
51 83 99
52 84 102
53 85 105
53 86 99
52 85 97
52 85 100
52 84 94
52 84 97
53 85 100
52 84 95
54 87 97
52 85 94
52 84 88
50 82 81
53 85 110
53 85 86
52 84 99
54 86 105
53 85 92
49 82 86
53 84 105
52 84 90
51 83 88
51 82 97
52 83 94
53 86 102
50 82 90
51 83 86
53 86 108
51 83 94
53 85 104
51 81 97
50 81 94
51 82 94
50 82 97
51 83 90
53 84 104
48 78 83
52 84 97
50 82 90
50 81 88
50 80 99
53 85 99
53 84 97
50 81 86
54 86 104
50 81 81
51 82 81
49 78 79
51 81 92
50 80 85
47 77 85
45 72 70
55 82 77
88 104 40
121 140 0
118 135 0
116 126 0
111 126 0
115 130 0
114 126 0
117 131 0
123 136 0
125 137 0
129 144 0
122 137 0
124 135 0
121 134 0
124 137 0
115 126 0
130 145 0
126 134 0
114 126 0
116 127 0
111 121 0
121 130 0
123 132 0
122 134 0
127 135 0
127 135 0
118 125 0
128 136 0
134 142 0
124 125 0
116 118 0
126 130 0
125 127 0
124 129 0
124 125 0
124 128 0
122 124 0
126 127 0
126 127 0
117 118 0
118 115 0
120 114 0
105 89 0
106 89 0
97 87 0
95 83 0
109 98 0
99 88 0
93 84 0
100 88 0
108 95 0
113 104 0
105 95 0
116 104 0
109 101 0
113 103 0
113 103 0
108 98 0
107 100 0
119 110 0
109 100 0
113 104 0
114 105 0
109 101 0
112 106 0
116 108 0
114 106 0
118 112 0
120 111 0
115 110 0
115 108 0
122 116 0
118 111 0
117 113 0
126 120 0
117 111 0
120 115 0
121 117 0
118 113 0
120 114 0
123 118 0
122 118 0
127 121 0
126 120 0
130 123 0
123 118 0
121 114 0
122 119 0
129 124 0
128 121 0
128 123 0
126 120 0
132 125 0
122 118 0
124 118 0
128 124 0
127 121 0
125 122 0
128 122 0
130 125 0
131 130 0
124 119 0
127 122 0
130 125 0
127 125 0
135 131 0
131 126 0
131 126 0
131 127 0
133 130 0
133 127 0
126 124 0
135 131 0
135 131 0
131 129 0
135 130 0
135 131 0
136 132 0
134 131 0
129 127 0
137 135 0
132 128 0
131 129 0
141 138 0
134 132 0
138 133 0
135 135 0
133 133 0
130 127 0
134 132 0
139 135 0
132 130 0
133 133 0
142 138 0
136 135 0
139 136 0
140 135 0
136 135 0
138 136 0
134 134 0
135 135 0
136 134 0
137 137 0
139 138 0
138 134 0
140 140 0
136 134 0
137 136 0
136 135 0
137 137 0
139 138 0
141 138 0
139 139 0
143 141 0
139 139 0
134 138 0
135 138 0
140 139 0
138 163 0
135 162 0
140 165 0
141 166 0
141 164 0
138 163 0
141 166 0
140 164 0
140 164 0
138 162 0
139 163 0
142 165 0
138 160 0
135 159 0
136 161 0
137 161 0
134 159 0
138 163 0
135 161 0
136 159 0
140 162 0
141 162 0
132 157 0
133 157 0
137 160 0
141 163 0
133 158 0
139 162 0
136 159 0
133 156 0
136 159 0
134 159 0
131 154 0
137 161 0
136 159 0
129 153 0
138 161 0
131 154 0
134 157 0
131 155 0
134 155 0
131 153 0
133 156 0
130 152 0
134 158 0
130 153 0
129 153 0
126 148 0
132 155 0
135 158 0
131 154 0
139 161 0
130 153 0
133 154 0
130 153 0
128 149 0
123 145 0
125 147 0
125 145 0
129 152 0
126 146 0
127 150 0
123 144 0
123 143 0
132 154 0
126 148 0
121 142 0
125 145 0
126 146 0
120 142 0
123 143 0
130 149 0
119 140 0
121 140 0
129 148 0
123 142 0
122 140 0
121 140 0
123 143 0
120 139 0
121 139 0
117 136 0
126 145 0
119 137 0
118 135 0
127 145 0
122 140 0
110 128 0
121 140 0
121 140 0
109 125 0
109 127 0
112 129 0
107 124 0
110 126 0
116 132 0
108 123 0
109 125 0
119 135 0
118 134 0
107 121 0
99 114 0
102 118 0
101 115 0
108 122 0
102 117 0
109 122 0
102 115 0
97 110 0
103 116 0
100 113 0
94 105 0
83 94 0
106 119 0
121 136 0
122 136 0
118 132 0
125 141 0
116 130 0
115 131 0
120 135 0
122 139 0
122 138 0
125 140 0
123 138 0
117 133 0
116 134 0
124 141 0
116 132 0
121 139 0
118 137 0
123 141 0
130 149 0
120 138 0
131 150 0
122 140 0
118 134 0
126 146 0
118 136 0
119 138 0
120 139 0
122 142 0
120 139 0
115 133 0
120 141 0
121 140 0
121 141 0
124 144 0
124 144 0
117 136 0
123 143 0
112 133 0
110 131 0
112 134 0
112 132 0
113 133 0
126 148 0
96 115 40
51 81 81
49 80 87
49 78 80
44 74 62
50 81 92
49 79 80
49 79 85
54 86 107
50 80 88
49 79 78
50 80 88
50 81 98
52 83 95
49 80 92
53 86 100
51 83 90
50 82 88
53 85 102
53 86 105
52 84 95
50 81 85
53 85 102
50 81 85
51 83 93
54 86 111
54 86 95
51 83 94
50 82 86
55 88 100
51 82 95
52 84 95
51 84 90
53 85 102
53 85 104
54 87 88
53 86 99
52 84 94
53 85 102
54 86 108
54 87 105
52 84 94
51 83 100
50 82 90
52 85 97
51 84 95
54 86 105
53 85 95
53 85 100
53 86 94
49 80 85
51 83 94
57 90 115
51 82 94
50 81 90
54 86 102
54 87 105
52 84 94
53 85 100
52 83 86
52 84 92
53 85 97
53 85 105
51 83 95
52 84 92
53 86 95
54 87 99
52 83 96
50 81 94
49 79 93
52 84 97
52 84 95
50 81 88
52 84 85
50 82 90
53 84 104
49 80 83
46 74 67
50 80 85
52 82 85
47 76 77
46 75 77
48 76 81
60 87 83
107 122 20
115 128 0
112 126 0
116 132 0
112 131 0
116 132 0
112 127 0
112 125 0
121 134 0
116 132 0
104 119 0
118 131 0
122 135 0
118 132 0
119 133 0
121 133 0
128 143 0
129 139 0
119 131 0
131 143 0
122 132 0
118 129 0
123 134 0
126 135 0
128 137 0
119 128 0
135 144 0
119 124 0
117 123 0
115 123 0
129 137 0
112 116 0
118 122 0
124 130 0
120 123 0
117 120 0
116 120 0
117 120 0
117 117 0
121 122 0
123 122 0
115 116 0
117 111 0
115 114 0
109 102 0
107 95 0
105 90 0
94 82 0
105 91 0
101 91 0
98 86 0
102 90 0
97 85 0
97 87 0
114 105 0
101 89 0
105 95 0
113 103 0
103 95 0
114 103 0
109 101 0
108 98 0
108 100 0
110 103 0
118 109 0
112 102 0
114 104 0
109 100 0
112 104 0
121 111 0
115 107 0
110 104 0
123 115 0
111 103 0
122 115 0
119 113 0
126 116 0
124 117 0
120 115 0
118 111 0
121 116 0
123 117 0
122 116 0
119 114 0
117 112 0
133 123 0
127 122 0
128 120 0
122 116 0
126 121 0
126 119 0
129 125 0
128 123 0
129 125 0
124 118 0
126 121 0
126 122 0
126 120 0
130 125 0
130 124 0
133 127 0
131 125 0
121 120 0
126 121 0
131 130 0
132 126 0
127 123 0
138 134 0
133 130 0
130 128 0
133 130 0
135 129 0
132 129 0
135 131 0
130 126 0
133 129 0
131 126 0
132 128 0
131 131 0
134 130 0
138 135 0
135 131 0
135 133 0
136 135 0
133 131 0
135 132 0
136 130 0
135 132 0
135 134 0
135 132 0
137 132 0
136 131 0
138 135 0
137 135 0
136 134 0
138 132 0
136 133 0
134 131 0
137 134 0
134 133 0
136 133 0
134 132 0
133 133 0
135 134 0
140 135 0
139 136 0
134 135 0
143 140 0
143 137 0
140 138 0
138 135 0
135 135 0
139 138 0
138 137 0
139 138 0
144 141 0
143 142 0
142 141 0
141 141 0
139 163 0
139 163 0
142 165 0
139 164 0
141 165 0
142 167 0
140 162 0
139 163 0
139 163 0
139 163 0
143 166 0
139 162 0
139 164 0
139 163 0
141 164 0
138 163 0
136 161 0
137 161 0
138 163 0
137 160 0
137 162 0
135 160 0
136 159 0
139 162 0
138 162 0
134 158 0
134 158 0
137 162 0
132 156 0
136 159 0
136 159 0
138 160 0
139 161 0
129 151 0
132 154 0
138 161 0
138 160 0
135 158 0
141 162 0
132 154 0
132 157 0
133 157 0
134 157 0
131 154 0
134 158 0
132 154 0
134 156 0
134 156 0
130 154 0
129 152 0
129 152 0
132 152 0
134 154 0
132 154 0
132 153 0
128 149 0
131 151 0
125 147 0
129 149 0
128 149 0
127 149 0
118 139 0
121 142 0
128 150 0
137 157 0
127 147 0
126 147 0
124 147 0
126 147 0
123 144 0
120 139 0
118 139 0
124 141 0
124 142 0
113 132 0
128 147 0
124 144 0
118 138 0
117 137 0
127 147 0
114 133 0
120 138 0
112 129 0
115 134 0
114 130 0
122 141 0
113 130 0
120 138 0
117 136 0
107 124 0
114 131 0
110 128 0
111 128 0
114 131 0
111 126 0
113 128 0
104 119 0
112 127 0
113 127 0
108 123 0
105 120 0
103 117 0
104 118 0
95 110 0
97 111 0
96 108 0
106 120 0
94 106 0
98 110 0
98 109 0
105 116 0
97 108 0
109 122 0
118 130 0
107 121 0
107 120 0
108 122 0
125 140 0
112 127 0
109 124 0
115 130 0
121 136 0
116 132 0
110 126 0
121 138 0
128 143 0
123 140 0
121 138 0
110 127 0
125 142 0
107 124 0
123 141 0
104 120 0
114 131 0
124 143 0
118 136 0
117 136 0
118 136 0
126 147 0
117 136 0
129 149 0
127 143 0
123 141 0
121 140 0
109 129 0
122 142 0
125 146 0
111 130 0
116 136 0
117 138 0
113 133 0
114 134 0
108 128 0
114 135 0
123 143 0
122 141 0
126 145 0
112 130 0
106 124 18
69 93 76
48 79 79
47 77 81
49 80 88
48 79 92
51 82 97
53 85 95
49 80 90
52 83 88
49 80 81
48 77 81
50 81 81
50 80 85
50 82 95
53 85 97
50 82 90
53 85 105
52 84 99
50 82 94
51 83 94
49 81 85
53 85 97
51 82 94
50 82 92
53 86 102
52 84 100
50 82 92
53 84 107
53 84 110
52 84 92
53 86 108
48 79 85
55 88 110
52 83 94
51 82 92
54 86 105
54 85 97
52 85 94
50 82 90
51 82 88
52 85 100
56 89 115
54 87 108
52 83 97
53 85 95
50 83 88
53 85 100
52 85 104
51 83 97
53 84 104
51 82 92
52 84 95
51 83 95
52 84 88
53 85 88
51 83 90
53 85 94
52 84 94
54 87 107
51 81 90
52 83 97
50 81 88
51 82 94
51 82 94
51 81 88
50 82 85
50 82 83
50 80 92
51 81 99
49 80 81
50 80 90
47 77 77
50 81 77
51 82 92
52 82 83
50 80 92
49 79 85
46 74 77
48 77 83
47 76 87
61 83 75
98 115 26
111 126 0
116 131 0
110 123 0
112 128 0
113 127 0
112 126 0
106 119 0
110 125 0
123 138 0
113 128 0
103 118 0
105 119 0
116 125 0
117 130 0
114 126 0
114 127 0
121 133 0
110 122 0
125 138 0
118 131 0
121 131 0
108 117 0
118 129 0
119 126 0
122 129 0
128 135 0
115 122 0
119 126 0
132 142 0
120 126 0
110 113 0
123 126 0
122 128 0
118 126 0
127 131 0
123 129 0
108 109 0
119 120 0
109 110 0
118 120 0
113 113 0
114 113 0
118 117 0
115 112 0
110 107 0
117 111 0
110 101 0
100 86 0
94 79 0
107 92 0
95 82 0
104 91 0
104 91 0
103 91 0
102 91 0
109 98 0
109 98 0
111 99 0
108 96 0
106 98 0
109 101 0
110 101 0
105 95 0
107 97 0
113 103 0
107 98 0
107 98 0
107 96 0
113 104 0
120 109 0
124 116 0
122 111 0
127 117 0
112 105 0
121 114 0
123 115 0
125 116 0
119 112 0
126 118 0
123 117 0
120 111 0
115 109 0
119 111 0
125 118 0
120 113 0
111 106 0
126 118 0
124 117 0
127 120 0
126 119 0
123 116 0
125 118 0
123 117 0
125 121 0
124 118 0
130 123 0
126 119 0
129 125 0
128 121 0
127 123 0
127 123 0
131 125 0
132 127 0
127 121 0
134 128 0
132 126 0
125 122 0
130 125 0
132 128 0
140 135 0
131 125 0
137 131 0
135 129 0
132 127 0
134 127 0
132 126 0
135 130 0
132 129 0
132 128 0
137 134 0
128 125 0
129 126 0
132 127 0
134 129 0
135 132 0
135 131 0
138 133 0
139 134 0
136 131 0
130 127 0
133 131 0
136 132 0
134 130 0
139 134 0
136 136 0
132 131 0
136 131 0
132 131 0
140 137 0
134 129 0
137 133 0
139 134 0
139 137 0
140 138 0
135 130 0
134 132 0
137 136 0
139 139 0
134 132 0
136 137 0
137 134 0
140 140 0
137 134 0
138 138 0
141 140 0
138 138 0
141 140 0
140 140 0
140 140 0
141 165 0
140 164 0
139 162 0
135 161 0
140 164 0
141 165 0
135 160 0
142 164 0
141 166 0
139 163 0
141 165 0
134 158 0
140 164 0
137 161 0
139 162 0
136 161 0
140 164 0
139 163 0
134 160 0
135 159 0
137 161 0
141 163 0
138 161 0
137 162 0
138 161 0
138 160 0
133 156 0
131 155 0
145 167 0
138 160 0
138 161 0
133 157 0
135 159 0
129 153 0
139 160 0
139 161 0
135 158 0
128 151 0
132 155 0
136 158 0
133 154 0
133 156 0
135 157 0
133 153 0
138 160 0
135 155 0
135 157 0
130 152 0
123 147 0
135 157 0
135 156 0
130 153 0
134 155 0
134 154 0
126 145 0
125 146 0
129 148 0
126 148 0
123 143 0
128 149 0
122 142 0
122 143 0
124 145 0
129 150 0
128 149 0
128 149 0
131 151 0
124 144 0
130 150 0
123 141 0
133 154 0
126 145 0
126 145 0
124 145 0
120 140 0
125 143 0
123 141 0
113 130 0
122 139 0
120 139 0
115 133 0
118 136 0
115 133 0
118 134 0
123 142 0
120 137 0
119 136 0
113 130 0
114 130 0
115 132 0
113 130 0
112 127 0
121 135 0
104 121 0
105 119 0
109 125 0
108 124 0
111 126 0
107 122 0
97 113 0
102 116 0
105 120 0
95 108 0
105 118 0
104 116 0
96 108 0
92 104 0
93 104 0
89 100 0
100 111 0
106 118 0
112 124 0
119 132 0
111 124 0
113 127 0
119 132 0
108 122 0
122 136 0
113 127 0
114 129 0
116 129 0
110 125 0
105 122 0
113 129 0
111 127 0
121 137 0
127 144 0
106 121 0
116 133 0
122 139 0
124 141 0
121 138 0
102 119 0
119 138 0
116 134 0
115 132 0
112 131 0
112 130 0
113 131 0
123 140 0
123 141 0
104 124 0
116 136 0
128 148 0
121 141 0
128 149 0
114 132 0
110 130 0
122 142 0
110 129 0
105 127 0
112 131 0
118 139 0
109 130 0
110 127 0
118 138 0
118 139 0
112 131 0
114 132 0
107 125 0
63 86 50
47 77 77
47 75 78
47 77 83
48 78 71
53 85 100
51 82 90
50 81 83
49 80 85
49 79 79
53 85 102
49 80 90
52 84 92
49 80 81
52 84 101
48 79 79
51 83 85
51 83 100
49 81 78
49 79 83
51 84 94
51 82 88
54 86 102
51 82 92
51 83 99
50 82 90
52 85 90
51 83 100
52 84 94
51 83 95
51 82 88
51 82 95
53 84 95
50 82 92
52 84 99
51 82 99
55 88 105
52 83 105
53 86 102
52 84 95
52 84 105
51 83 97
49 80 79
53 85 97
53 85 92
51 83 97
52 84 94
52 84 104
52 83 100
48 79 81
49 81 83
53 84 108
52 83 99
51 82 95
52 84 105
51 82 99
49 79 94
54 86 104
50 81 86
51 83 94
51 82 83
55 87 105
53 85 99
51 82 99
50 81 85
50 80 86
51 83 83
53 85 90
50 81 85
52 84 97
49 80 88
52 83 97
50 80 74
47 76 83
50 79 99
46 75 74
52 81 94
47 75 81
68 87 57
110 125 26
110 123 0
105 116 0
105 118 0
110 124 0
118 134 0
114 128 0
117 131 0
119 135 0
117 130 0
125 135 0
121 136 0
123 136 0
122 136 0
114 125 0
125 139 0
122 137 0
124 136 0
124 138 0
120 133 0
117 130 0
130 142 0
131 144 0
116 129 0
118 129 0
117 126 0
117 126 0
119 125 0
130 141 0
118 127 0
112 119 0
124 132 0
126 133 0
117 121 0
108 113 0
109 112 0
108 111 0
123 127 0
119 123 0
109 112 0
119 118 0
110 109 0
113 110 0
120 120 0
114 114 0
118 114 0
115 113 0
109 107 0
112 110 0
110 102 0
103 89 0
96 79 0
96 81 0
98 82 0
110 94 0
101 86 0
106 93 0
105 93 0
106 96 0
102 91 0
105 90 0
109 98 0
105 97 0
111 100 0
103 95 0
112 103 0
117 105 0
112 100 0
108 97 0
111 103 0
115 107 0
111 99 0
112 102 0
120 111 0
115 108 0
120 110 0
115 107 0
111 104 0
123 113 0
119 111 0
117 109 0
121 113 0
119 112 0
118 111 0
118 111 0
116 109 0
122 114 0
121 114 0
119 113 0
124 119 0
121 113 0
120 114 0
131 123 0
123 115 0
127 121 0
131 124 0
131 122 0
126 118 0
119 115 0
127 120 0
133 126 0
127 120 0
130 124 0
131 123 0
126 123 0
125 121 0
130 124 0
129 125 0
125 121 0
132 125 0
136 131 0
137 129 0
135 130 0
130 125 0
130 125 0
130 124 0
127 122 0
132 128 0
132 129 0
133 130 0
134 129 0
134 131 0
135 130 0
135 130 0
138 134 0
135 132 0
135 130 0
136 134 0
136 134 0
135 132 0
139 132 0
133 130 0
136 131 0
139 137 0
138 132 0
135 129 0
132 129 0
136 131 0
134 132 0
138 133 0
136 134 0
139 135 0
139 137 0
137 133 0
139 135 0
132 133 0
139 137 0
140 137 0
139 137 0
142 140 0
136 134 0
140 137 0
136 136 0
139 138 0
141 140 0
140 138 0
143 141 0
138 138 0
139 137 0
137 137 0
141 138 0
139 165 0
139 163 0
138 163 0
142 165 0
137 162 0
137 161 0
141 164 0
136 161 0
140 163 0
142 165 0
139 161 0
139 163 0
141 163 0
138 160 0
138 161 0
139 162 0
142 165 0
136 159 0
134 158 0
142 163 0
136 160 0
133 157 0
139 161 0
135 156 0
139 162 0
140 163 0
136 158 0
140 161 0
139 161 0
137 160 0
132 156 0
134 157 0
130 154 0
136 159 0
132 153 0
131 153 0
134 158 0
137 159 0
135 155 0
132 155 0
132 155 0
134 154 0
125 150 0
131 153 0
135 157 0
131 153 0
132 153 0
130 151 0
128 150 0
130 152 0
138 160 0
134 155 0
138 158 0
130 151 0
129 150 0
131 154 0
126 146 0
131 152 0
127 148 0
133 153 0
130 150 0
126 146 0
123 144 0
125 145 0
124 145 0
128 149 0
121 141 0
128 148 0
130 149 0
125 143 0
117 136 0
119 138 0
120 141 0
125 144 0
117 136 0
124 144 0
121 137 0
115 134 0
123 142 0
123 141 0
117 134 0
121 139 0
115 131 0
115 132 0
119 137 0
115 132 0
116 134 0
112 128 0
115 130 0
106 122 0
114 129 0
113 130 0
109 123 0
112 127 0
116 130 0
108 123 0
106 120 0
118 131 0
100 113 0
104 118 0
102 115 0
113 126 0
99 112 0
83 96 0
84 94 0
83 93 0
85 94 0
90 100 0
106 117 0
101 112 0
114 127 0
103 114 0
112 125 0
106 119 0
108 121 0
104 117 0
115 128 0
106 120 0
112 126 0
127 142 0
110 127 0
110 125 0
116 132 0
104 119 0
112 128 0
113 127 0
114 132 0
114 130 0
116 132 0
111 127 0
106 122 0
120 139 0
118 134 0
118 136 0
123 142 0
127 146 0
114 132 0
112 129 0
124 141 0
118 136 0
120 140 0
117 136 0
107 126 0
118 135 0
104 124 0
115 135 0
109 129 0
127 147 0
121 141 0
115 134 0
111 130 0
112 132 0
105 126 0
106 126 0
114 133 0
102 120 0
120 138 0
114 131 0
109 128 0
108 126 0
112 129 0
85 104 48
55 82 72
47 77 80
48 78 74
47 77 81
50 81 78
48 78 86
47 77 74
48 80 79
47 76 85
49 80 73
49 81 79
48 79 85
49 81 81
48 79 79
52 83 102
52 84 97
49 79 83
52 84 92
51 81 97
53 84 97
52 83 110
50 81 97
52 83 90
49 79 81
53 85 94
52 84 94
51 82 97
49 79 83
50 82 90
54 86 110
53 86 100
52 83 95
53 85 99
49 80 85
50 81 88
53 85 90
54 86 94
52 83 100
50 82 79
50 82 92
54 87 110
52 84 102
53 86 97
53 84 102
50 81 88
52 84 94
51 82 85
49 81 81
52 85 94
49 81 77
52 84 90
51 82 104
49 81 83
50 81 83
49 79 90
52 84 92
50 81 88
50 81 81
52 84 92
48 78 83
52 83 90
50 80 95
48 78 88
50 79 87
50 81 86
50 80 79
50 79 98
51 81 100
48 78 72
49 79 88
47 75 77
49 77 89
47 76 72
46 73 85
53 80 79
90 106 40
117 130 0
100 113 0
108 121 0
113 127 0
114 128 0
105 119 0
110 124 0
106 120 0
110 125 0
110 125 0
113 129 0
106 121 0
121 133 0
105 119 0
111 124 0
119 134 0
113 126 0
113 125 0
126 137 0
103 115 0
119 130 0
116 127 0
128 143 0
131 143 0
127 138 0
120 132 0
113 123 0
130 139 0
110 118 0
123 132 0
118 127 0
115 124 0
114 119 0
120 128 0
112 116 0
120 125 0
108 113 0
110 112 0
114 115 0
116 120 0
118 121 0
123 127 0
104 107 0
109 111 0
119 119 0
113 116 0
108 108 0
115 110 0
111 107 0
106 100 0
112 108 0
106 98 0
95 90 0
98 89 0
104 89 0
99 82 0
92 80 0
102 88 0
101 89 0
107 92 0
97 85 0
107 93 0
111 98 0
106 96 0
106 93 0
108 96 0
106 95 0
108 99 0
120 108 0
108 95 0
106 97 0
109 99 0
122 113 0
117 106 0
117 107 0
124 115 0
123 113 0
118 108 0
112 104 0
120 110 0
117 106 0
122 111 0
126 119 0
119 109 0
121 113 0
126 115 0
128 118 0
127 119 0
124 117 0
126 121 0
126 118 0
121 115 0
130 119 0
121 114 0
129 121 0
124 117 0
127 122 0
131 125 0
125 119 0
120 115 0
126 119 0
127 120 0
130 121 0
130 123 0
131 123 0
128 122 0
131 124 0
129 122 0
129 123 0
130 125 0
132 126 0
137 131 0
134 128 0
133 129 0
133 127 0
131 129 0
135 129 0
132 126 0
136 131 0
134 127 0
131 125 0
133 127 0
139 132 0
134 131 0
134 132 0
128 123 0
134 131 0
134 130 0
134 130 0
134 130 0
132 131 0
136 132 0
137 131 0
138 133 0
136 130 0
139 133 0
137 129 0
137 132 0
138 134 0
135 130 0
134 132 0
135 134 0
137 133 0
137 136 0
139 137 0
135 133 0
138 134 0
138 134 0
141 136 0
139 138 0
140 138 0
137 137 0
142 140 0
138 136 0
140 136 0
142 139 0
139 136 0
140 139 0
133 133 0
139 138 0
136 137 0
141 141 0
140 164 0
138 163 0
140 164 0
145 168 0
140 164 0
135 161 0
144 168 0
138 164 0
135 159 0
136 160 0
139 163 0
135 158 0
137 159 0
137 160 0
137 158 0
138 161 0
139 161 0
132 156 0
138 161 0
135 157 0
140 163 0
137 161 0
141 164 0
134 155 0
134 156 0
135 157 0
134 158 0
137 160 0
134 157 0
133 155 0
137 158 0
135 157 0
141 161 0
130 153 0
130 152 0
131 153 0
135 158 0
133 154 0
133 154 0
136 158 0
131 155 0
133 153 0
136 157 0
132 154 0
138 158 0
125 148 0
141 161 0
131 151 0
132 152 0
126 147 0
127 147 0
129 149 0
131 150 0
128 148 0
129 149 0
128 149 0
123 142 0
132 153 0
129 146 0
130 148 0
119 138 0
127 149 0
130 149 0
129 147 0
123 140 0
126 145 0
124 143 0
121 141 0
131 150 0
127 145 0
123 141 0
126 144 0
126 144 0
120 138 0
121 138 0
117 134 0
123 140 0
113 129 0
129 146 0
115 131 0
116 132 0
121 137 0
111 128 0
124 142 0
115 132 0
116 132 0
115 132 0
117 132 0
116 131 0
103 117 0
111 126 0
118 132 0
112 126 0
110 124 0
104 118 0
106 119 0
107 121 0
108 121 0
91 104 0
95 108 0
99 111 0
94 106 0
94 105 0
84 93 0
86 95 0
75 85 0
90 100 0
102 113 0
107 119 0
95 105 0
110 123 0
111 122 0
111 124 0
113 126 0
98 112 0
108 121 0
101 115 0
113 126 0
119 133 0
112 126 0
113 128 0
108 124 0
116 130 0
120 136 0
120 136 0
125 142 0
110 125 0
103 119 0
121 136 0
133 151 0
107 125 0
117 136 0
116 134 0
114 131 0
116 134 0
111 129 0
129 147 0
119 137 0
113 131 0
116 134 0
118 137 0
118 136 0
120 137 0
113 133 0
121 140 0
117 137 0
130 147 0
114 133 0
104 123 0
115 134 0
120 138 0
109 131 0
104 122 0
105 125 0
107 125 0
108 126 0
103 122 0
107 124 0
99 116 0
107 125 0
96 111 0
100 117 0
107 124 0
69 92 51
49 79 88
49 80 81
51 81 93
48 78 83
50 80 90
47 75 90
48 79 72
52 83 92
51 82 93
47 77 54
50 82 77
51 81 90
50 81 90
49 80 81
50 81 92
51 83 88
52 83 92
52 83 99
49 80 86
52 84 99
51 83 90
50 81 99
51 82 88
50 81 85
49 80 85
48 78 88
52 84 90
53 86 102
47 78 83
54 86 95
51 83 95
49 80 83
52 84 81
51 82 86
48 79 86
52 84 108
53 85 105
50 82 90
50 82 92
51 83 94
52 83 90
48 78 83
52 83 104
52 84 94
51 83 90
48 78 85
53 86 90
50 81 83
53 85 104
51 81 97
54 86 100
48 78 77
51 83 94
50 81 88
50 81 86
51 82 87
51 82 100
50 80 85
52 83 100
48 79 79
51 81 87
51 82 97
46 74 83
49 80 86
49 80 86
49 80 83
49 78 79
46 74 72
48 77 85
46 74 74
47 75 79
70 89 60
103 115 18
89 103 0
106 121 0
105 120 0
110 125 0
104 117 0
112 126 0
99 111 0
107 119 0
113 125 0
105 119 0
100 111 0
109 123 0
117 131 0
115 131 0
111 124 0
123 137 0
99 111 0
121 133 0
110 122 0
111 122 0
120 133 0
115 127 0
115 129 0
115 129 0
117 130 0
119 132 0
131 143 0
114 123 0
120 130 0
120 129 0
120 126 0
111 120 0
127 137 0
115 121 0
124 131 0
112 118 0
120 126 0
119 128 0
115 119 0
106 110 0
115 119 0
118 119 0
113 114 0
113 113 0
113 114 0
114 115 0
109 109 0
115 113 0
116 113 0
109 104 0
103 100 0
106 103 0
110 105 0
99 94 0
96 93 0
97 90 0
94 83 0
98 79 0
95 78 0
87 71 0
95 79 0
102 87 0
101 87 0
104 91 0
102 86 0
101 88 0
110 98 0
114 103 0
115 103 0
119 107 0
117 103 0
108 97 0
118 107 0
117 105 0
122 111 0
120 108 0
122 111 0
124 112 0
121 110 0
108 99 0
123 112 0
117 109 0
119 110 0
122 113 0
122 113 0
118 111 0
128 119 0
122 111 0
126 117 0
129 118 0
124 115 0
126 120 0
127 118 0
119 114 0
131 122 0
125 119 0
125 118 0
129 120 0
129 119 0
132 123 0
130 124 0
127 120 0
130 121 0
132 123 0
129 121 0
131 124 0
132 126 0
131 129 0
130 122 0
132 124 0
129 123 0
133 126 0
125 119 0
130 124 0
130 121 0
133 127 0
129 122 0
133 126 0
135 129 0
131 122 0
133 125 0
137 134 0
133 128 0
138 132 0
133 129 0
133 129 0
134 129 0
135 134 0
132 129 0
134 130 0
137 131 0
135 127 0
131 126 0
139 133 0
137 132 0
135 131 0
138 134 0
130 126 0
141 136 0
134 130 0
135 130 0
135 131 0
140 133 0
137 134 0
141 137 0
133 131 0
142 135 0
135 131 0
136 133 0
136 132 0
139 136 0
138 136 0
139 136 0
141 139 0
136 135 0
140 137 0
140 137 0
142 139 0
142 140 0
140 139 0
137 138 0
135 135 0
139 136 0
139 163 0
141 163 0
140 165 0
140 165 0
139 163 0
141 164 0
138 163 0
137 163 0
135 159 0
137 161 0
145 166 0
140 161 0
138 161 0
139 162 0
139 162 0
146 167 0
138 159 0
132 156 0
135 159 0
135 158 0
135 158 0
136 158 0
142 164 0
134 158 0
135 157 0
137 160 0
135 157 0
135 155 0
132 154 0
136 159 0
138 160 0
131 152 0
131 152 0
134 156 0
131 154 0
126 146 0
135 157 0
133 154 0
134 156 0
139 160 0
136 156 0
127 149 0
134 155 0
134 156 0
137 157 0
134 155 0
136 156 0
133 154 0
130 150 0
124 145 0
130 149 0
136 155 0
131 151 0
131 152 0
131 151 0
124 144 0
131 151 0
119 138 0
133 153 0
128 146 0
127 146 0
124 142 0
129 146 0
126 145 0
128 148 0
121 141 0
128 145 0
130 148 0
122 139 0
123 142 0
119 136 0
120 138 0
117 134 0
125 142 0
125 143 0
117 135 0
122 140 0
122 139 0
119 136 0
123 139 0
121 137 0
121 137 0
122 139 0
123 139 0
111 128 0
120 136 0
105 120 0
116 130 0
109 124 0
107 122 0
107 122 0
114 127 0
110 124 0
106 119 0
100 114 0
105 117 0
104 116 0
104 116 0
93 105 0
92 103 0
91 103 0
78 87 0
91 101 0
92 102 0
95 105 0
98 108 0
96 107 0
103 114 0
103 114 0
100 111 0
109 121 0
103 117 0
117 130 0
117 129 0
99 112 0
109 123 0
116 130 0
112 126 0
109 123 0
108 123 0
122 136 0
121 136 0
118 134 0
117 133 0
115 131 0
117 132 0
120 136 0
108 124 0
109 127 0
116 133 0
104 120 0
121 139 0
119 136 0
117 136 0
121 139 0
111 128 0
115 132 0
123 140 0
110 129 0
119 136 0
114 134 0
115 133 0
118 137 0
117 136 0
111 133 0
112 132 0
118 137 0
111 131 0
107 127 0
113 132 0
123 142 0
105 126 0
118 136 0
102 120 0
109 128 0
106 124 0
107 125 0
113 130 0
104 121 0
104 123 0
102 119 0
115 131 0
102 119 0
94 112 0
80 97 31
52 79 69
47 77 77
46 76 77
47 77 76
45 74 72
50 81 81
50 81 88
49 80 85
48 78 81
49 79 86
46 76 74
47 78 72
50 81 88
50 80 86
50 81 86
52 84 99
49 78 88
47 77 77
45 74 77
49 79 92
50 82 86
50 82 88
49 80 86
50 81 86
52 84 94
47 77 79
50 81 88
51 83 99
47 78 85
47 78 81
50 82 90
50 81 81
51 82 90
48 79 74
51 83 99
51 84 88
52 84 88
50 82 92
48 78 86
51 83 85
53 85 100
46 75 83
50 82 85
53 86 95
51 82 97
53 85 107
51 82 95
49 79 92
49 80 83
50 80 85
50 81 94
50 81 94
50 81 83
51 82 90
51 83 88
49 80 77
51 81 97
49 80 83
49 78 83
48 79 83
51 81 99
47 76 77
50 80 86
48 78 83
46 74 66
45 73 60
50 79 91
44 71 62
52 78 66
85 101 48
103 114 0
101 113 0
107 120 0
96 110 0
98 113 0
112 122 0
117 130 0
107 121 0
109 123 0
112 126 0
109 121 0
113 125 0
114 126 0
106 122 0
116 130 0
113 126 0
109 123 0
117 125 0
114 127 0
112 125 0
110 125 0
111 124 0
124 135 0
108 117 0
122 132 0
113 124 0
118 129 0
119 131 0
122 133 0
106 117 0
114 123 0
106 115 0
115 126 0
119 127 0
116 124 0
121 127 0
109 117 0
110 117 0
114 120 0
116 123 0
114 121 0
124 128 0
122 127 0
106 107 0
121 123 0
113 117 0
118 117 0
104 106 0
117 118 0
106 105 0
113 113 0
105 103 0
115 114 0
101 98 0
101 97 0
108 100 0
106 103 0
96 88 0
100 97 0
96 87 0
95 86 0
103 85 0
93 77 0
89 73 0
97 82 0
97 82 0
116 100 0
101 85 0
106 93 0
110 96 0
109 94 0
107 92 0
102 91 0
108 95 0
104 92 0
118 102 0
118 106 0
113 100 0
107 95 0
120 108 0
117 106 0
115 106 0
123 111 0
116 104 0
118 107 0
118 104 0
115 107 0
120 109 0
128 114 0
119 109 0
125 117 0
122 114 0
121 111 0
120 108 0
125 117 0
124 116 0
121 112 0
123 113 0
129 122 0
128 119 0
123 118 0
127 120 0
130 123 0
132 123 0
132 122 0
124 116 0
128 120 0
127 118 0
126 117 0
130 124 0
126 117 0
126 118 0
127 120 0
133 127 0
129 119 0
130 125 0
128 124 0
133 127 0
129 121 0
132 125 0
135 127 0
131 127 0
136 131 0
133 126 0
133 127 0
133 126 0
133 126 0
136 129 0
133 129 0
135 128 0
136 129 0
136 131 0
127 125 0
133 127 0
131 126 0
134 127 0
137 129 0
137 132 0
136 133 0
133 130 0
136 130 0
138 132 0
141 133 0
142 137 0
135 129 0
138 132 0
138 133 0
140 136 0
139 136 0
138 134 0
143 139 0
135 132 0
137 134 0
141 136 0
142 138 0
137 135 0
139 138 0
140 137 0
137 134 0
139 138 0
138 137 0
140 137 0
138 138 0
139 137 0
141 140 0
122 145 0
129 152 0
136 158 0
133 157 0
142 165 0
141 165 0
141 164 0
136 159 0
142 164 0
142 164 0
136 160 0
140 162 0
142 164 0
143 165 0
140 163 0
140 162 0
135 158 0
137 159 0
134 157 0
139 161 0
142 164 0
135 157 0
138 160 0
138 161 0
126 148 0
134 156 0
135 158 0
138 160 0
139 159 0
133 153 0
131 152 0
135 156 0
132 152 0
137 159 0
136 156 0
136 156 0
136 157 0
126 147 0
129 151 0
127 147 0
131 151 0
136 155 0
137 158 0
135 154 0
135 155 0
135 155 0
131 150 0
126 149 0
131 150 0
124 143 0
135 155 0
127 147 0
126 146 0
129 149 0
130 151 0
128 147 0
129 149 0
132 149 0
127 145 0
130 147 0
124 142 0
114 133 0
129 147 0
124 144 0
130 148 0
121 139 0
126 143 0
127 145 0
126 144 0
122 138 0
129 147 0
127 143 0
121 138 0
120 136 0
123 141 0
122 139 0
113 129 0
124 142 0
123 139 0
116 132 0
110 127 0
114 131 0
112 127 0
118 133 0
110 126 0
112 127 0
113 129 0
111 124 0
106 121 0
111 125 0
110 124 0
109 123 0
100 112 0
96 109 0
102 115 0
91 103 0
96 108 0
101 112 0
97 107 0
83 93 0
82 91 0
84 93 0
89 99 0
105 114 0
90 100 0
97 109 0
89 102 0
115 127 0
97 108 0
107 119 0
99 111 0
105 118 0
117 131 0
114 128 0
101 114 0
118 133 0
114 128 0
117 131 0
112 125 0
122 138 0
124 141 0
114 132 0
123 139 0
121 140 0
123 139 0
108 124 0
118 134 0
118 134 0
124 139 0
119 137 0
116 133 0
104 121 0
117 134 0
126 143 0
115 133 0
122 141 0
115 133 0
115 135 0
111 128 0
102 121 0
121 139 0
115 134 0
116 136 0
114 133 0
112 132 0
117 137 0
116 134 0
100 118 0
110 129 0
100 119 0
108 126 0
110 128 0
107 126 0
110 129 0
106 123 0
115 133 0
110 127 0
111 129 0
108 126 0
101 118 0
95 112 0
96 112 0
98 114 0
100 118 0
88 104 0
96 111 26
75 95 51
46 75 70
46 76 78
49 78 94
49 79 82
47 77 67
49 79 90
47 77 72
48 78 90
51 82 80
50 81 90
50 81 90
49 79 95
50 81 92
49 80 77
49 80 79
51 82 95
49 80 83
49 81 79
47 77 86
49 80 86
50 81 81
50 82 79
49 79 77
52 84 94
52 83 105
51 82 86
51 82 83
50 81 86
48 79 81
53 85 97
49 80 81
50 81 99
51 82 92
48 78 77
51 83 95
49 80 81
52 84 88
50 80 88
51 82 90
50 81 95
50 80 90
52 84 88
50 81 85
50 81 90
49 79 86
48 79 67
48 79 81
47 77 77
51 82 92
48 78 83
47 77 67
47 77 74
49 79 70
50 80 77
51 82 92
47 76 86
48 79 79
49 78 86
47 75 72
46 75 74
51 82 101
50 80 94
48 78 77
45 72 70
46 73 70
69 87 57
84 96 0
87 98 0
97 109 0
91 105 0
111 124 0
101 115 0
100 116 0
103 113 0
112 125 0
100 114 0
111 126 0
114 128 0
121 134 0
119 132 0
110 123 0
97 111 0
112 126 0
110 123 0
103 114 0
115 130 0
118 130 0
119 134 0
118 129 0
113 126 0
116 128 0
117 129 0
121 134 0
121 134 0
122 133 0
114 125 0
125 135 0
114 123 0
102 113 0
122 131 0
104 114 0
124 132 0
119 128 0
117 123 0
126 134 0
120 126 0
113 119 0
116 121 0
122 128 0
112 120 0
119 125 0
113 116 0
105 111 0
120 125 0
116 118 0
117 119 0
105 105 0
110 112 0
121 120 0
108 106 0
98 97 0
111 112 0
105 102 0
100 96 0
107 106 0
104 99 0
91 83 0
105 98 0
94 86 0
92 86 0
100 94 0
94 84 0
92 78 0
95 80 0
97 81 0
100 84 0
91 78 0
105 90 0
93 79 0
104 92 0
104 92 0
112 96 0
109 96 0
113 101 0
105 92 0
119 106 0
113 103 0
116 103 0
102 91 0
113 101 0
121 107 0
121 109 0
118 105 0
120 111 0
124 113 0
119 109 0
124 115 0
121 108 0
118 107 0
126 116 0
122 113 0
128 117 0
122 111 0
131 118 0
123 114 0
125 115 0
123 113 0
117 108 0
120 109 0
128 119 0
129 121 0
124 116 0
132 120 0
125 116 0
130 119 0
122 112 0
130 121 0
129 121 0
135 126 0
128 119 0
137 129 0
135 126 0
130 123 0
134 125 0
130 123 0
139 132 0
132 125 0
127 120 0
134 125 0
133 126 0
134 125 0
140 132 0
130 123 0
130 126 0
130 123 0
128 120 0
134 130 0
133 129 0
136 128 0
133 128 0
136 128 0
135 129 0
133 125 0
132 125 0
133 129 0
136 128 0
133 129 0
137 132 0
139 133 0
132 129 0
141 138 0
138 136 0
135 129 0
138 132 0
136 133 0
137 133 0
138 133 0
136 132 0
134 131 0
139 135 0
136 136 0
140 135 0
140 134 0
138 136 0
138 134 0
136 134 0
141 139 0
140 137 0
139 138 0
143 141 0
139 138 0
141 142 0
143 155 0
156 184 0
145 172 0
135 157 0
128 150 0
134 158 0
135 158 0
139 163 0
133 158 0
140 164 0
138 161 0
141 164 0
137 162 0
138 161 0
139 161 0
140 162 0
136 160 0
137 159 0
138 160 0
140 162 0
136 158 0
139 161 0
137 158 0
134 157 0
136 158 0
139 160 0
131 153 0
136 157 0
130 151 0
135 156 0
132 154 0
138 158 0
132 155 0
136 156 0
129 150 0
134 154 0
134 155 0
136 155 0
133 154 0
136 157 0
138 158 0
131 151 0
133 152 0
130 150 0
135 157 0
129 148 0
137 157 0
131 152 0
129 150 0
137 156 0
128 147 0
131 151 0
132 151 0
136 156 0
134 153 0
133 152 0
124 142 0
125 143 0
129 147 0
124 143 0
129 147 0
124 144 0
123 142 0
129 148 0
124 141 0
123 140 0
125 143 0
124 142 0
128 145 0
119 136 0
121 137 0
124 140 0
116 132 0
117 133 0
122 137 0
119 136 0
111 127 0
121 138 0
124 139 0
110 126 0
118 132 0
118 132 0
113 128 0
119 134 0
106 121 0
105 119 0
108 122 0
114 128 0
106 120 0
110 123 0
106 119 0
108 121 0
104 115 0
94 106 0
98 110 0
88 99 0
86 96 0
76 84 0
85 93 0
83 90 0
86 95 0
95 104 0
93 102 0
101 111 0
101 112 0
104 116 0
88 99 0
92 103 0
106 118 0
102 114 0
104 118 0
103 115 0
109 122 0
120 134 0
109 124 0
115 129 0
115 129 0
103 117 0
100 114 0
112 128 0
111 129 0
124 140 0
104 119 0
116 133 0
116 132 0
117 133 0
124 141 0
118 135 0
114 132 0
122 139 0
112 130 0
113 131 0
122 140 0
122 139 0
104 123 0
107 124 0
126 144 0
111 129 0
125 143 0
119 138 0
122 141 0
111 129 0
119 137 0
116 135 0
110 128 0
108 128 0
121 140 0
115 135 0
107 125 0
108 125 0
113 132 0
112 130 0
98 117 0
99 117 0
101 118 0
112 131 0
98 116 0
108 126 0
109 126 0
111 128 0
96 112 0
115 132 0
93 110 0
103 118 0
102 117 0
109 125 0
108 123 0
97 113 0
85 104 48
62 85 53
38 65 36
48 77 74
48 77 77
46 75 81
48 79 74
49 79 85
47 78 81
50 80 92
50 80 74
49 80 81
51 82 88
48 77 74
50 82 85
51 82 86
48 78 72
52 83 94
50 80 88
50 81 85
48 78 83
50 81 90
47 76 83
50 81 90
51 82 90
52 83 95
48 79 70
51 83 92
49 81 81
50 81 85
49 80 86
51 82 99
51 82 95
49 80 81
49 78 86
50 81 88
51 82 90
49 80 86
50 80 95
47 77 74
49 79 83
50 81 79
51 82 88
48 77 83
50 80 88
46 76 74
48 77 79
48 78 74
50 81 77
50 80 97
51 83 79
49 80 79
49 79 83
46 76 74
49 79 88
50 80 95
48 78 79
47 77 72
46 74 67
48 79 81
45 74 74
46 74 74
46 74 75
60 82 65
85 96 40
102 112 0
86 99 0
102 114 0
100 112 0
94 105 0
97 110 0
97 107 0
106 118 0
100 113 0
104 117 0
104 118 0
104 119 0
111 127 0
120 136 0
116 128 0
112 125 0
112 123 0
101 117 0
123 135 0
110 123 0
107 122 0
122 135 0
112 127 0
114 124 0
112 123 0
104 116 0
107 120 0
121 132 0
119 131 0
111 124 0
107 118 0
116 126 0
122 132 0
110 119 0
118 127 0
118 129 0
119 130 0
121 128 0
119 129 0
120 130 0
119 127 0
111 119 0
121 131 0
117 124 0
115 119 0
116 121 0
114 120 0
115 121 0
103 108 0
111 112 0
118 118 0
101 102 0
112 112 0
113 112 0
111 107 0
108 108 0
102 100 0
100 98 0
104 100 0
115 112 0
91 86 0
103 96 0
108 106 0
96 88 0
92 83 0
89 81 0
91 82 0
90 83 0
84 76 0
93 77 0
95 77 0
99 81 0
103 86 0
99 85 0
96 82 0
104 91 0
108 93 0
99 87 0
108 93 0
112 98 0
109 92 0
111 98 0
111 97 0
119 105 0
110 98 0
123 109 0
124 109 0
116 103 0
124 113 0
122 109 0
119 107 0
117 103 0
124 112 0
114 105 0
126 114 0
128 117 0
120 111 0
118 109 0
117 109 0
117 109 0
125 115 0
125 114 0
125 116 0
129 119 0
129 118 0
124 112 0
133 122 0
121 113 0
120 109 0
125 116 0
131 121 0
127 117 0
127 118 0
130 122 0
126 117 0
130 124 0
133 124 0
128 118 0
134 125 0
131 123 0
132 124 0
132 123 0
134 125 0
134 125 0
134 127 0
135 127 0
135 127 0
132 126 0
135 129 0
134 127 0
137 131 0
134 127 0
132 125 0
136 127 0
137 129 0
135 129 0
134 125 0
137 128 0
134 130 0
136 128 0
136 128 0
138 132 0
139 132 0
138 133 0
130 124 0
133 128 0
137 132 0
136 131 0
139 135 0
139 134 0
139 132 0
138 130 0
137 133 0
137 131 0
138 134 0
140 134 0
136 133 0
137 134 0
138 134 0
138 135 0
142 138 0
137 135 0
141 139 0
141 139 0
143 150 0
151 169 0
159 180 0
161 187 0
156 185 0
155 184 0
155 185 0
155 182 0
132 159 0
131 155 0
125 147 0
130 152 0
138 160 0
141 163 0
138 161 0
137 160 0
137 161 0
136 159 0
141 162 0
132 154 0
141 162 0
140 162 0
136 159 0
134 155 0
139 160 0
137 160 0
135 157 0
129 150 0
135 155 0
137 158 0
137 157 0
133 155 0
136 157 0
136 155 0
133 153 0
136 157 0
128 149 0
134 154 0
132 153 0
136 156 0
132 153 0
137 156 0
135 155 0
135 155 0
130 150 0
132 152 0
126 145 0
134 152 0
132 151 0
134 155 0
130 148 0
132 151 0
128 148 0
128 147 0
138 157 0
130 148 0
128 148 0
124 141 0
125 146 0
127 146 0
135 154 0
129 146 0
125 144 0
125 144 0
127 145 0
123 141 0
120 137 0
123 141 0
120 136 0
123 140 0
123 141 0
120 138 0
119 137 0
123 140 0
118 135 0
123 141 0
124 141 0
116 133 0
122 138 0
125 141 0
117 132 0
111 127 0
113 128 0
111 126 0
119 133 0
117 131 0
103 119 0
108 120 0
113 126 0
112 126 0
104 116 0
100 112 0
103 116 0
101 113 0
100 112 0
95 105 0
90 100 0
82 91 0
77 84 0
74 81 0
85 93 0
94 103 0
85 94 0
104 113 0
85 94 0
100 111 0
99 110 0
101 113 0
108 120 0
109 121 0
106 118 0
112 125 0
108 122 0
103 116 0
113 126 0
122 137 0
113 127 0
114 129 0
114 129 0
105 119 0
114 129 0
104 119 0
106 121 0
119 136 0
120 136 0
122 139 0
114 131 0
104 119 0
118 135 0
108 125 0
112 128 0
111 128 0
108 125 0
118 136 0
118 135 0
107 124 0
126 144 0
118 138 0
130 147 0
110 126 0
115 133 0
119 138 0
120 139 0
121 139 0
119 140 0
119 140 0
120 140 0
111 131 0
105 124 0
116 134 0
119 138 0
108 127 0
106 124 0
102 120 0
107 125 0
103 120 0
113 132 0
107 124 0
109 128 0
107 126 0
95 113 0
99 116 0
100 118 0
106 122 0
102 119 0
108 125 0
95 111 0
94 111 0
92 108 0
85 101 0
100 116 0
93 107 0
99 112 0
63 82 40
48 72 54
46 74 74
46 75 67
47 77 74
46 75 65
45 74 70
45 75 67
48 77 70
46 76 72
46 75 79
48 77 85
47 77 83
50 80 81
48 79 83
46 76 74
48 79 85
48 79 77
51 81 85
50 81 88
48 79 79
51 81 90
51 81 95
50 81 90
51 82 92
50 81 94
51 83 88
49 79 97
49 80 81
52 83 94
49 79 95
51 82 86
50 81 77
50 81 88
47 76 77
48 78 83
50 80 88
53 85 108
51 83 92
48 77 79
48 78 77
49 79 72
48 79 81
48 79 74
48 76 88
47 78 72
49 79 81
51 82 92
47 75 81
48 79 83
48 78 85
49 79 85
48 77 79
49 78 81
47 76 72
46 76 70
46 73 72
47 75 77
46 73 67
65 86 58
75 89 44
99 110 0
95 106 0
95 107 0
85 95 0
98 106 0
103 116 0
99 110 0
97 111 0
105 119 0
110 122 0
92 105 0
100 115 0
97 109 0
105 118 0
107 118 0
105 120 0
108 123 0
100 109 0
111 124 0
110 123 0
103 114 0
114 130 0
108 121 0
116 125 0
106 121 0
119 133 0
109 123 0
115 129 0
117 132 0
124 139 0
120 134 0
118 129 0
108 118 0
126 137 0
117 127 0
126 137 0
117 128 0
118 127 0
114 127 0
116 125 0
117 126 0
123 132 0
105 110 0
121 125 0
120 127 0
118 127 0
129 137 0
113 117 0
116 121 0
113 117 0
111 112 0
107 113 0
107 112 0
119 121 0
125 128 0
106 105 0
112 112 0
107 105 0
112 113 0
108 105 0
109 106 0
113 112 0
105 102 0
95 92 0
97 90 0
100 95 0
93 86 0
97 91 0
91 85 0
89 80 0
97 90 0
82 70 0
89 78 0
94 82 0
89 75 0
92 74 0
97 81 0
99 79 0
98 82 0
106 90 0
104 87 0
105 90 0
114 98 0
103 88 0
110 97 0
110 93 0
106 91 0
111 98 0
114 100 0
114 102 0
121 107 0
118 104 0
122 110 0
116 102 0
124 110 0
126 113 0
121 110 0
121 110 0
125 114 0
130 118 0
117 105 0
123 111 0
118 107 0
128 117 0
123 110 0
132 120 0
127 116 0
129 118 0
127 117 0
133 125 0
128 115 0
133 125 0
130 121 0
126 116 0
125 116 0
127 117 0
128 118 0
123 114 0
133 124 0
131 121 0
134 123 0
131 122 0
127 120 0
133 128 0
132 124 0
134 127 0
135 126 0
137 128 0
131 120 0
131 123 0
134 126 0
135 129 0
135 126 0
133 126 0
133 125 0
134 125 0
138 129 0
134 126 0
139 131 0
133 129 0
132 126 0
134 127 0
131 126 0
134 127 0
137 131 0
138 132 0
137 130 0
137 130 0
138 133 0
140 132 0
141 136 0
137 132 0
140 134 0
134 131 0
138 132 0
138 136 0
140 136 0
133 130 0
138 132 0
135 131 0
138 136 0
141 139 0
137 137 0
141 147 0
151 167 0
157 182 0
158 185 0
159 185 0
160 186 0
156 183 0
158 185 0
156 186 0
154 184 0
158 186 0
154 184 0
150 180 0
147 174 0
142 167 0
139 160 0
122 142 0
126 148 0
138 161 0
141 163 0
137 159 0
133 156 0
139 160 0
140 163 0
136 159 0
140 162 0
140 161 0
142 162 0
135 156 0
136 156 0
134 155 0
131 153 0
135 157 0
136 157 0
136 156 0
136 157 0
135 156 0
137 156 0
133 152 0
133 155 0
134 155 0
134 155 0
134 153 0
131 150 0
132 151 0
135 154 0
133 153 0
132 151 0
134 154 0
129 148 0
131 151 0
133 152 0
130 148 0
133 151 0
133 151 0
130 148 0
131 149 0
129 147 0
128 146 0
132 152 0
132 150 0
133 152 0
126 144 0
129 148 0
130 148 0
126 144 0
125 143 0
125 143 0
125 142 0
128 145 0
123 140 0
127 143 0
118 135 0
129 145 0
125 143 0
120 136 0
124 140 0
115 130 0
120 136 0
122 137 0
112 128 0
112 128 0
117 133 0
112 127 0
118 133 0
104 119 0
117 131 0
113 127 0
114 128 0
111 125 0
102 115 0
108 121 0
104 117 0
104 117 0
94 106 0
93 103 0
84 95 0
85 94 0
72 80 0
78 86 0
79 87 0
82 91 0
91 100 0
94 104 0
100 110 0
101 111 0
91 101 0
95 106 0
106 117 0
105 116 0
99 112 0
114 126 0
104 116 0
111 124 0
105 119 0
105 120 0
105 120 0
121 136 0
109 123 0
114 128 0
104 119 0
113 128 0
112 128 0
119 135 0
113 129 0
122 139 0
114 130 0
119 136 0
122 140 0
117 135 0
114 131 0
127 145 0
128 145 0
123 140 0
115 133 0
108 124 0
115 133 0
112 129 0
122 141 0
115 134 0
113 132 0
111 129 0
112 129 0
115 134 0
119 141 0
105 122 0
114 133 0
124 143 0
120 139 0
112 131 0
108 129 0
120 139 0
114 134 0
108 128 0
103 122 0
103 122 0
116 134 0
98 115 0
112 130 0
105 124 0
105 123 0
107 125 0
98 115 0
106 124 0
107 122 0
95 112 0
93 110 0
84 101 0
97 114 0
96 113 0
95 112 0
101 116 0
97 113 0
78 94 0
106 120 0
89 104 0
95 108 0
91 105 0
80 96 31
53 77 70
45 72 72
46 76 83
45 74 69
46 75 83
46 75 77
47 77 77
50 80 85
47 76 86
47 77 72
47 77 79
48 78 79
46 75 81
50 80 90
48 78 83
46 76 77
54 86 100
47 76 81
47 77 90
49 79 79
48 77 72
48 77 74
48 78 85
45 74 67
48 78 85
47 76 77
47 76 74
48 78 74
52 83 97
51 82 86
47 77 81
48 77 77
51 82 85
47 77 67
44 73 54
47 77 77
48 78 85
49 79 74
47 76 73
48 78 77
50 81 74
50 79 86
47 76 79
49 79 85
49 78 83
47 77 81
48 78 79
48 77 81
46 74 81
47 76 70
44 73 57
49 78 73
42 69 60
48 77 88
53 75 58
75 88 44
80 90 0
81 93 0
106 115 0
94 104 0
98 110 0
108 120 0
99 111 0
96 109 0
103 114 0
101 113 0
101 115 0
104 115 0
110 123 0
105 118 0
112 128 0
94 108 0
103 116 0
111 124 0
120 133 0
113 126 0
107 120 0
104 115 0
116 127 0
100 112 0
102 116 0
119 133 0
109 123 0
117 132 0
116 128 0
103 117 0
116 129 0
122 136 0
122 135 0
115 128 0
124 134 0
106 115 0
119 130 0
121 133 0
112 124 0
120 131 0
123 132 0
126 139 0
112 121 0
120 130 0
110 117 0
116 124 0
116 123 0
115 124 0
125 134 0
117 123 0
100 107 0
119 125 0
127 134 0
115 120 0
118 124 0
106 110 0
114 117 0
115 119 0
114 115 0
109 108 0
117 117 0
120 121 0
121 122 0
106 106 0
120 117 0
107 106 0
113 112 0
97 92 0
102 96 0
115 113 0
94 87 0
108 100 0
98 89 0
98 94 0
100 91 0
83 75 0
87 73 0
88 76 0
84 70 0
93 79 0
89 71 0
90 72 0
105 87 0
103 86 0
105 88 0
116 98 0
105 89 0
111 97 0
111 95 0
103 89 0
107 91 0
118 105 0
110 95 0
117 102 0
116 103 0
113 101 0
120 105 0
110 99 0
117 104 0
120 107 0
127 115 0
117 107 0
121 107 0
127 115 0
125 112 0
120 107 0
123 112 0
125 114 0
126 112 0
125 112 0
128 112 0
133 121 0
127 115 0
128 115 0
127 117 0
125 113 0
136 124 0
129 116 0
129 117 0
127 117 0
131 120 0
132 121 0
130 120 0
120 107 0
136 128 0
128 117 0
127 118 0
135 125 0
129 120 0
134 126 0
133 125 0
128 118 0
133 124 0
136 128 0
133 125 0
140 131 0
140 133 0
138 130 0
132 124 0
135 128 0
134 124 0
131 122 0
136 128 0
136 126 0
137 129 0
140 130 0
140 132 0
134 127 0
139 129 0
140 133 0
140 133 0
136 131 0
135 129 0
142 136 0
135 130 0
135 127 0
140 135 0
144 137 0
138 137 0
138 134 0
142 137 0
139 134 0
143 151 0
155 168 0
157 178 0
153 181 0
161 185 0
159 183 0
157 182 0
157 181 0
154 179 0
159 185 0
158 186 0
154 184 0
157 185 0
157 187 0
156 185 0
155 184 0
160 186 0
157 185 0
152 182 0
150 181 0
145 170 0
141 164 0
119 139 0
126 148 0
130 151 0
134 156 0
134 156 0
139 161 0
136 159 0
141 162 0
140 162 0
143 162 0
140 160 0
133 154 0
139 157 0
137 157 0
135 156 0
142 161 0
136 157 0
139 158 0
139 158 0
137 157 0
134 152 0
135 153 0
129 148 0
135 155 0
137 156 0
131 150 0
131 149 0
134 153 0
138 157 0
133 153 0
133 153 0
133 151 0
126 145 0
135 152 0
135 153 0
132 150 0
128 146 0
131 148 0
128 146 0
131 150 0
133 151 0
125 141 0
131 148 0
121 138 0
130 148 0
127 145 0
119 136 0
124 142 0
132 149 0
122 139 0
125 141 0
126 142 0
121 138 0
118 133 0
118 133 0
123 139 0
120 136 0
118 132 0
120 135 0
112 126 0
119 134 0
117 131 0
117 131 0
112 126 0
112 126 0
113 126 0
106 119 0
103 117 0
106 118 0
104 116 0
105 118 0
107 118 0
101 112 0
86 97 0
86 95 0
71 79 0
86 95 0
71 78 0
84 92 0
78 86 0
77 86 0
101 110 0
98 107 0
102 111 0
100 110 0
98 108 0
97 108 0
96 107 0
98 110 0
100 111 0
107 119 0
104 116 0
117 130 0
111 124 0
106 118 0
107 121 0
111 124 0
117 131 0
119 134 0
107 121 0
114 129 0
116 132 0
114 130 0
102 118 0
117 133 0
125 140 0
112 129 0
108 124 0
114 131 0
119 136 0
117 134 0
112 129 0
114 132 0
118 134 0
122 140 0
101 118 0
116 136 0
105 123 0
116 134 0
115 132 0
115 133 0
114 133 0
128 146 0
113 134 0
125 142 0
117 136 0
107 127 0
117 137 0
113 132 0
113 133 0
116 136 0
108 128 0
117 134 0
115 134 0
112 130 0
112 131 0
110 129 0
115 133 0
100 119 0
113 132 0
104 124 0
117 136 0
95 111 0
108 128 0
91 110 0
107 126 0
101 117 0
101 118 0
89 107 0
99 115 0
91 106 0
101 118 0
101 117 0
94 109 0
78 93 0
90 105 0
78 93 0
78 94 0
91 104 0
75 89 0
96 110 0
82 98 36
57 77 44
43 71 77
46 74 74
43 70 54
48 78 90
45 74 65
47 77 67
45 75 67
45 74 72
47 77 70
45 75 74
47 77 74
44 72 79
46 75 79
45 74 67
48 79 83
48 79 70
46 74 79
45 74 70
47 76 79
48 78 90
48 78 77
50 80 88
44 73 70
50 81 81
49 79 85
44 72 54
46 76 60
49 79 85
50 80 94
47 78 65
50 81 94
47 77 70
50 80 90
47 76 77
48 78 81
46 74 85
48 78 74
49 79 97
43 71 65
47 76 65
48 77 81
47 76 70
44 72 70
46 75 74
47 75 81
45 72 74
46 74 81
47 76 79
44 71 62
50 69 48
92 106 36
76 85 0
82 93 0
87 98 0
86 96 0
94 105 0
101 113 0
94 106 0
77 88 0
103 114 0
102 114 0
98 110 0
102 116 0
102 115 0
108 120 0
110 122 0
105 117 0
98 112 0
105 122 0
104 118 0
108 122 0
109 124 0
110 124 0
101 114 0
114 130 0
127 141 0
112 123 0
104 117 0
116 130 0
111 126 0
98 111 0
116 128 0
114 130 0
118 129 0
102 119 0
108 122 0
110 122 0
114 126 0
122 132 0
120 130 0
124 138 0
119 130 0
107 120 0
116 128 0
114 124 0
119 129 0
124 135 0
119 127 0
120 128 0
115 125 0
116 126 0
117 126 0
119 124 0
116 124 0
114 119 0
114 119 0
114 119 0
121 127 0
111 112 0
121 129 0
117 121 0
115 117 0
114 116 0
110 112 0
112 111 0
106 104 0
112 112 0
109 112 0
115 115 0
114 113 0
112 108 0
117 113 0
109 106 0
93 88 0
99 91 0
103 98 0
109 104 0
96 89 0
98 90 0
97 85 0
94 89 0
96 84 0
88 77 0
92 85 0
95 82 0
82 65 0
87 70 0
97 82 0
104 85 0
107 90 0
99 83 0
109 90 0
112 95 0
110 94 0
112 92 0
117 99 0
110 95 0
118 103 0
117 102 0
121 105 0
115 100 0
125 110 0
115 102 0
119 107 0
118 103 0
116 101 0
127 113 0
118 106 0
120 107 0
112 98 0
122 108 0
124 110 0
132 120 0
125 112 0
129 116 0
125 112 0
130 117 0
122 110 0
128 116 0
125 114 0
127 115 0
129 117 0
125 114 0
132 122 0
128 115 0
134 121 0
131 121 0
128 120 0
129 117 0
134 123 0
133 123 0
133 124 0
133 122 0
133 123 0
131 120 0
136 129 0
133 122 0
134 125 0
134 124 0
136 125 0
138 126 0
137 126 0
130 120 0
136 123 0
133 125 0
133 124 0
134 126 0
132 125 0
137 127 0
135 129 0
139 132 0
138 130 0
139 129 0
136 128 0
131 122 0
139 131 0
138 131 0
137 131 0
136 130 0
141 135 0
143 140 0
141 140 0
146 154 0
150 164 0
156 180 0
155 178 0
159 185 0
161 184 0
160 183 0
156 182 0
160 182 0
156 180 0
157 183 0
156 182 0
154 181 0
156 186 0
161 188 0
157 186 0
152 182 0
159 186 0
159 186 0
153 182 0
152 181 0
157 184 0
154 183 0
154 183 0
158 183 0
154 180 0
153 181 0
141 164 0
133 155 0
128 147 0
124 143 0
132 152 0
133 153 0
134 156 0
131 151 0
138 158 0
139 160 0
138 158 0
138 158 0
140 159 0
136 155 0
137 157 0
137 157 0
133 153 0
138 157 0
128 148 0
128 146 0
127 146 0
132 150 0
139 158 0
128 146 0
138 156 0
131 151 0
127 147 0
129 149 0
130 148 0
131 150 0
127 146 0
131 149 0
131 149 0
132 148 0
131 149 0
129 146 0
132 151 0
125 142 0
127 146 0
121 137 0
131 148 0
127 144 0
122 139 0
125 142 0
130 146 0
130 146 0
117 133 0
126 143 0
123 140 0
121 137 0
122 139 0
122 137 0
122 137 0
119 135 0
121 136 0
119 132 0
119 134 0
116 130 0
116 129 0
109 121 0
110 123 0
114 127 0
107 118 0
108 120 0
105 116 0
107 120 0
97 107 0
102 113 0
80 88 0
80 88 0
79 87 0
90 96 0
86 93 0
81 89 0
94 103 0
91 100 0
93 102 0
102 112 0
104 114 0
94 103 0
102 114 0
103 114 0
108 120 0
105 117 0
96 108 0
110 123 0
99 112 0
109 122 0
113 126 0
108 122 0
109 122 0
104 118 0
105 119 0
105 119 0
113 128 0
118 134 0
101 115 0
115 130 0
115 130 0
116 131 0
114 130 0
118 133 0
120 137 0
120 137 0
109 125 0
117 133 0
116 132 0
119 137 0
124 142 0
120 137 0
122 139 0
111 128 0
119 139 0
112 130 0
122 140 0
118 135 0
109 127 0
120 139 0
108 126 0
116 135 0
118 137 0
114 132 0
122 142 0
119 138 0
116 135 0
115 133 0
112 132 0
103 123 0
113 131 0
116 136 0
108 128 0
101 120 0
104 125 0
114 133 0
112 130 0
103 122 0
116 136 0
114 133 0
107 126 0
100 117 0
113 131 0
95 111 0
103 120 0
99 115 0
102 121 0
112 129 0
101 117 0
86 103 0
102 119 0
94 111 0
85 100 0
88 103 0
110 126 0
84 100 0
93 108 0
96 111 0
79 94 0
86 100 0
74 87 0
81 94 0
85 98 0
78 92 26
52 72 44
58 79 62
45 73 77
45 74 72
44 71 67
46 75 76
46 75 74
45 74 70
47 77 81
47 77 77
46 75 72
46 76 74
47 77 77
49 78 86
47 76 83
46 75 70
49 80 83
48 77 74
49 79 88
46 75 74
50 81 65
45 74 74
45 73 72
46 75 70
46 76 70
46 75 83
46 74 77
44 71 65
44 72 57
48 78 86
47 77 70
50 80 86
48 77 79
49 79 81
43 71 83
49 79 85
47 76 74
43 71 51
44 71 57
49 79 83
44 72 70
46 74 83
46 75 72
45 73 72
44 72 65
53 75 48
69 85 31
65 76 18
83 93 0
83 94 0
84 94 0
87 99 0
76 86 0
89 102 0
91 103 0
87 99 0
92 105 0
90 105 0
103 116 0
88 101 0
83 94 0
99 111 0
110 122 0
97 106 0
99 114 0
97 111 0
97 110 0
117 130 0
114 126 0
107 121 0
119 133 0
104 115 0
111 125 0
105 117 0
110 127 0
105 118 0
104 118 0
117 128 0
120 134 0
125 138 0
117 130 0
110 123 0
108 119 0
116 129 0
115 130 0
117 130 0
117 131 0
114 129 0
111 122 0
123 135 0
124 135 0
115 127 0
121 133 0
124 135 0
126 137 0
116 129 0
117 127 0
120 127 0
115 122 0
123 132 0
121 131 0
122 132 0
119 125 0
118 130 0
103 108 0
115 123 0
114 122 0
115 122 0
105 112 0
120 127 0
110 116 0
117 122 0
118 120 0
117 123 0
119 119 0
123 128 0
113 115 0
114 116 0
110 107 0
117 115 0
115 114 0
107 105 0
127 126 0
94 88 0
111 111 0
102 99 0
103 98 0
106 99 0
95 86 0
100 94 0
92 83 0
100 92 0
92 79 0
93 84 0
95 85 0
85 76 0
93 85 0
84 70 0
94 81 0
96 80 0
92 73 0
104 86 0
100 83 0
106 88 0
99 83 0
110 93 0
111 95 0
111 96 0
101 87 0
118 102 0
110 97 0
120 105 0
121 108 0
116 98 0
120 104 0
121 105 0
123 109 0
118 104 0
118 104 0
127 113 0
127 112 0
123 111 0
116 104 0
115 101 0
125 112 0
123 111 0
124 110 0
123 111 0
130 118 0
130 118 0
133 121 0
129 117 0
129 117 0
129 116 0
122 113 0
134 123 0
129 114 0
133 122 0
133 121 0
135 122 0
133 118 0
129 116 0
133 121 0
128 118 0
129 116 0
135 125 0
134 126 0
131 123 0
133 122 0
138 127 0
134 122 0
132 122 0
135 123 0
135 127 0
139 127 0
138 126 0
137 128 0
140 131 0
138 131 0
139 132 0
136 127 0
137 128 0
136 130 0
135 128 0
141 134 0
137 131 0
138 136 0
147 151 0
148 159 0
153 170 0
157 181 0
154 176 0
152 174 0
151 173 0
156 183 0
155 181 0
154 179 0
153 179 0
159 183 0
154 181 0
159 184 0
158 185 0
156 180 0
158 183 0
159 187 0
159 186 0
159 186 0
159 185 0
160 187 0
153 183 0
156 184 0
161 187 0
155 183 0
159 185 0
155 182 0
156 182 0
157 184 0
156 184 0
155 182 0
150 180 0
154 182 0
156 179 0
146 171 0
135 158 0
127 147 0
119 138 0
125 143 0
130 149 0
131 150 0
127 147 0
134 153 0
138 157 0
135 154 0
136 154 0
136 156 0
136 155 0
133 152 0
128 146 0
139 156 0
134 152 0
132 150 0
130 148 0
128 146 0
134 153 0
133 150 0
128 147 0
125 143 0
133 151 0
132 150 0
127 144 0
131 148 0
130 147 0
127 144 0
128 144 0
126 142 0
128 143 0
123 140 0
130 146 0
127 143 0
128 143 0
125 141 0
125 140 0
117 131 0
124 140 0
125 141 0
127 140 0
128 142 0
117 130 0
120 134 0
129 143 0
114 128 0
118 133 0
114 127 0
120 134 0
114 127 0
112 125 0
108 121 0
110 122 0
112 124 0
101 114 0
99 110 0
82 91 0
81 89 0
80 88 0
75 83 0
86 94 0
97 106 0
104 113 0
89 98 0
89 98 0
78 86 0
104 114 0
97 107 0
99 109 0
96 106 0
111 122 0
106 118 0
98 110 0
102 113 0
114 127 0
118 132 0
112 124 0
111 124 0
112 125 0
117 130 0
119 132 0
98 113 0
120 134 0
109 124 0
104 119 0
121 136 0
122 138 0
106 121 0
113 128 0
120 136 0
116 133 0
104 121 0
114 129 0
124 141 0
119 135 0
122 138 0
119 137 0
113 131 0
118 136 0
121 140 0
113 129 0
126 143 0
110 129 0
113 132 0
120 138 0
126 146 0
115 135 0
118 136 0
104 124 0
117 136 0
122 140 0
123 143 0
115 134 0
116 135 0
122 140 0
115 134 0
114 133 0
114 133 0
114 135 0
117 137 0
110 128 0
110 128 0
114 133 0
113 132 0
113 131 0
112 129 0
108 127 0
106 124 0
107 125 0
115 136 0
105 124 0
96 114 0
106 124 0
83 102 0
105 123 0
99 118 0
99 117 0
109 127 0
84 101 0
98 115 0
93 109 0
93 110 0
87 104 0
93 110 0
100 116 0
92 109 0
99 115 0
81 95 0
82 96 0
102 117 0
96 110 0
78 93 0
91 104 0
86 100 0
69 83 0
86 99 0
82 93 0
66 79 26
65 82 40
57 80 57
40 66 67
43 70 62
42 70 65
43 71 54
46 75 79
46 74 81
45 73 65
43 71 62
47 77 77
48 77 74
45 74 62
47 77 70
47 76 74
43 72 70
48 77 83
45 74 62
44 73 54
49 80 77
50 81 81
45 74 70
45 73 62
48 77 77
46 75 72
46 74 70
45 74 77
48 78 74
42 70 60
46 75 60
44 73 65
47 76 70
45 73 54
46 74 81
44 71 77
43 70 65
46 74 74
45 72 70
45 73 70
44 68 57
77 89 27
71 82 26
84 93 0
84 96 0
93 103 0
83 95 0
83 94 0
86 97 0
79 89 0
94 107 0
96 108 0
79 92 0
91 104 0
89 103 0
99 111 0
95 107 0
98 110 0
106 117 0
98 111 0
94 108 0
112 127 0
110 125 0
99 110 0
103 118 0
95 107 0
90 107 0
115 127 0
105 120 0
114 128 0
122 138 0
106 119 0
118 133 0
107 120 0
113 125 0
116 131 0
114 125 0
110 124 0
122 140 0
118 134 0
109 121 0
116 129 0
118 130 0
120 137 0
114 129 0
117 132 0
118 130 0
128 142 0
115 128 0
116 127 0
114 126 0
118 130 0
113 126 0
115 126 0
119 130 0
115 126 0
120 133 0
123 135 0
120 131 0
110 118 0
118 128 0
120 131 0
121 127 0
121 130 0
114 122 0
112 119 0
117 122 0
123 130 0
107 114 0
114 119 0
124 127 0
118 120 0
124 131 0
115 118 0
117 118 0
105 111 0
116 116 0
119 121 0
115 119 0
110 111 0
115 115 0
119 121 0
108 106 0
110 106 0
116 112 0
102 98 0
111 107 0
107 101 0
106 99 0
93 87 0
102 92 0
101 94 0
105 94 0
98 89 0
90 78 0
100 89 0
95 86 0
87 74 0
97 85 0
88 78 0
99 84 0
100 84 0
102 81 0
99 81 0
108 92 0
107 87 0
105 89 0
105 87 0
117 99 0
115 98 0
116 98 0
121 103 0
119 102 0
119 102 0
125 109 0
128 113 0
119 104 0
125 109 0
117 103 0
122 104 0
123 109 0
127 111 0
130 115 0
128 115 0
129 114 0
129 113 0
126 110 0
125 109 0
126 112 0
130 114 0
131 117 0
129 116 0
129 113 0
132 118 0
126 113 0
126 112 0
128 115 0
125 112 0
130 118 0
130 119 0
130 118 0
135 123 0
134 121 0
132 119 0
133 119 0
132 121 0
132 121 0
134 123 0
138 127 0
139 129 0
130 123 0
136 122 0
132 123 0
142 131 0
135 128 0
136 125 0
135 124 0
139 128 0
130 123 0
140 134 0
145 144 0
143 150 0
153 165 0
150 167 0
153 176 0
157 179 0
158 178 0
157 176 0
153 175 0
157 176 0
160 181 0
159 178 0
154 175 0
151 173 0
156 180 0
160 181 0
157 181 0
160 181 0
152 177 0
159 182 0
158 183 0
156 182 0
157 185 0
157 186 0
158 185 0
157 183 0
157 186 0
154 183 0
160 185 0
159 186 0
155 183 0
158 185 0
157 183 0
159 184 0
154 182 0
156 181 0
151 179 0
158 182 0
156 182 0
159 182 0
156 181 0
150 176 0
155 181 0
149 175 0
152 174 0
142 163 0
138 159 0
135 156 0
121 139 0
118 135 0
126 145 0
130 147 0
135 153 0
131 149 0
135 154 0
130 148 0
123 142 0
134 151 0
128 145 0
137 154 0
129 145 0
136 152 0
133 150 0
125 142 0
133 150 0
130 147 0
127 144 0
131 147 0
126 143 0
127 143 0
128 145 0
129 145 0
128 144 0
126 141 0
118 134 0
126 142 0
123 139 0
117 131 0
123 137 0
124 138 0
122 137 0
122 137 0
121 136 0
119 133 0
116 129 0
112 125 0
108 121 0
110 122 0
111 123 0
109 122 0
108 120 0
102 113 0
100 112 0
109 119 0
93 102 0
106 116 0
91 101 0
90 98 0
94 103 0
84 92 0
95 104 0
109 119 0
93 102 0
94 104 0
94 103 0
86 95 0
98 108 0
92 101 0
112 123 0
100 111 0
98 108 0
105 116 0
110 121 0
112 125 0
115 127 0
107 119 0
113 126 0
112 125 0
107 122 0
117 132 0
104 117 0
117 132 0
100 113 0
113 128 0
113 128 0
116 132 0
119 136 0
128 144 0
117 133 0
117 133 0
114 130 0
109 126 0
122 137 0
111 128 0
112 128 0
122 140 0
114 131 0
131 147 0
114 130 0
122 138 0
128 146 0
123 141 0
117 136 0
110 128 0
108 126 0
121 138 0
122 142 0
118 137 0
117 136 0
115 134 0
125 146 0
112 134 0
117 137 0
122 141 0
114 133 0
113 132 0
112 131 0
128 147 0
121 141 0
119 140 0
108 126 0
114 133 0
101 121 0
106 125 0
114 135 0
120 140 0
114 132 0
105 123 0
111 128 0
102 120 0
117 136 0
106 126 0
108 126 0
109 128 0
96 114 0
104 124 0
98 118 0
115 134 0
105 123 0
98 116 0
100 115 0
103 121 0
89 104 0
91 108 0
101 119 0
97 114 0
87 102 0
90 103 0
87 103 0
93 108 0
90 104 0
90 104 0
71 88 0
86 101 0
87 99 0
83 99 0
86 100 0
75 88 0
80 93 0
80 92 0
84 97 0
76 89 0
75 88 0
65 77 18
63 79 44
64 83 31
41 67 57
46 75 82
43 72 62
45 72 77
46 74 74
45 74 70
44 73 70
46 75 77
40 66 60
44 73 74
45 74 65
49 79 81
47 76 70
45 72 74
45 73 72
45 74 60
46 74 72
48 78 83
46 75 72
48 77 92
46 74 88
46 76 83
44 73 70
44 70 67
43 69 65
44 72 67
45 74 67
43 70 65
45 72 72
43 70 70
43 68 72
49 67 51
45 62 40
72 82 0
77 89 0
75 86 0
73 81 0
82 93 0
81 91 0
90 100 0
85 95 0
75 85 0
84 96 0
95 105 0
73 85 0
90 102 0
94 108 0
88 100 0
104 116 0
99 111 0
101 111 0
107 118 0
95 110 0
106 118 0
96 109 0
109 121 0
93 108 0
99 111 0
112 127 0
104 117 0
116 131 0
103 117 0
116 130 0
104 119 0
92 108 0
106 120 0
112 125 0
99 115 0
119 134 0
95 108 0
110 125 0
106 120 0
115 130 0
111 125 0
116 132 0
116 130 0
109 123 0
118 135 0
116 130 0
123 138 0
112 124 0
122 136 0
116 128 0
118 128 0
117 130 0
119 131 0
127 140 0
116 127 0
125 140 0
120 134 0
118 130 0
115 125 0
118 129 0
118 130 0
120 131 0
116 124 0
112 121 0
123 133 0
119 128 0
113 119 0
110 115 0
120 126 0
122 129 0
119 125 0
131 138 0
126 131 0
107 110 0
114 115 0
120 122 0
118 124 0
123 123 0
117 119 0
121 124 0
115 114 0
114 113 0
106 103 0
108 105 0
113 111 0
104 101 0
119 118 0
115 111 0
100 95 0
99 93 0
114 111 0
110 105 0
106 103 0
101 92 0
105 97 0
110 106 0
113 104 0
107 101 0
99 91 0
97 89 0
105 95 0
98 88 0
98 88 0
104 94 0
94 82 0
98 89 0
107 94 0
102 86 0
107 90 0
114 94 0
104 85 0
108 93 0
115 98 0
115 99 0
117 99 0
119 103 0
120 101 0
115 97 0
121 104 0
122 103 0
122 106 0
127 111 0
120 103 0
124 109 0
121 106 0
128 113 0
126 109 0
124 108 0
133 117 0
131 116 0
123 107 0
126 113 0
130 116 0
124 111 0
130 115 0
133 119 0
134 121 0
130 116 0
131 118 0
134 122 0
131 119 0
129 115 0
129 114 0
134 117 0
133 121 0
131 119 0
136 124 0
139 126 0
131 118 0
138 127 0
138 127 0
135 123 0
132 121 0
135 124 0
136 127 0
138 134 0
149 148 0
146 150 0
152 162 0
156 167 0
162 178 0
152 168 0
156 177 0
156 176 0
157 175 0
155 174 0
157 177 0
159 181 0
156 175 0
157 177 0
162 181 0
155 177 0
154 174 0
155 178 0
154 173 0
161 179 0
160 183 0
162 183 0
156 180 0
156 179 0
156 178 0
153 177 0
161 183 0
158 184 0
152 182 0
162 187 0
155 183 0
154 183 0
151 179 0
156 185 0
157 183 0
157 183 0
157 183 0
155 182 0
160 185 0
156 181 0
156 183 0
155 182 0
158 182 0
150 177 0
155 180 0
156 181 0
159 184 0
152 176 0
154 179 0
157 181 0
152 176 0
156 178 0
153 178 0
155 178 0
152 175 0
152 175 0
143 163 0
135 155 0
133 151 0
123 141 0
125 144 0
120 136 0
123 139 0
118 134 0
124 139 0
122 138 0
119 135 0
121 137 0
122 138 0
127 141 0
129 144 0
122 137 0
123 139 0
130 145 0
124 139 0
120 135 0
112 127 0
122 138 0
124 138 0
113 128 0
129 144 0
122 135 0
115 127 0
120 134 0
115 128 0
113 126 0
115 129 0
112 126 0
112 124 0
115 127 0
104 116 0
102 113 0
93 103 0
100 110 0
109 120 0
98 108 0
96 105 0
90 100 0
106 116 0
100 110 0
108 118 0
97 106 0
103 113 0
97 107 0
109 120 0
97 106 0
104 115 0
107 118 0
111 123 0
95 106 0
99 109 0
106 117 0
120 133 0
103 115 0
104 116 0
116 128 0
106 118 0
111 123 0
113 126 0
112 126 0
106 119 0
122 136 0
126 141 0
112 127 0
116 130 0
122 138 0
113 128 0
122 139 0
117 133 0
107 122 0
118 134 0
128 143 0
121 138 0
126 142 0
132 150 0
113 128 0
118 136 0
120 137 0
122 138 0
125 141 0
115 134 0
115 133 0
116 134 0
113 130 0
107 126 0
118 137 0
123 144 0
121 140 0
110 129 0
125 143 0
113 132 0
112 131 0
118 137 0
124 142 0
120 140 0
102 122 0
115 135 0
116 137 0
122 141 0
115 135 0
116 136 0
114 135 0
123 142 0
113 133 0
116 137 0
114 135 0
117 136 0
111 130 0
110 128 0
115 135 0
111 129 0
107 128 0
115 136 0
116 136 0
111 133 0
111 128 0
109 128 0
110 130 0
110 129 0
109 129 0
112 130 0
110 128 0
101 119 0
107 123 0
110 129 0
88 103 0
107 125 0
96 111 0
98 115 0
111 127 0
103 120 0
82 101 0
104 121 0
91 106 0
95 111 0
84 101 0
93 110 0
94 110 0
95 109 0
91 106 0
93 105 0
67 82 0
78 92 0
81 94 0
89 101 0
79 92 0
60 74 0
67 80 0
81 92 0
66 79 0
74 85 0
63 74 0
65 76 18
63 76 0
63 81 48
56 75 51
48 72 54
42 68 72
43 70 57
40 67 60
44 70 79
44 71 74
47 77 72
45 72 74
45 74 74
40 67 60
44 73 70
45 73 65
47 75 77
43 70 79
46 75 74
42 69 54
44 71 67
43 71 60
42 68 65
42 69 57
44 69 60
41 63 57
62 77 44
59 76 44
63 73 26
63 73 0
70 81 0
74 83 0
65 76 0
83 94 0
57 70 0
69 78 0
74 84 0
67 79 0
89 100 0
91 102 0
80 91 0
90 103 0
86 97 0
87 98 0
93 106 0
93 105 0
87 102 0
81 95 0
100 112 0
97 113 0
96 109 0
93 106 0
104 118 0
98 112 0
111 124 0
105 119 0
98 113 0
102 119 0
105 121 0
85 96 0
120 136 0
101 114 0
116 129 0
104 116 0
121 133 0
111 126 0
107 122 0
122 138 0
102 114 0
115 129 0
105 118 0
111 122 0
111 128 0
121 137 0
107 121 0
115 128 0
106 124 0
113 125 0
123 136 0
108 123 0
119 131 0
124 139 0
118 132 0
122 135 0
127 141 0
122 136 0
121 135 0
120 133 0
117 129 0
115 128 0
117 130 0
119 129 0
116 127 0
124 137 0
123 133 0
108 119 0
115 123 0
120 131 0
127 138 0
121 129 0
114 123 0
128 136 0
125 133 0
134 141 0
120 122 0
120 127 0
121 127 0
116 119 0
114 117 0
127 132 0
115 117 0
108 111 0
117 119 0
117 119 0
119 120 0
107 107 0
127 128 0
112 113 0
124 122 0
111 109 0
118 114 0
115 114 0
113 108 0
108 102 0
109 102 0
107 100 0
116 111 0
108 102 0
105 95 0
115 109 0
113 105 0
106 98 0
107 97 0
115 104 0
108 100 0
103 91 0
113 107 0
112 104 0
115 108 0
95 83 0
101 88 0
112 101 0
102 94 0
107 95 0
112 97 0
118 106 0
114 97 0
125 112 0
113 96 0
119 102 0
116 96 0
121 104 0
116 98 0
115 97 0
120 103 0
123 103 0
123 108 0
123 103 0
121 106 0
127 109 0
125 110 0
128 111 0
129 113 0
127 109 0
135 120 0
123 106 0
131 117 0
128 114 0
131 113 0
131 116 0
135 122 0
132 117 0
126 113 0
137 124 0
129 115 0
133 120 0
138 123 0
131 118 0
127 114 0
132 121 0
137 130 0
146 141 0
148 152 0
150 156 0
147 153 0
150 159 0
158 172 0
153 168 0
157 174 0
157 172 0
154 171 0
153 167 0
155 172 0
155 171 0
152 166 0
157 174 0
155 172 0
157 176 0
158 177 0
159 175 0
155 177 0
155 174 0
156 175 0
153 172 0
153 174 0
156 176 0
158 181 0
154 176 0
159 183 0
159 183 0
153 176 0
156 177 0
155 178 0
162 184 0
159 181 0
155 182 0
152 180 0
157 183 0
159 186 0
151 178 0
158 184 0
160 185 0
158 184 0
154 180 0
155 181 0
157 184 0
153 180 0
154 181 0
153 178 0
151 176 0
155 179 0
156 183 0
156 181 0
158 183 0
154 178 0
156 181 0
157 180 0
155 180 0
158 179 0
150 173 0
151 175 0
151 174 0
148 170 0
153 177 0
156 178 0
154 176 0
151 173 0
146 167 0
157 177 0
155 175 0
155 175 0
153 172 0
141 161 0
144 162 0
137 155 0
138 155 0
136 153 0
134 151 0
120 134 0
127 142 0
131 145 0
123 137 0
115 127 0
116 130 0
126 140 0
118 132 0
127 139 0
113 126 0
115 127 0
123 136 0
124 136 0
111 123 0
103 115 0
114 127 0
111 123 0
117 129 0
124 136 0
126 139 0
122 134 0
122 134 0
115 126 0
127 139 0
116 127 0
113 123 0
122 133 0
103 113 0
106 117 0
113 123 0
105 115 0
118 129 0
99 109 0
112 124 0
109 119 0
111 123 0
101 112 0
112 123 0
107 118 0
108 119 0
108 120 0
109 121 0
116 128 0
114 128 0
121 134 0
121 135 0
112 126 0
110 124 0
107 120 0
114 129 0
115 130 0
117 132 0
107 120 0
116 131 0
123 139 0
112 128 0
119 134 0
118 133 0
120 136 0
120 137 0
115 131 0
114 131 0
116 133 0
121 136 0
121 139 0
120 139 0
124 142 0
118 137 0
123 140 0
123 141 0
121 140 0
115 133 0
125 143 0
114 134 0
116 136 0
107 127 0
113 132 0
113 133 0
117 135 0
124 143 0
119 139 0
125 144 0
118 136 0
111 132 0
114 133 0
114 135 0
114 133 0
122 143 0
112 129 0
111 131 0
114 136 0
105 126 0
94 113 0
113 133 0
120 139 0
120 138 0
127 148 0
106 128 0
123 142 0
130 151 0
104 123 0
111 131 0
110 129 0
107 127 0
121 142 0
102 122 0
109 129 0
107 126 0
112 131 0
109 127 0
112 133 0
111 128 0
101 120 0
115 134 0
107 126 0
111 129 0
98 117 0
103 120 0
106 122 0
104 121 0
94 111 0
103 119 0
100 118 0
91 107 0
95 110 0
92 109 0
80 94 0
79 95 0
93 109 0
86 101 0
92 105 0
92 108 0
74 91 0
102 116 0
80 95 0
88 100 0
86 98 0
68 80 0
69 81 0
71 83 0
71 85 0
75 86 0
59 70 0
71 81 0
68 78 0
54 64 0
60 72 0
59 71 0
64 75 18
52 65 36
46 61 36
43 60 44
58 72 36
43 61 26
61 78 51
47 65 44
52 70 54
54 74 57
40 60 31
44 62 31
44 61 44
46 64 48
61 74 36
72 84 26
64 75 26
65 75 18
61 72 0
62 72 0
50 59 0
58 67 0
65 76 0
79 89 0
79 90 0
81 92 0
75 86 0
85 96 0
77 89 0
71 83 0
90 103 0
83 93 0
97 109 0
73 85 0
79 90 0
92 104 0
102 115 0
89 102 0
107 118 0
94 108 0
88 101 0
89 103 0
102 114 0
100 113 0
106 119 0
106 122 0
105 118 0
97 108 0
95 108 0
120 132 0
100 114 0
100 112 0
104 118 0
103 120 0
100 114 0
104 120 0
115 126 0
109 123 0
102 118 0
106 119 0
126 140 0
111 128 0
104 118 0
115 129 0
109 124 0
118 132 0
108 128 0
120 134 0
116 131 0
116 131 0
112 127 0
129 143 0
113 127 0
125 141 0
116 130 0
114 127 0
121 134 0
122 133 0
110 124 0
112 129 0
133 146 0
125 138 0
114 123 0
120 131 0
119 132 0
125 140 0
117 128 0
114 123 0
117 128 0
122 132 0
111 123 0
132 144 0
126 135 0
128 135 0
124 133 0
120 126 0
125 134 0
118 123 0
119 129 0
121 127 0
129 134 0
125 129 0
123 132 0
120 123 0
128 131 0
123 125 0
118 123 0
122 123 0
119 120 0
109 115 0
122 123 0
116 118 0
128 127 0
114 114 0
121 117 0
114 113 0
110 106 0
122 120 0
116 113 0
118 116 0
119 116 0
112 110 0
112 107 0
115 109 0
115 110 0
111 106 0
113 107 0
119 113 0
117 107 0
116 108 0
109 101 0
107 99 0
114 106 0
103 91 0
117 110 0
110 99 0
109 99 0
117 110 0
120 112 0
123 118 0
109 99 0
126 120 0
115 106 0
121 110 0
119 111 0
117 107 0
125 117 0
126 117 0
120 108 0
120 107 0
118 105 0
118 102 0
118 103 0
125 109 0
122 108 0
126 115 0
122 106 0
134 127 0
133 120 0
135 126 0
134 126 0
133 123 0
136 125 0
136 127 0
147 145 0
139 132 0
141 135 0
138 131 0
141 144 0
146 146 0
148 152 0
147 150 0
153 161 0
154 165 0
153 164 0
153 163 0
156 164 0
156 167 0
154 165 0
156 169 0
156 166 0
153 167 0
155 165 0
160 172 0
156 171 0
156 168 0
154 167 0
157 173 0
155 168 0
150 171 0
158 173 0
158 174 0
154 172 0
159 176 0
156 172 0
161 180 0
159 180 0
157 174 0
157 174 0
156 177 0
159 177 0
153 175 0
155 178 0
153 178 0
158 178 0
161 179 0
152 175 0
158 179 0
157 180 0
159 185 0
152 180 0
152 181 0
156 182 0
156 182 0
155 181 0
163 187 0
159 185 0
157 181 0
158 181 0
155 181 0
155 180 0
156 181 0
153 178 0
150 176 0
152 177 0
156 180 0
163 185 0
157 181 0
152 175 0
163 185 0
153 176 0
156 179 0
153 176 0
156 176 0
154 176 0
146 169 0
157 179 0
154 174 0
146 168 0
156 176 0
155 176 0
155 176 0
151 171 0
150 170 0
149 169 0
148 168 0
142 161 0
151 168 0
149 167 0
148 166 0
143 161 0
141 160 0
145 163 0
139 155 0
138 154 0
145 162 0
139 154 0
140 155 0
134 149 0
135 150 0
135 149 0
139 153 0
134 150 0
134 149 0
134 147 0
128 141 0
131 143 0
134 147 0
129 143 0
128 141 0
129 142 0
120 132 0
119 132 0
116 129 0
121 133 0
127 139 0
113 124 0
122 134 0
113 124 0
114 127 0
126 139 0
114 126 0
108 119 0
117 130 0
109 120 0
108 120 0
119 131 0
117 129 0
113 125 0
120 133 0
110 122 0
119 133 0
118 130 0
114 128 0
124 138 0
106 119 0
121 134 0
110 124 0
127 141 0
120 134 0
126 141 0
119 134 0
125 140 0
114 129 0
124 140 0
116 131 0
123 138 0
115 131 0
124 142 0
121 139 0
125 142 0
117 133 0
119 136 0
118 136 0
119 136 0
122 139 0
111 129 0
115 132 0
128 146 0
126 144 0
123 142 0
123 142 0
132 151 0
121 140 0
129 147 0
118 137 0
122 143 0
128 148 0
121 140 0
130 149 0
114 131 0
128 146 0
110 129 0
121 142 0
115 137 0
114 134 0
119 142 0
113 134 0
120 143 0
119 138 0
121 140 0
108 128 0
116 137 0
111 129 0
114 135 0
119 138 0
116 136 0
117 138 0
108 130 0
109 129 0
121 142 0
108 129 0
117 136 0
114 134 0
101 121 0
110 129 0
118 138 0
113 134 0
109 127 0
121 139 0
107 127 0
105 122 0
122 142 0
111 130 0
102 122 0
115 134 0
110 130 0
109 128 0
106 124 0
92 109 0
91 106 0
104 122 0
99 117 0
96 114 0
95 111 0
103 119 0
96 112 0
97 114 0
86 103 0
90 105 0
95 110 0
90 105 0
108 124 0
100 114 0
85 99 0
79 94 0
91 106 0
80 94 0
79 92 0
73 85 0
81 94 0
75 87 0
81 94 0
77 89 0
75 86 0
67 79 0
70 82 0
70 81 0
62 75 0
65 77 0
68 77 0
51 61 0
76 87 0
61 72 0
68 79 0
61 70 0
78 88 0
74 83 0
79 90 0
72 82 0
45 55 0
48 55 0
62 71 0
71 80 0
58 67 0
60 70 0
55 68 0
68 78 0
77 87 0
79 87 0
73 84 0
73 83 0
85 95 0
78 87 0
70 83 0
81 91 0
89 101 0
78 89 0
73 83 0
80 91 0
89 101 0
93 106 0
89 102 0
86 98 0
96 109 0
83 97 0
105 117 0
85 98 0
86 98 0
84 96 0
94 108 0
92 107 0
94 108 0
98 112 0
98 111 0
110 125 0
102 116 0
95 110 0
89 103 0
112 125 0
101 115 0
99 114 0
101 114 0
105 120 0
110 125 0
107 122 0
112 128 0
107 121 0
112 128 0
112 128 0
116 132 0
106 124 0
118 135 0
113 128 0
121 136 0
108 122 0
109 123 0
123 139 0
109 124 0
115 130 0
104 120 0
116 132 0
116 133 0
116 133 0
117 133 0
115 131 0
121 134 0
117 131 0
122 133 0
124 137 0
125 136 0
118 134 0
114 128 0
121 132 0
128 140 0
125 137 0
118 128 0
128 139 0
114 126 0
121 133 0
122 132 0
121 132 0
124 135 0
124 137 0
117 124 0
113 123 0
118 127 0
119 129 0
118 128 0
127 135 0
121 127 0
132 138 0
127 137 0
116 124 0
123 127 0
121 129 0
116 122 0
118 120 0
114 115 0
121 124 0
125 128 0
123 126 0
116 117 0
113 113 0
116 114 0
118 117 0
122 119 0
123 125 0
127 126 0
110 106 0
118 116 0
116 113 0
114 111 0
115 110 0
117 112 0
119 115 0
121 116 0
108 103 0
109 105 0
111 107 0
117 112 0
113 108 0
120 117 0
124 119 0
124 118 0
123 120 0
105 96 0
114 108 0
122 116 0
117 106 0
123 116 0
118 110 0
115 105 0
121 112 0
116 108 0
123 117 0
125 117 0
124 118 0
127 123 0
129 123 0
140 137 0
139 136 0
131 126 0
134 131 0
132 126 0
141 140 0
139 141 0
137 133 0
146 146 0
140 140 0
144 144 0
145 147 0
150 151 0
144 146 0
151 154 0
148 152 0
141 143 0
152 158 0
149 153 0
150 155 0
146 150 0
151 157 0
149 156 0
143 146 0
154 163 0
156 164 0
153 163 0
145 156 0
154 161 0
157 171 0
153 163 0
155 169 0
154 165 0
152 163 0
160 175 0
152 163 0
157 171 0
154 172 0
154 168 0
158 173 0
153 168 0
158 175 0
157 176 0
151 169 0
157 177 0
152 168 0
160 178 0
156 176 0
157 175 0
153 173 0
155 174 0
156 176 0
160 183 0
158 180 0
154 175 0
162 185 0
158 181 0
157 179 0
153 174 0
153 181 0
155 183 0
158 184 0
159 185 0
152 178 0
153 181 0
151 178 0
152 178 0
151 179 0
156 181 0
155 181 0
155 180 0
156 181 0
157 180 0
155 180 0
159 183 0
156 180 0
146 171 0
156 178 0
157 178 0
154 176 0
155 177 0
157 181 0
151 172 0
152 174 0
153 175 0
156 178 0
148 171 0
151 172 0
149 169 0
153 173 0
152 171 0
149 167 0
157 176 0
152 171 0
144 164 0
149 167 0
152 169 0
142 160 0
153 171 0
147 165 0
148 165 0
137 153 0
146 163 0
144 161 0
145 161 0
144 160 0
136 151 0
141 157 0
137 152 0
145 160 0
139 154 0
132 148 0
131 145 0
130 143 0
131 144 0
126 141 0
134 148 0
126 139 0
132 145 0
127 141 0
117 129 0
129 142 0
121 133 0
123 135 0
115 127 0
128 139 0
120 132 0
120 132 0
114 126 0
119 131 0
118 130 0
118 130 0
121 134 0
123 136 0
124 137 0
110 123 0
118 129 0
111 124 0
116 128 0
111 123 0
113 128 0
104 118 0
121 135 0
112 125 0
115 129 0
116 131 0
117 132 0
124 138 0
125 141 0
129 144 0
117 133 0
125 140 0
124 140 0
118 133 0
123 140 0
133 149 0
114 130 0
111 127 0
124 141 0
115 134 0
128 144 0
124 142 0
128 146 0
122 138 0
134 153 0
121 139 0
136 156 0
120 138 0
118 136 0
120 139 0
120 139 0
118 139 0
125 144 0
119 137 0
127 146 0
130 149 0
132 150 0
119 140 0
115 135 0
119 138 0
119 142 0
117 139 0
121 140 0
115 135 0
122 141 0
116 138 0
120 141 0
127 149 0
113 134 0
129 147 0
118 138 0
124 144 0
117 137 0
117 136 0
113 134 0
112 132 0
112 133 0
113 134 0
117 137 0
111 130 0
112 130 0
112 132 0
117 134 0
113 133 0
102 123 0
110 129 0
121 139 0
109 128 0
116 136 0
115 134 0
116 134 0
117 135 0
115 135 0
109 128 0
107 127 0
97 114 0
107 127 0
100 120 0
105 124 0
96 114 0
102 121 0
106 124 0
94 113 0
101 118 0
107 124 0
104 122 0
93 109 0
92 108 0
88 104 0
90 104 0
91 105 0
92 107 0
83 97 0
88 103 0
90 107 0
87 102 0
89 103 0
69 83 0
94 108 0
91 104 0
83 95 0
80 93 0
83 97 0
77 90 0
81 94 0
65 77 0
75 87 0
76 89 0
81 92 0
70 81 0
88 100 0
68 79 0
63 74 0
67 79 0
74 86 0
68 79 0
71 83 0
71 81 0
68 79 0
65 76 0
70 79 0
74 83 0
74 85 0
58 68 0
70 81 0
72 82 0
69 80 0
71 82 0
92 104 0
73 85 0
82 94 0
74 86 0
100 112 0
67 77 0
94 106 0
78 90 0
82 92 0
97 108 0
76 87 0
95 108 0
78 90 0
87 98 0
85 98 0
100 113 0
87 100 0
101 115 0
96 108 0
90 102 0
94 108 0
94 107 0
102 117 0
85 99 0
99 114 0
106 122 0
100 115 0
100 116 0
101 117 0
97 112 0
111 123 0
112 128 0
96 110 0
104 118 0
110 125 0
110 125 0
114 127 0
111 128 0
103 117 0
121 137 0
111 125 0
121 137 0
114 132 0
111 126 0
110 129 0
107 122 0
119 133 0
115 130 0
121 138 0
116 132 0
113 128 0
116 132 0
125 142 0
115 129 0
114 132 0
124 141 0
108 122 0
129 144 0
112 125 0
123 140 0
121 136 0
122 137 0
123 139 0
130 145 0
117 128 0
130 146 0
126 138 0
125 141 0
125 138 0
120 134 0
124 139 0
120 131 0
122 132 0
118 129 0
113 121 0
126 138 0
112 123 0
127 140 0
124 131 0
119 128 0
115 126 0
120 128 0
119 128 0
113 122 0
129 138 0
108 115 0
124 133 0
110 115 0
124 132 0
117 122 0
114 117 0
124 130 0
127 134 0
120 121 0
117 120 0
133 137 0
120 121 0
130 131 0
126 128 0
123 123 0
120 124 0
124 125 0
119 117 0
119 115 0
116 111 0
130 128 0
120 117 0
123 117 0
116 110 0
119 116 0
128 128 0
119 114 0
115 109 0
118 112 0
115 108 0
117 111 0
121 114 0
122 118 0
126 120 0
118 110 0
122 115 0
124 119 0
128 124 0
136 128 0
118 112 0
127 124 0
129 121 0
125 117 0
129 125 0
123 118 0
126 120 0
119 111 0
129 124 0
127 121 0
124 117 0
142 139 0
136 136 0
134 132 0
138 135 0
136 132 0
142 140 0
144 143 0
139 137 0
131 128 0
140 142 0
150 150 0
148 148 0
142 141 0
148 152 0
153 159 0
150 154 0
149 156 0
153 161 0
140 145 0
150 157 0
150 155 0
150 157 0
151 158 0
155 164 0
147 155 0
152 160 0
157 168 0
152 161 0
154 163 0
149 155 0
153 163 0
152 167 0
148 161 0
156 169 0
154 166 0
157 171 0
154 165 0
153 171 0
155 170 0
154 167 0
155 172 0
152 170 0
156 176 0
154 170 0
161 175 0
156 174 0
152 172 0
157 177 0
164 183 0
155 173 0
156 177 0
156 179 0
154 176 0
157 180 0
156 180 0
160 181 0
156 182 0
155 181 0
156 183 0
156 183 0
154 179 0
158 183 0
157 181 0
157 182 0
154 179 0
156 181 0
154 179 0
154 178 0
152 177 0
153 177 0
153 176 0
150 176 0
154 176 0
154 178 0
151 172 0
157 179 0
158 180 0
150 174 0
151 174 0
156 179 0
153 175 0
153 175 0
148 170 0
150 171 0
153 173 0
147 169 0
150 170 0
156 176 0
150 171 0
144 163 0
149 170 0
143 160 0
146 164 0
145 164 0
145 164 0
144 163 0
145 161 0
144 160 0
137 153 0
147 163 0
150 166 0
141 158 0
142 158 0
146 161 0
136 152 0
142 158 0
139 153 0
128 142 0
131 146 0
132 147 0
135 150 0
139 153 0
126 140 0
129 142 0
126 139 0
126 140 0
124 137 0
124 136 0
114 127 0
128 141 0
120 133 0
123 135 0
121 133 0
116 129 0
122 134 0
127 140 0
125 138 0
119 133 0
123 136 0
121 136 0
120 134 0
119 133 0
125 139 0
120 133 0
124 137 0
128 142 0
122 137 0
125 139 0
115 129 0
119 133 0
130 146 0
111 127 0
119 134 0
117 132 0
122 138 0
120 136 0
126 143 0
129 144 0
116 132 0
118 132 0
123 141 0
129 146 0
124 142 0
116 133 0
128 145 0
124 141 0
122 138 0
130 148 0
126 143 0
128 146 0
120 138 0
109 127 0
121 139 0
121 139 0
120 140 0
125 144 0
119 138 0
125 144 0
125 143 0
120 140 0
115 133 0
123 142 0
123 143 0
115 134 0
130 150 0
103 121 0
122 141 0
114 134 0
117 138 0
116 137 0
116 135 0
121 141 0
135 154 0
126 146 0
121 142 0
117 137 0
118 140 0
111 133 0
115 137 0
119 139 0
120 143 0
122 141 0
123 143 0
116 137 0
110 130 0
126 147 0
107 128 0
117 138 0
120 140 0
125 145 0
114 134 0
98 119 0
117 137 0
113 132 0
105 124 0
94 115 0
112 132 0
120 140 0
118 137 0
108 127 0
118 136 0
100 118 0
105 126 0
110 130 0
105 123 0
106 123 0
104 121 0
109 127 0
102 120 0
103 120 0
101 119 0
95 113 0
113 132 0
92 107 0
105 122 0
93 110 0
98 113 0
97 114 0
89 104 0
92 109 0
94 110 0
90 107 0
89 105 0
88 104 0
88 102 0
84 100 0
82 96 0
93 108 0
86 100 0
66 79 0
72 86 0
92 105 0
74 87 0
81 92 0
70 83 0
80 93 0
73 84 0
80 93 0
85 96 0
76 88 0
85 98 0
81 91 0
65 77 0
82 95 0
74 86 0
70 80 0
82 93 0
79 89 0
77 89 0
75 87 0
74 86 0
87 98 0
76 87 0
82 95 0
90 103 0
64 75 0
63 75 0
72 83 0
92 101 0
88 99 0
76 89 0
87 97 0
73 84 0
88 102 0
87 99 0
80 92 0
80 93 0
81 94 0
86 100 0
99 114 0
91 102 0
97 109 0
92 105 0
100 114 0
97 112 0
95 108 0
96 111 0
98 110 0
104 117 0
103 116 0
106 122 0
107 121 0
102 116 0
110 125 0
103 118 0
86 100 0
118 131 0
107 118 0
105 118 0
115 131 0
102 116 0
112 129 0
104 120 0
116 133 0
110 125 0
114 128 0
104 119 0
104 118 0
113 129 0
125 145 0
110 128 0
114 130 0
116 131 0
119 135 0
117 133 0
106 120 0
128 146 0
115 132 0
113 128 0
119 136 0
116 135 0
127 145 0
114 127 0
120 136 0
113 129 0
120 134 0
124 141 0
123 136 0
120 135 0
117 129 0
119 133 0
129 146 0
116 129 0
120 136 0
124 136 0
125 141 0
124 135 0
130 141 0
127 142 0
118 132 0
128 137 0
118 127 0
114 127 0
119 128 0
114 122 0
126 136 0
122 134 0
116 123 0
115 124 0
120 125 0
119 127 0
122 125 0
124 132 0
131 139 0
125 131 0
110 116 0
133 140 0
123 130 0
126 131 0
114 118 0
124 128 0
127 129 0
118 124 0
125 127 0
122 126 0
119 121 0
123 122 0
112 113 0
116 116 0
123 123 0
124 124 0
118 116 0
116 115 0
133 131 0
120 116 0
119 116 0
114 111 0
121 117 0
121 115 0
123 123 0
127 125 0
121 115 0
125 119 0
127 123 0
124 120 0
126 121 0
122 115 0
126 120 0
128 119 0
127 121 0
133 130 0
126 123 0
124 118 0
124 117 0
133 129 0
130 124 0
126 119 0
125 118 0
128 123 0
130 124 0
130 126 0
137 135 0
138 139 0
136 132 0
138 135 0
149 150 0
136 133 0
139 134 0
138 138 0
142 143 0
139 141 0
141 142 0
144 148 0
141 144 0
147 149 0
149 152 0
145 148 0
153 161 0
150 155 0
155 160 0
151 156 0
151 158 0
155 164 0
149 156 0
150 157 0
150 155 0
156 167 0
153 161 0
151 160 0
153 163 0
153 164 0
154 163 0
158 169 0
155 167 0
154 165 0
150 160 0
155 167 0
154 166 0
154 170 0
151 165 0
155 173 0
152 168 0
153 169 0
158 173 0
154 170 0
157 172 0
158 176 0
157 178 0
154 173 0
152 171 0
153 174 0
158 177 0
159 179 0
158 176 0
159 179 0
156 178 0
157 182 0
156 182 0
161 186 0
156 182 0
152 179 0
155 180 0
154 180 0
155 178 0
156 181 0
157 181 0
152 178 0
156 180 0
155 178 0
153 178 0
153 179 0
152 176 0
152 174 0
155 178 0
150 174 0
155 178 0
154 176 0
155 178 0
154 174 0
150 172 0
148 170 0
155 175 0
149 167 0
150 170 0
156 177 0
150 171 0
152 174 0
149 168 0
149 168 0
147 166 0
146 165 0
154 172 0
147 165 0
151 169 0
144 162 0
144 162 0
146 164 0
150 168 0
138 156 0
140 156 0
144 162 0
143 159 0
144 160 0
136 152 0
136 152 0
139 155 0
142 157 0
137 152 0
132 147 0
129 142 0
128 143 0
127 140 0
133 146 0
128 141 0
139 153 0
129 142 0
128 141 0
127 140 0
135 148 0
122 136 0
130 143 0
122 135 0
113 125 0
127 142 0
123 136 0
122 137 0
117 131 0
119 133 0
124 139 0
125 139 0
118 131 0
125 140 0
116 130 0
127 141 0
126 141 0
121 136 0
126 140 0
131 147 0
127 143 0
119 133 0
124 140 0
130 147 0
129 145 0
123 137 0
123 141 0
128 144 0
121 137 0
126 143 0
126 142 0
124 140 0
122 138 0
124 140 0
124 142 0
126 145 0
119 137 0
128 144 0
128 145 0
115 133 0
111 129 0
127 145 0
113 130 0
125 144 0
123 142 0
124 143 0
130 149 0
123 142 0
119 139 0
126 147 0
120 140 0
124 142 0
119 139 0
120 141 0
123 144 0
124 142 0
124 144 0
122 143 0
123 143 0
120 141 0
126 146 0
110 133 0
121 141 0
125 145 0
123 145 0
117 137 0
118 137 0
119 142 0
118 142 0
124 144 0
117 138 0
115 136 0
116 137 0
111 130 0
118 137 0
129 149 0
115 135 0
107 128 0
120 141 0
105 127 0
119 141 0
121 140 0
114 134 0
111 129 0
122 144 0
113 133 0
107 126 0
112 132 0
111 132 0
101 122 0
108 127 0
114 136 0
108 126 0
112 130 0
117 134 0
111 131 0
118 137 0
104 124 0
95 114 0
101 121 0
100 119 0
98 115 0
85 103 0
90 107 0
109 127 0
88 105 0
93 110 0
101 119 0
103 120 0
93 109 0
94 110 0
94 111 0
88 103 0
90 106 0
90 105 0
90 105 0
84 98 0
96 112 0
89 104 0
90 106 0
85 99 0
78 92 0
79 93 0
89 103 0
83 96 0
74 89 0
80 94 0
79 91 0
85 97 0
91 102 0
81 94 0
83 95 0
84 96 0
76 89 0
68 80 0
67 78 0
53 66 0
82 94 0
82 93 0
81 93 0
71 83 0
80 92 0
92 103 0
68 80 0
78 90 0
77 87 0
76 88 0
85 96 0
79 91 0
81 93 0
76 87 0
84 95 0
81 93 0
76 89 0
87 98 0
75 88 0
88 101 0
81 94 0
81 93 0
91 104 0
99 112 0
76 90 0
99 113 0
93 109 0
105 121 0
82 97 0
93 109 0
97 111 0
110 124 0
106 122 0
106 120 0
106 119 0
91 103 0
103 116 0
98 114 0
114 128 0
112 126 0
111 126 0
110 126 0
104 118 0
106 119 0
104 118 0
99 115 0
106 121 0
114 131 0
107 125 0
116 132 0
109 125 0
113 129 0
105 120 0
109 123 0
115 133 0
120 137 0
117 132 0
103 118 0
109 125 0
114 129 0
120 136 0
113 130 0
116 131 0
122 141 0
131 145 0
121 138 0
125 140 0
119 136 0
123 136 0
110 125 0
119 132 0
120 134 0
120 136 0
121 137 0
131 147 0
124 137 0
116 128 0
127 143 0
123 138 0
122 133 0
121 136 0
126 141 0
129 140 0
126 142 0
135 147 0
125 136 0
124 136 0
124 134 0
129 143 0
119 131 0
130 140 0
130 142 0
122 134 0
123 135 0
125 133 0
124 132 0
132 139 0
129 139 0
122 130 0
117 124 0
124 130 0
126 131 0
123 129 0
132 139 0
125 132 0
129 137 0
125 131 0
120 126 0
121 124 0
124 126 0
125 128 0
134 137 0
121 123 0
125 128 0
126 129 0
122 120 0
126 129 0
131 132 0
115 114 0
124 122 0
118 115 0
128 129 0
126 124 0
123 121 0
126 124 0
124 119 0
126 122 0
119 118 0
120 115 0
127 123 0
122 118 0
131 126 0
128 126 0
131 126 0
130 126 0
133 129 0
125 122 0
128 121 0
122 118 0
134 130 0
127 122 0
141 137 0
133 128 0
138 136 0
126 121 0
132 130 0
129 124 0
133 131 0
132 129 0
139 137 0
135 133 0
139 138 0
139 136 0
143 145 0
143 142 0
139 139 0
143 145 0
133 131 0
141 143 0
149 152 0
157 160 0
146 147 0
150 156 0
144 150 0
152 158 0
152 158 0
154 157 0
150 156 0
156 167 0
149 156 0
152 158 0
155 165 0
147 157 0
153 165 0
151 158 0
149 161 0
150 160 0
150 160 0
151 167 0
160 172 0
154 169 0
152 165 0
155 169 0
157 171 0
152 165 0
153 167 0
156 167 0
155 168 0
157 176 0
159 174 0
154 173 0
153 173 0
154 173 0
157 174 0
158 177 0
159 176 0
157 176 0
156 173 0
159 177 0
155 172 0
151 171 0
155 181 0
152 178 0
153 178 0
157 181 0
158 183 0
153 179 0
155 179 0
158 182 0
154 179 0
159 182 0
150 176 0
155 179 0
160 182 0
158 181 0
155 178 0
152 176 0
156 180 0
151 175 0
152 174 0
156 178 0
150 171 0
154 175 0
151 173 0
153 174 0
153 174 0
151 171 0
151 172 0
145 166 0
149 169 0
150 169 0
147 164 0
146 167 0
148 166 0
148 167 0
138 157 0
149 168 0
149 166 0
145 163 0
145 163 0
150 167 0
149 167 0
135 152 0
142 160 0
141 157 0
138 152 0
144 160 0
146 162 0
138 154 0
132 146 0
139 155 0
131 145 0
136 152 0
128 141 0
132 148 0
131 145 0
138 153 0
135 149 0
131 145 0
129 144 0
137 151 0
126 141 0
137 152 0
128 141 0
125 139 0
126 140 0
125 139 0
122 135 0
131 145 0
129 143 0
129 144 0
130 145 0
130 145 0
128 143 0
126 141 0
126 140 0
130 144 0
130 145 0
135 150 0
128 143 0
117 132 0
127 142 0
117 133 0
122 136 0
118 132 0
123 139 0
131 147 0
121 138 0
130 147 0
126 142 0
121 138 0
121 139 0
130 147 0
123 141 0
122 141 0
117 135 0
121 136 0
127 144 0
134 153 0
127 145 0
114 132 0
120 138 0
118 138 0
133 151 0
125 145 0
117 134 0
136 153 0
119 137 0
121 140 0
123 141 0
123 143 0
122 141 0
123 143 0
120 140 0
121 143 0
116 138 0
126 149 0
124 145 0
122 144 0
125 147 0
118 138 0
126 147 0
123 144 0
129 149 0
100 120 0
119 143 0
112 133 0
115 136 0
122 144 0
119 141 0
117 140 0
128 150 0
121 145 0
122 144 0
126 149 0
116 139 0
120 144 0
120 142 0
113 134 0
123 144 0
114 135 0
123 144 0
119 140 0
108 129 0
109 130 0
119 140 0
114 134 0
106 127 0
114 134 0
99 118 0
109 127 0
122 143 0
110 130 0
115 134 0
108 128 0
116 136 0
110 130 0
107 126 0
96 114 0
110 130 0
116 135 0
108 125 0
114 132 0
101 118 0
96 115 0
97 114 0
110 128 0
105 124 0
113 132 0
85 103 0
102 120 0
87 103 0
87 104 0
83 102 0
94 109 0
89 104 0
89 106 0
97 113 0
94 110 0
83 98 0
101 118 0
76 91 0
89 104 0
85 101 0
91 105 0
87 101 0
99 114 0
87 100 0
82 95 0
86 100 0
89 101 0
84 94 0
81 95 0
71 83 0
71 84 0
79 91 0
79 92 0
78 91 0
75 89 0
88 103 0
79 92 0
85 99 0
96 110 0
88 100 0
95 107 0
79 91 0
79 91 0
85 97 0
82 96 0
84 99 0
78 90 0
84 97 0
80 93 0
87 100 0
88 101 0
89 102 0
78 91 0
92 106 0
88 101 0
83 96 0
102 117 0
94 106 0
97 111 0
81 95 0
96 110 0
93 110 0
102 116 0
107 121 0
101 115 0
104 118 0
93 107 0
103 116 0
100 117 0
92 106 0
95 110 0
93 105 0
93 107 0
109 122 0
114 129 0
98 113 0
114 128 0
99 116 0
111 126 0
101 118 0
109 128 0
104 119 0
120 135 0
122 139 0
110 128 0
119 135 0
117 133 0
117 134 0
113 130 0
109 125 0
116 131 0
109 126 0
117 133 0
116 130 0
116 132 0
112 129 0
111 126 0
110 124 0
128 146 0
124 137 0
124 140 0
115 130 0
125 141 0
119 136 0
113 131 0
121 138 0
120 138 0
132 148 0
113 128 0
118 131 0
130 143 0
122 137 0
130 148 0
133 148 0
118 130 0
123 138 0
125 139 0
124 136 0
119 135 0
131 145 0
120 127 0
119 134 0
126 139 0
121 135 0
124 138 0
117 130 0
128 140 0
126 140 0
123 134 0
121 133 0
121 129 0
122 131 0
125 136 0
120 128 0
133 147 0
128 134 0
122 131 0
127 136 0
123 129 0
127 134 0
126 133 0
130 137 0
122 127 0
129 134 0
127 135 0
122 125 0
118 118 0
127 129 0
124 127 0
128 134 0
130 132 0
119 118 0
126 131 0
128 130 0
131 132 0
126 126 0
128 130 0
117 116 0
130 130 0
140 141 0
119 118 0
129 130 0
120 118 0
126 126 0
129 130 0
131 128 0
133 128 0
130 127 0
114 109 0
130 126 0
129 125 0
122 117 0
130 128 0
134 132 0
135 131 0
125 121 0
135 131 0
128 123 0
130 128 0
130 127 0
133 128 0
133 129 0
134 131 0
134 129 0
128 126 0
131 128 0
137 136 0
139 138 0
143 141 0
140 139 0
144 144 0
139 139 0
140 138 0
141 143 0
145 148 0
141 145 0
150 155 0
144 145 0
147 151 0
142 145 0
149 153 0
144 148 0
147 152 0
149 155 0
150 156 0
145 153 0
154 159 0
149 156 0
149 158 0
153 162 0
150 159 0
149 157 0
153 164 0
156 170 0
160 175 0
149 161 0
152 163 0
155 166 0
149 161 0
145 158 0
157 168 0
151 166 0
151 166 0
150 163 0
154 171 0
153 168 0
158 178 0
156 173 0
155 175 0
157 174 0
156 169 0
154 171 0
155 172 0
151 168 0
157 173 0
155 173 0
156 175 0
156 181 0
154 180 0
156 182 0
154 179 0
151 178 0
161 184 0
151 176 0
152 177 0
154 177 0
157 181 0
153 178 0
155 175 0
151 174 0
155 176 0
157 179 0
156 179 0
152 175 0
153 176 0
153 174 0
149 171 0
154 173 0
150 173 0
152 173 0
150 170 0
149 169 0
151 171 0
150 171 0
156 174 0
147 165 0
150 170 0
144 164 0
150 168 0
145 163 0
148 166 0
151 170 0
147 165 0
142 160 0
145 164 0
137 155 0
145 164 0
141 158 0
146 163 0
134 151 0
138 156 0
137 153 0
144 160 0
140 156 0
144 160 0
139 156 0
138 153 0
138 153 0
132 146 0
133 148 0
135 150 0
129 144 0
132 148 0
132 146 0
131 145 0
138 154 0
129 143 0
133 147 0
125 139 0
122 137 0
124 137 0
126 142 0
130 145 0
127 142 0
126 141 0
129 143 0
121 136 0
130 146 0
129 144 0
127 142 0
138 153 0
132 148 0
131 147 0
129 146 0
126 142 0
129 146 0
137 154 0
129 145 0
118 134 0
129 146 0
128 146 0
120 136 0
132 149 0
123 139 0
120 137 0
129 146 0
125 143 0
128 145 0
115 135 0
135 153 0
127 144 0
124 142 0
122 140 0
127 145 0
132 153 0
122 140 0
138 159 0
126 147 0
129 148 0
123 141 0
119 137 0
131 150 0
124 143 0
127 147 0
123 143 0
126 145 0
121 144 0
125 145 0
121 140 0
122 141 0
123 147 0
122 144 0
124 146 0
127 146 0
125 146 0
111 134 0
120 140 0
122 142 0
113 137 0
122 142 0
114 137 0
109 129 0
118 140 0
126 149 0
112 134 0
124 148 0
119 142 0
116 137 0
113 135 0
109 131 0
116 139 0
122 143 0
121 141 0
120 141 0
120 143 0
107 130 0
122 146 0
116 138 0
117 138 0
112 133 0
126 145 0
121 142 0
108 129 0
114 136 0
125 148 0
109 131 0
109 130 0
110 129 0
112 132 0
115 135 0
96 116 0
119 138 0
107 127 0
106 123 0
104 123 0
101 122 0
109 127 0
111 129 0
106 125 0
112 130 0
106 124 0
105 125 0
107 125 0
112 131 0
105 121 0
98 115 0
107 126 0
114 131 0
97 116 0
107 123 0
107 124 0
90 107 0
79 94 0
99 115 0
107 122 0
89 105 0
106 123 0
73 90 0
82 99 0
91 107 0
88 103 0
76 90 0
93 106 0
88 103 0
85 99 0
99 114 0
81 95 0
89 104 0
92 105 0
79 92 0
78 93 0
79 95 0
87 99 0
82 96 0
78 91 0
87 102 0
80 94 0
72 86 0
76 89 0
91 104 0
66 80 0
77 89 0
91 105 0
75 89 0
79 91 0
74 89 0
88 100 0
87 99 0
76 89 0
83 97 0
90 104 0
88 103 0
85 99 0
99 113 0
95 110 0
101 116 0
90 104 0
97 112 0
86 100 0
92 105 0
90 105 0
95 111 0
82 98 0
104 118 0
99 116 0
103 118 0
88 104 0
107 123 0
101 117 0
106 121 0
93 109 0
108 124 0
99 115 0
114 131 0
108 125 0
105 119 0
100 116 0
108 124 0
107 124 0
110 128 0
104 120 0
101 115 0
113 129 0
102 121 0
116 133 0
115 134 0
128 143 0
117 133 0
116 134 0
113 129 0
125 144 0
113 131 0
116 133 0
110 128 0
106 121 0
104 124 0
118 134 0
115 130 0
117 132 0
108 126 0
124 140 0
115 132 0
116 132 0
128 146 0
123 139 0
129 143 0
118 136 0
114 131 0
130 146 0
120 133 0
112 127 0
118 133 0
114 131 0
127 140 0
129 144 0
128 144 0
129 144 0
136 150 0
128 139 0
117 132 0
120 136 0
123 137 0
110 121 0
121 134 0
127 144 0
123 137 0
131 143 0
115 127 0
130 144 0
124 137 0
123 135 0
125 135 0
113 121 0
133 141 0
117 128 0
137 147 0
128 139 0
134 142 0
127 136 0
126 132 0
125 135 0
133 138 0
137 144 0
121 124 0
129 136 0
125 135 0
136 143 0
126 134 0
126 129 0
116 119 0
136 139 0
124 128 0
127 129 0
135 136 0
131 135 0
121 122 0
129 131 0
125 124 0
131 135 0
129 132 0
130 127 0
125 122 0
136 139 0
131 132 0
131 131 0
134 133 0
124 122 0
126 124 0
136 136 0
128 127 0
135 133 0
128 127 0
124 120 0
136 137 0
135 133 0
130 126 0
132 125 0
129 124 0
131 128 0
134 131 0
132 130 0
148 150 0
134 134 0
139 139 0
131 128 0
146 145 0
141 140 0
142 145 0
140 141 0
141 142 0
146 146 0
139 139 0
137 136 0
145 148 0
146 147 0
150 152 0
140 141 0
150 154 0
145 146 0
144 148 0
142 145 0
152 157 0
152 158 0
149 152 0
148 155 0
147 153 0
152 160 0
145 149 0
153 159 0
153 165 0
155 162 0
146 154 0
151 160 0
154 168 0
157 167 0
158 166 0
152 163 0
151 163 0
151 162 0
155 169 0
151 163 0
159 174 0
155 166 0
162 176 0
155 170 0
157 173 0
158 174 0
153 168 0
155 171 0
153 167 0
152 166 0
153 170 0
156 170 0
153 170 0
158 177 0
154 172 0
158 176 0
155 179 0
157 181 0
150 176 0
155 181 0
152 177 0
158 181 0
149 172 0
153 178 0
158 181 0
156 180 0
153 176 0
158 180 0
153 177 0
155 177 0
153 174 0
157 179 0
158 180 0
153 175 0
148 170 0
158 177 0
154 176 0
152 173 0
151 171 0
153 174 0
150 170 0
148 169 0
151 170 0
146 167 0
147 167 0
153 172 0
143 163 0
152 171 0
147 165 0
143 163 0
137 156 0
147 165 0
143 160 0
151 168 0
145 163 0
137 154 0
138 155 0
142 160 0
132 148 0
147 164 0
141 157 0
138 154 0
137 153 0
143 160 0
143 159 0
135 151 0
147 163 0
137 152 0
128 144 0
137 153 0
128 143 0
136 150 0
130 144 0
140 155 0
139 155 0
127 143 0
135 150 0
132 148 0
132 147 0
133 150 0
128 143 0
125 141 0
131 146 0
134 149 0
131 146 0
129 145 0
131 146 0
131 147 0
127 143 0
130 147 0
123 140 0
129 147 0
133 149 0
128 144 0
136 153 0
132 150 0
131 149 0
131 150 0
124 140 0
133 151 0
130 147 0
120 137 0
123 141 0
127 143 0
128 146 0
136 155 0
127 145 0
123 141 0
134 152 0
114 134 0
115 135 0
128 148 0
129 148 0
125 145 0
130 149 0
122 140 0
127 146 0
127 149 0
120 140 0
126 147 0
124 143 0
121 141 0
120 140 0
127 149 0
131 151 0
119 139 0
121 142 0
126 148 0
122 144 0
130 151 0
118 138 0
129 149 0
112 133 0
124 144 0
124 146 0
117 139 0
109 130 0
119 139 0
114 134 0
124 146 0
121 145 0
121 145 0
122 143 0
116 139 0
124 145 0
122 146 0
108 129 0
113 136 0
111 134 0
111 130 0
119 141 0
108 130 0
125 147 0
125 147 0
122 143 0
121 141 0
121 143 0
115 135 0
118 140 0
117 140 0
112 133 0
118 140 0
110 129 0
109 130 0
119 140 0
108 128 0
102 125 0
121 142 0
113 133 0
107 127 0
113 134 0
112 131 0
100 118 0
106 124 0
109 128 0
111 129 0
108 125 0
113 132 0
115 133 0
105 125 0
100 120 0
104 123 0
94 112 0
96 114 0
94 112 0
109 126 0
94 111 0
103 120 0
105 122 0
108 125 0
98 115 0
93 109 0
96 113 0
94 110 0
92 108 0
99 115 0
95 112 0
91 105 0
98 112 0
99 113 0
102 117 0
87 103 0
87 101 0
83 100 0
78 94 0
91 106 0
89 105 0
75 91 0
80 95 0
89 104 0
87 102 0
93 108 0
85 101 0
95 109 0
91 105 0
88 101 0
88 101 0
94 108 0
89 104 0
89 102 0
87 103 0
94 108 0
96 110 0
93 106 0
99 113 0
99 112 0
98 112 0
97 112 0
89 103 0
81 95 0
94 109 0
95 110 0
95 112 0
92 107 0
94 110 0
93 109 0
86 100 0
98 112 0
97 113 0
100 115 0
102 117 0
105 120 0
105 120 0
102 118 0
93 109 0
103 118 0
108 122 0
91 106 0
94 108 0
98 112 0
97 113 0
95 110 0
112 127 0
102 119 0
109 124 0
103 119 0
108 124 0
115 129 0
108 123 0
114 129 0
97 115 0
113 128 0
104 122 0
104 120 0
122 138 0
118 135 0
113 133 0
112 132 0
121 137 0
120 137 0
116 132 0
109 125 0
120 139 0
114 132 0
111 130 0
121 138 0
112 129 0
123 142 0
122 140 0
107 124 0
120 135 0
125 142 0
120 136 0
112 127 0
125 143 0
120 137 0
124 140 0
126 143 0
124 141 0
134 151 0
122 138 0
115 132 0
122 138 0
126 144 0
129 146 0
124 141 0
120 135 0
121 135 0
119 132 0
120 136 0
121 134 0
127 142 0
129 143 0
129 142 0
133 148 0
122 133 0
126 138 0
133 145 0
129 139 0
123 137 0
128 142 0
118 131 0
117 129 0
137 152 0
124 135 0
127 139 0
121 130 0
134 145 0
120 128 0
128 140 0
129 137 0
130 137 0
130 139 0
131 139 0
131 141 0
131 138 0
134 141 0
130 136 0
132 136 0
134 140 0
136 141 0
125 130 0
132 137 0
123 127 0
130 135 0
134 139 0
136 140 0
131 131 0
132 135 0
127 132 0
131 133 0
124 122 0
137 140 0
124 123 0
134 138 0
125 126 0
132 133 0
131 131 0
124 124 0
136 135 0
132 134 0
137 134 0
130 128 0
141 141 0
129 127 0
139 141 0
133 132 0
130 128 0
133 131 0
149 151 0
130 128 0
132 131 0
139 135 0
134 133 0
137 133 0
140 140 0
137 135 0
143 143 0
144 144 0
140 139 0
148 150 0
145 146 0
144 145 0
142 143 0
147 151 0
150 155 0
143 145 0
143 143 0
142 142 0
147 148 0
145 149 0
146 151 0
155 162 0
148 152 0
150 155 0
150 156 0
154 162 0
156 165 0
154 162 0
148 157 0
155 165 0
154 165 0
153 165 0
148 155 0
146 153 0
148 157 0
155 166 0
155 164 0
154 169 0
151 163 0
149 161 0
151 161 0
152 166 0
155 167 0
155 169 0
157 171 0
155 167 0
154 169 0
155 171 0
153 170 0
160 175 0
152 169 0
152 166 0
158 172 0
156 174 0
156 174 0
153 178 0
158 180 0
155 180 0
155 179 0
154 179 0
160 181 0
160 182 0
152 176 0
156 179 0
154 178 0
157 178 0
149 173 0
157 180 0
150 172 0
150 175 0
150 173 0
155 176 0
150 171 0
151 171 0
153 174 0
148 169 0
148 170 0
154 174 0
153 172 0
144 164 0
150 171 0
142 160 0
154 173 0
147 168 0
141 159 0
139 159 0
151 171 0
147 166 0
146 163 0
145 164 0
146 164 0
149 166 0
143 159 0
144 161 0
142 158 0
139 157 0
150 166 0
143 161 0
140 157 0
146 163 0
144 160 0
135 152 0
137 153 0
139 156 0
137 153 0
143 159 0
141 156 0
138 155 0
138 154 0
139 154 0
135 151 0
136 154 0
132 148 0
137 153 0
139 155 0
132 148 0
129 144 0
136 153 0
134 149 0
134 151 0
137 152 0
126 141 0
129 146 0
136 153 0
134 152 0
130 147 0
132 148 0
136 154 0
128 145 0
131 147 0
139 157 0
132 149 0
140 157 0
138 156 0
130 149 0
128 146 0
124 142 0
128 146 0
129 146 0
128 146 0
128 146 0
128 146 0
129 147 0
125 145 0
123 141 0
126 144 0
131 152 0
134 154 0
130 149 0
121 141 0
125 145 0
125 145 0
118 139 0
130 151 0
129 150 0
125 145 0
120 141 0
130 150 0
131 153 0
127 150 0
132 151 0
134 154 0
131 150 0
119 140 0
124 144 0
132 153 0
121 142 0
123 144 0
131 150 0
128 147 0
126 147 0
125 146 0
123 146 0
119 142 0
134 155 0
125 146 0
116 138 0
124 146 0
122 145 0
116 137 0
120 141 0
124 146 0
127 148 0
122 144 0
114 136 0
123 147 0
114 136 0
118 140 0
111 132 0
132 155 0
123 145 0
117 138 0
111 132 0
110 132 0
126 149 0
125 148 0
122 144 0
109 132 0
124 146 0
115 136 0
120 141 0
123 144 0
111 131 0
114 136 0
114 135 0
113 136 0
119 139 0
117 139 0
104 125 0
110 131 0
120 140 0
114 134 0
103 125 0
99 119 0
104 125 0
103 122 0
108 128 0
95 112 0
107 126 0
105 125 0
103 121 0
104 123 0
114 132 0
104 123 0
92 110 0
95 115 0
104 121 0
98 116 0
102 120 0
99 117 0
111 130 0
105 123 0
99 118 0
94 111 0
102 121 0
105 121 0
92 109 0
92 109 0
104 120 0
97 114 0
96 112 0
97 112 0
92 108 0
89 105 0
102 119 0
95 110 0
67 83 0
94 109 0
105 119 0
102 117 0
86 101 0
97 111 0
95 111 0
84 96 0
77 90 0
86 100 0
87 101 0
90 105 0
91 106 0
98 114 0
101 115 0
89 105 0
87 99 0
81 98 0
88 102 0
97 111 0
74 88 0
89 103 0
93 107 0
96 110 0
85 100 0
86 100 0
100 116 0
93 109 0
97 112 0
100 115 0
107 122 0
94 108 0
103 121 0
88 104 0
109 123 0
108 125 0
106 124 0
105 120 0
106 123 0
118 136 0
100 113 0
113 128 0
106 121 0
98 116 0
111 128 0
99 115 0
104 120 0
116 135 0
108 124 0
108 123 0
117 134 0
116 135 0
112 129 0
122 137 0
116 130 0
110 128 0
110 129 0
115 132 0
108 123 0
112 131 0
115 132 0
114 130 0
120 139 0
115 130 0
126 144 0
124 145 0
106 124 0
120 135 0
115 134 0
123 143 0
124 139 0
118 133 0
108 128 0
129 144 0
128 146 0
115 132 0
122 137 0
117 133 0
134 149 0
122 138 0
123 141 0
114 131 0
124 139 0
130 148 0
112 129 0
132 149 0
113 129 0
124 141 0
116 129 0
126 141 0
123 140 0
119 135 0
126 144 0
120 134 0
127 139 0
124 138 0
127 145 0
121 134 0
126 141 0
119 131 0
121 135 0
138 150 0
121 134 0
138 150 0
123 133 0
135 143 0
137 151 0
130 144 0
131 144 0
133 144 0
119 130 0
134 144 0
126 139 0
123 132 0
123 132 0
129 141 0
133 141 0
142 148 0
126 133 0
124 131 0
129 135 0
130 134 0
133 141 0
127 133 0
131 136 0
129 136 0
131 137 0
125 133 0
128 133 0
139 147 0
139 143 0
127 130 0
134 137 0
130 133 0
127 126 0
123 125 0
136 138 0
133 134 0
134 137 0
129 130 0
132 135 0
135 139 0
131 132 0
135 136 0
139 142 0
127 127 0
131 131 0
132 129 0
138 137 0
139 140 0
135 134 0
139 141 0
130 127 0
135 132 0
140 141 0
138 139 0
139 137 0
138 137 0
144 143 0
133 135 0
144 146 0
143 146 0
146 148 0
140 140 0
143 145 0
141 144 0
148 152 0
146 147 0
134 133 0
144 147 0
144 148 0
148 152 0
148 149 0
148 153 0
147 151 0
152 157 0
147 151 0
154 163 0
148 151 0
150 156 0
148 154 0
151 156 0
148 156 0
149 157 0
154 165 0
153 163 0
155 166 0
150 154 0
152 160 0
150 163 0
153 163 0
154 169 0
154 165 0
154 165 0
155 167 0
156 164 0
154 167 0
153 164 0
153 168 0
154 169 0
151 163 0
153 168 0
156 175 0
153 170 0
157 172 0
154 173 0
158 177 0
154 170 0
150 168 0
154 176 0
156 180 0
156 179 0
157 181 0
151 174 0
158 179 0
150 174 0
154 177 0
154 176 0
153 176 0
151 174 0
156 179 0
154 176 0
153 176 0
155 177 0
142 163 0
153 175 0
152 175 0
152 172 0
156 176 0
152 172 0
156 176 0
150 173 0
149 169 0
146 166 0
157 177 0
154 174 0
150 169 0
148 168 0
148 166 0
145 164 0
147 165 0
141 160 0
148 167 0
141 160 0
145 163 0
154 173 0
138 156 0
145 164 0
147 165 0
138 157 0
139 157 0
145 161 0
135 153 0
140 156 0
141 156 0
131 146 0
137 154 0
145 161 0
133 150 0
139 156 0
140 157 0
137 155 0
141 157 0
134 150 0
137 154 0
136 151 0
133 150 0
129 147 0
135 152 0
141 156 0
133 149 0
143 160 0
141 158 0
130 148 0
132 149 0
137 155 0
133 150 0
135 152 0
123 138 0
140 159 0
129 147 0
131 148 0
137 152 0
133 151 0
136 153 0
133 150 0
128 147 0
133 151 0
136 154 0
137 155 0
124 142 0
130 150 0
133 151 0
127 146 0
131 149 0
130 149 0
140 160 0
122 140 0
132 153 0
136 154 0
127 150 0
131 150 0
128 145 0
127 147 0
134 154 0
137 159 0
129 149 0
131 150 0
125 145 0
125 145 0
130 150 0
120 140 0
133 153 0
126 148 0
128 150 0
122 144 0
131 153 0
126 145 0
122 144 0
132 154 0
129 150 0
127 149 0
122 144 0
119 140 0
129 151 0
129 151 0
131 153 0
127 147 0
129 150 0
125 148 0
124 144 0
127 148 0
122 146 0
126 147 0
124 146 0
123 147 0
127 150 0
118 142 0
124 147 0
130 151 0
115 137 0
124 147 0
118 143 0
121 142 0
123 146 0
121 142 0
119 139 0
110 131 0
120 144 0
115 137 0
116 138 0
121 142 0
108 126 0
115 135 0
106 127 0
125 149 0
120 141 0
121 142 0
119 140 0
120 141 0
116 138 0
115 136 0
113 134 0
105 124 0
110 128 0
112 132 0
109 130 0
120 140 0
103 122 0
102 122 0
118 137 0
104 122 0
99 119 0
98 116 0
117 137 0
94 111 0
87 104 0
114 132 0
95 113 0
106 126 0
94 113 0
93 110 0
98 118 0
109 127 0
101 118 0
102 121 0
99 116 0
102 118 0
83 100 0
104 121 0
94 111 0
98 115 0
91 108 0
90 106 0
88 103 0
103 120 0
89 106 0
72 88 0
94 110 0
90 105 0
89 104 0
104 117 0
99 114 0
96 112 0
83 97 0
88 103 0
90 103 0
93 107 0
79 93 0
95 112 0
94 108 0
99 114 0
94 110 0
92 108 0
80 93 0
83 98 0
91 106 0
100 115 0
80 95 0
96 112 0
88 102 0
80 95 0
99 114 0
97 111 0
81 96 0
102 118 0
92 107 0
94 110 0
106 119 0
111 126 0
105 121 0
97 113 0
113 131 0
96 112 0
94 110 0
104 121 0
100 117 0
99 115 0
96 114 0
111 129 0
103 115 0
105 120 0
103 119 0
103 117 0
109 126 0
108 123 0
103 122 0
105 124 0
126 145 0
107 122 0
112 129 0
121 138 0
104 120 0
110 128 0
108 125 0
111 130 0
120 143 0
115 133 0
112 129 0
115 130 0
118 137 0
117 133 0
117 133 0
114 131 0
108 129 0
121 138 0
111 131 0
122 140 0
122 139 0
128 149 0
127 145 0
119 137 0
121 137 0
129 146 0
125 141 0
121 136 0
123 139 0
110 131 0
106 126 0
124 144 0
118 139 0
121 139 0
132 149 0
117 137 0
136 157 0
126 143 0
117 135 0
122 139 0
119 137 0
124 139 0
119 133 0
128 144 0
132 147 0
130 146 0
129 142 0
117 131 0
126 142 0
119 136 0
120 133 0
133 147 0
130 144 0
130 145 0
128 142 0
133 146 0
117 130 0
134 147 0
127 140 0
126 136 0
122 131 0
129 139 0
142 153 0
118 130 0
122 131 0
122 131 0
128 141 0
128 138 0
131 140 0
125 131 0
124 132 0
131 141 0
123 134 0
132 143 0
127 135 0
139 145 0
137 147 0
138 148 0
137 145 0
137 145 0
134 138 0
135 139 0
140 150 0
130 134 0
127 132 0
132 137 0
133 138 0
140 143 0
136 142 0
135 138 0
137 139 0
139 140 0
132 133 0
140 145 0
140 143 0
136 137 0
134 135 0
136 136 0
138 139 0
145 147 0
135 137 0
140 142 0
139 138 0
136 136 0
130 130 0
144 144 0
139 139 0
141 142 0
136 135 0
140 140 0
140 142 0
139 141 0
141 141 0
142 144 0
151 153 0
141 146 0
138 139 0
140 139 0
145 149 0
141 145 0
145 147 0
139 143 0
144 148 0
144 148 0
149 157 0
144 149 0
147 149 0
153 156 0
147 151 0
151 156 0
152 159 0
148 152 0
144 149 0
150 155 0
149 156 0
150 156 0
147 153 0
149 160 0
153 162 0
150 157 0
148 158 0
150 162 0
146 155 0
155 166 0
159 171 0
152 160 0
153 166 0
150 164 0
152 165 0
157 172 0
154 168 0
156 167 0
154 165 0
154 168 0
154 165 0
153 167 0
156 172 0
148 162 0
159 171 0
157 172 0
158 177 0
152 175 0
157 181 0
152 177 0
155 177 0
158 180 0
152 176 0
154 176 0
153 175 0
157 178 0
149 173 0
152 173 0
154 177 0
154 177 0
152 172 0
156 178 0
153 175 0
150 170 0
153 173 0
147 167 0
153 174 0
151 171 0
148 167 0
151 171 0
150 170 0
150 170 0
152 171 0
149 170 0
146 164 0
151 169 0
145 164 0
147 167 0
147 167 0
144 163 0
143 160 0
144 161 0
140 158 0
141 159 0
141 158 0
149 166 0
145 163 0
139 156 0
150 168 0
147 164 0
135 153 0
140 157 0
132 148 0
138 156 0
134 151 0
134 151 0
139 157 0
143 162 0
138 154 0
139 155 0
136 152 0
138 155 0
142 159 0
131 147 0
125 143 0
135 152 0
135 152 0
141 160 0
140 156 0
127 143 0
142 160 0
140 157 0
134 151 0
133 150 0
134 151 0
133 151 0
131 149 0
132 149 0
139 157 0
136 154 0
127 145 0
133 151 0
132 150 0
126 144 0
133 151 0
124 142 0
136 154 0
132 152 0
139 158 0
127 145 0
122 142 0
128 147 0
130 149 0
129 148 0
127 148 0
129 149 0
129 149 0
127 144 0
131 151 0
133 153 0
122 142 0
134 153 0
132 153 0
127 147 0
124 145 0
132 153 0
128 147 0
128 150 0
120 140 0
127 148 0
128 151 0
129 151 0
131 153 0
127 149 0
124 147 0
118 141 0
125 148 0
124 147 0
129 151 0
131 153 0
125 147 0
117 141 0
122 145 0
129 149 0
120 142 0
122 145 0
121 145 0
123 145 0
126 149 0
131 153 0
121 146 0
123 145 0
122 144 0
119 142 0
118 142 0
128 150 0
118 138 0
123 146 0
116 138 0
116 139 0
127 151 0
114 135 0
129 153 0
124 146 0
122 145 0
112 137 0
112 132 0
113 133 0
115 139 0
118 141 0
110 134 0
114 135 0
118 139 0
124 144 0
116 136 0
115 136 0
123 144 0
119 138 0
117 137 0
110 132 0
112 133 0
111 134 0
100 121 0
108 128 0
111 132 0
111 132 0
106 126 0
109 129 0
106 127 0
112 131 0
105 123 0
106 124 0
109 128 0
109 128 0
105 122 0
95 113 0
104 122 0
117 136 0
110 129 0
98 115 0
112 131 0
98 117 0
105 123 0
99 118 0
75 91 0
105 122 0
85 102 0
103 120 0
104 123 0
90 107 0
100 117 0
96 113 0
98 114 0
92 109 0
95 113 0
94 110 0
92 108 0
94 111 0
96 112 0
96 114 0
94 111 0
113 129 0
96 112 0
95 110 0
95 113 0
98 113 0
89 101 0
102 119 0
83 98 0
95 112 0
99 114 0
97 113 0
102 119 0
102 118 0
89 106 0
95 111 0
92 107 0
82 98 0
84 100 0
103 120 0
98 112 0
108 125 0
84 99 0
95 112 0
105 123 0
98 116 0
100 117 0
105 121 0
91 107 0
106 122 0
102 119 0
116 130 0
100 116 0
107 124 0
84 102 0
104 120 0
102 119 0
105 121 0
100 117 0
110 128 0
107 125 0
107 124 0
117 133 0
109 126 0
123 139 0
124 140 0
111 129 0
109 126 0
107 123 0
118 139 0
107 125 0
123 141 0
108 127 0
109 128 0
112 128 0
117 137 0
122 142 0
113 131 0
115 135 0
107 126 0
121 139 0
134 153 0
116 133 0
117 137 0
122 141 0
114 133 0
114 131 0
122 142 0
123 140 0
120 137 0
127 147 0
113 130 0
126 143 0
103 123 0
119 136 0
125 142 0
125 143 0
124 141 0
126 148 0
120 135 0
129 149 0
121 138 0
118 135 0
116 133 0
113 132 0
113 131 0
119 137 0
132 149 0
122 137 0
125 141 0
125 141 0
123 139 0
123 140 0
130 146 0
127 144 0
124 141 0
133 147 0
123 136 0
133 148 0
121 135 0
134 152 0
120 135 0
123 136 0
134 146 0
115 130 0
129 144 0
131 143 0
117 130 0
121 129 0
136 147 0
129 141 0
129 141 0
131 147 0
127 139 0
120 131 0
121 132 0
124 136 0
131 140 0
133 141 0
138 147 0
126 137 0
129 136 0
136 146 0
133 142 0
135 144 0
130 135 0
124 130 0
136 141 0
126 132 0
134 141 0
130 134 0
131 134 0
130 133 0
137 139 0
133 136 0
136 140 0
133 136 0
134 136 0
138 142 0
137 139 0
132 135 0
137 141 0
131 133 0
132 134 0
143 146 0
146 152 0
137 139 0
136 139 0
132 137 0
138 140 0
135 137 0
142 145 0
137 140 0
137 141 0
134 132 0
142 146 0
139 140 0
141 141 0
137 140 0
139 141 0
147 151 0
143 148 0
146 151 0
141 143 0
149 151 0
143 148 0
148 152 0
143 145 0
145 147 0
145 149 0
145 147 0
144 148 0
147 152 0
147 150 0
155 160 0
147 152 0
144 150 0
153 157 0
148 156 0
150 155 0
146 153 0
151 158 0
152 160 0
156 164 0
153 162 0
148 154 0
150 158 0
148 158 0
148 157 0
152 163 0
154 165 0
152 163 0
149 162 0
155 168 0
154 166 0
152 164 0
156 166 0
153 166 0
155 167 0
155 171 0
154 166 0
154 166 0
153 167 0
157 174 0
157 174 0
152 169 0
150 165 0
156 180 0
156 179 0
152 175 0
155 177 0
159 180 0
153 177 0
151 174 0
155 179 0
153 175 0
152 175 0
155 176 0
146 169 0
156 178 0
155 177 0
151 173 0
148 170 0
152 172 0
155 174 0
152 172 0
149 169 0
146 165 0
151 171 0
142 162 0
146 167 0
150 170 0
153 173 0
152 171 0
150 169 0
152 170 0
148 168 0
145 164 0
146 164 0
148 166 0
143 162 0
143 161 0
143 161 0
142 160 0
146 164 0
144 162 0
137 154 0
140 158 0
141 158 0
140 156 0
143 160 0
141 158 0
146 163 0
141 158 0
142 161 0
139 157 0
144 162 0
142 161 0
146 163 0
138 156 0
141 160 0
140 158 0
141 158 0
134 151 0
136 153 0
139 157 0
134 153 0
139 157 0
133 150 0
136 153 0
141 157 0
129 146 0
139 157 0
143 161 0
131 149 0
131 148 0
134 152 0
135 152 0
126 145 0
130 149 0
128 148 0
134 150 0
139 158 0
127 145 0
137 157 0
134 153 0
133 152 0
127 147 0
137 157 0
130 149 0
130 149 0
136 156 0
133 154 0
126 147 0
130 149 0
128 149 0
125 146 0
137 159 0
126 147 0
123 145 0
145 165 0
135 153 0
126 149 0
131 152 0
127 149 0
125 144 0
133 155 0
121 142 0
121 141 0
112 134 0
130 150 0
132 155 0
133 154 0
126 148 0
124 148 0
125 149 0
137 161 0
129 153 0
130 154 0
119 144 0
129 151 0
132 155 0
123 146 0
124 146 0
125 147 0
122 144 0
127 149 0
129 154 0
127 149 0
127 150 0
132 152 0
122 144 0
122 147 0
131 153 0
133 156 0
127 150 0
115 138 0
130 149 0
123 144 0
123 146 0
133 154 0
122 145 0
117 141 0
117 140 0
118 139 0
116 138 0
123 147 0
120 142 0
115 137 0
117 140 0
109 131 0
135 156 0
117 138 0
117 138 0
121 143 0
121 144 0
122 143 0
131 153 0
120 140 0
119 139 0
109 129 0
109 131 0
120 140 0
116 137 0
112 133 0
115 135 0
119 140 0
107 127 0
110 130 0
111 131 0
106 124 0
97 118 0
96 118 0
105 124 0
116 138 0
107 128 0
111 129 0
109 129 0
109 128 0
103 121 0
101 120 0
102 120 0
99 118 0
117 136 0
104 123 0
95 112 0
107 124 0
100 118 0
100 116 0
103 122 0
91 107 0
104 122 0
112 127 0
101 119 0
104 122 0
98 113 0
99 117 0
88 104 0
90 108 0
106 122 0
93 109 0
102 117 0
110 127 0
89 105 0
103 119 0
95 111 0
121 136 0
92 109 0
105 122 0
102 117 0
90 107 0
108 124 0
98 114 0
85 101 0
86 102 0
93 109 0
94 110 0
96 113 0
107 124 0
94 110 0
86 102 0
105 120 0
97 111 0
98 115 0
87 103 0
108 120 0
103 119 0
113 129 0
106 124 0
111 128 0
105 122 0
104 120 0
101 120 0
101 117 0
101 120 0
102 121 0
118 137 0
104 122 0
99 117 0
106 126 0
110 128 0
102 118 0
112 129 0
97 115 0
109 126 0
112 130 0
106 123 0
113 132 0
123 138 0
104 120 0
115 132 0
106 123 0
111 128 0
119 140 0
122 139 0
116 133 0
118 134 0
99 119 0
126 144 0
114 133 0
120 137 0
124 142 0
117 135 0
113 133 0
123 139 0
117 137 0
123 139 0
119 138 0
128 148 0
126 145 0
122 142 0
121 141 0
118 137 0
113 130 0
124 144 0
114 131 0
123 140 0
108 126 0
118 134 0
130 149 0
120 140 0
119 137 0
118 138 0
120 138 0
123 139 0
117 136 0
116 132 0
122 140 0
114 130 0
133 149 0
126 143 0
122 140 0
129 146 0
130 146 0
125 143 0
131 148 0
134 153 0
127 139 0
122 139 0
127 139 0
122 141 0
123 140 0
139 155 0
130 146 0
126 142 0
132 144 0
134 147 0
129 143 0
131 146 0
133 146 0
129 142 0
132 143 0
123 136 0
141 156 0
124 134 0
130 142 0
131 143 0
126 137 0
120 130 0
126 134 0
140 149 0
131 139 0
136 145 0
139 150 0
131 141 0
126 137 0
138 148 0
132 140 0
130 138 0
134 139 0
131 137 0
131 142 0
140 148 0
132 138 0
144 150 0
138 141 0
136 140 0
125 130 0
132 138 0
139 145 0
135 140 0
142 150 0
139 146 0
131 137 0
133 136 0
141 144 0
132 136 0
139 147 0
137 142 0
141 143 0
141 145 0
138 141 0
136 138 0
145 150 0
135 137 0
140 143 0
143 147 0
141 144 0
143 144 0
142 144 0
145 148 0
137 138 0
150 153 0
141 143 0
148 152 0
147 153 0
137 140 0
140 147 0
147 154 0
147 153 0
152 156 0
146 148 0
145 148 0
149 152 0
144 151 0
148 154 0
152 161 0
150 155 0
153 160 0
147 153 0
148 155 0
150 156 0
154 165 0
150 158 0
159 168 0
149 158 0
151 162 0
153 163 0
153 163 0
158 165 0
152 163 0
154 165 0
152 160 0
155 165 0
153 163 0
155 166 0
156 168 0
155 167 0
147 159 0
152 164 0
153 166 0
157 174 0
151 166 0
157 172 0
159 174 0
151 163 0
149 167 0
154 178 0
155 180 0
157 179 0
157 180 0
155 177 0
155 176 0
153 176 0
158 179 0
150 174 0
153 176 0
155 179 0
149 170 0
148 170 0
150 170 0
153 174 0
153 174 0
148 167 0
148 169 0
147 168 0
150 171 0
151 170 0
149 169 0
152 171 0
151 171 0
151 172 0
150 169 0
151 170 0
149 168 0
141 161 0
143 164 0
144 163 0
149 169 0
149 169 0
148 165 0
146 165 0
142 159 0
141 159 0
134 153 0
145 164 0
150 169 0
142 160 0
149 167 0
148 166 0
141 159 0
131 148 0
142 161 0
149 167 0
142 159 0
141 158 0
145 163 0
134 152 0
141 160 0
138 156 0
139 157 0
139 156 0
138 156 0
133 151 0
136 154 0
143 161 0
133 150 0
136 153 0
134 151 0
138 155 0
136 154 0
138 158 0
141 159 0
133 154 0
132 152 0
133 151 0
138 158 0
134 153 0
140 160 0
133 152 0
125 145 0
137 155 0
135 155 0
139 159 0
127 147 0
126 146 0
133 153 0
130 149 0
130 150 0
133 153 0
138 159 0
128 148 0
123 143 0
120 142 0
123 143 0
125 145 0
134 154 0
135 156 0
122 144 0
119 140 0
142 163 0
127 151 0
131 151 0
130 150 0
127 149 0
119 140 0
130 154 0
126 147 0
132 153 0
122 144 0
136 157 0
131 152 0
128 150 0
122 146 0
135 158 0
133 156 0
136 160 0
127 147 0
122 146 0
133 155 0
134 158 0
132 155 0
109 132 0
123 148 0
129 151 0
122 146 0
125 147 0
121 144 0
123 148 0
122 145 0
116 139 0
122 145 0
115 140 0
112 137 0
118 141 0
120 142 0
126 148 0
122 144 0
126 149 0
123 146 0
123 147 0
116 137 0
120 142 0
121 144 0
124 148 0
120 143 0
114 136 0
125 149 0
118 139 0
117 141 0
117 140 0
124 146 0
123 144 0
115 136 0
113 135 0
123 144 0
114 135 0
109 130 0
125 148 0
113 135 0
108 129 0
109 130 0
108 130 0
106 126 0
114 136 0
112 134 0
108 129 0
113 134 0
107 127 0
117 137 0
99 120 0
107 127 0
108 130 0
111 132 0
110 128 0
112 133 0
102 122 0
104 124 0
112 131 0
88 108 0
95 115 0
106 124 0
112 132 0
110 128 0
110 129 0
95 114 0
105 124 0
92 110 0
107 125 0
114 132 0
103 121 0
104 121 0
88 103 0
101 117 0
92 110 0
99 116 0
96 113 0
96 114 0
95 111 0
92 106 0
95 112 0
99 117 0
84 101 0
97 115 0
102 117 0
105 122 0
99 115 0
102 117 0
99 117 0
92 110 0
110 128 0
94 110 0
101 117 0
104 120 0
98 112 0
82 98 0
100 116 0
106 120 0
105 121 0
111 127 0
99 115 0
98 115 0
101 118 0
107 122 0
108 125 0
94 110 0
108 124 0
97 115 0
95 112 0
92 109 0
102 119 0
110 129 0
109 126 0
104 122 0
122 140 0
98 116 0
111 128 0
107 125 0
118 135 0
128 145 0
112 131 0
115 132 0
102 121 0
112 130 0
103 118 0
119 138 0
97 114 0
109 129 0
108 126 0
112 126 0
118 136 0
116 133 0
123 143 0
112 129 0
128 146 0
110 127 0
121 139 0
112 128 0
123 142 0
114 134 0
121 137 0
111 130 0
118 136 0
126 146 0
121 142 0
125 145 0
110 130 0
118 139 0
119 137 0
121 140 0
119 138 0
123 142 0
117 136 0
132 149 0
125 145 0
118 135 0
120 142 0
124 143 0
124 142 0
119 134 0
126 144 0
126 146 0
122 142 0
127 147 0
120 136 0
122 139 0
124 143 0
127 148 0
131 146 0
132 147 0
132 149 0
129 147 0
117 132 0
123 141 0
120 140 0
129 145 0
127 142 0
124 138 0
115 135 0
124 142 0
132 146 0
126 140 0
128 143 0
137 153 0
124 139 0
126 142 0
119 135 0
132 147 0
123 139 0
124 136 0
129 143 0
120 134 0
137 151 0
127 140 0
125 136 0
134 148 0
131 142 0
126 136 0
137 150 0
125 137 0
134 145 0
133 143 0
134 144 0
129 137 0
139 147 0
127 136 0
131 141 0
134 140 0
130 137 0
131 139 0
131 143 0
139 149 0
130 136 0
136 144 0
129 141 0
138 143 0
135 140 0
137 143 0
133 140 0
141 150 0
131 134 0
135 141 0
132 138 0
132 138 0
129 133 0
135 138 0
137 142 0
140 147 0
138 142 0
147 151 0
137 141 0
132 134 0
136 138 0
140 145 0
144 148 0
145 147 0
132 136 0
146 152 0
140 143 0
142 144 0
147 150 0
139 143 0
148 155 0
142 144 0
139 142 0
137 139 0
140 142 0
151 157 0
142 146 0
147 150 0
148 150 0
149 153 0
148 152 0
152 158 0
151 158 0
149 154 0
143 148 0
155 161 0
148 155 0
146 153 0
151 158 0
152 158 0
155 163 0
151 160 0
150 159 0
153 162 0
150 158 0
153 162 0
153 163 0
155 166 0
150 159 0
154 164 0
148 156 0
152 165 0
154 162 0
157 169 0
156 169 0
154 165 0
150 162 0
148 160 0
154 167 0
152 164 0
150 166 0
160 171 0
159 173 0
156 173 0
158 172 0
152 175 0
156 178 0
155 177 0
151 175 0
156 179 0
156 179 0
152 175 0
150 172 0
149 172 0
148 171 0
153 176 0
153 176 0
155 176 0
149 172 0
152 173 0
151 174 0
150 171 0
147 167 0
150 169 0
154 175 0
152 173 0
155 175 0
152 172 0
149 169 0
144 164 0
151 169 0
143 164 0
148 166 0
148 166 0
143 161 0
146 164 0
145 164 0
146 165 0
142 159 0
138 157 0
149 168 0
141 158 0
143 162 0
149 168 0
140 159 0
138 157 0
140 159 0
143 161 0
144 162 0
135 153 0
141 159 0
141 159 0
136 153 0
144 162 0
146 163 0
137 156 0
147 165 0
141 160 0
139 157 0
137 155 0
133 151 0
135 153 0
140 159 0
141 159 0
137 156 0
135 153 0
140 160 0
144 164 0
134 153 0
139 159 0
137 155 0
132 151 0
141 159 0
133 153 0
134 153 0
125 145 0
131 152 0
134 155 0
131 151 0
132 152 0
137 157 0
130 151 0
131 153 0
125 145 0
138 158 0
132 152 0
134 154 0
139 161 0
138 160 0
135 154 0
133 156 0
128 150 0
132 153 0
133 155 0
132 154 0
134 155 0
136 158 0
123 144 0
132 153 0
128 150 0
127 150 0
127 149 0
136 158 0
134 157 0
129 152 0
131 154 0
120 141 0
132 153 0
127 150 0
124 149 0
121 146 0
137 159 0
130 151 0
133 156 0
138 161 0
130 152 0
127 149 0
129 151 0
122 146 0
132 155 0
126 149 0
132 155 0
122 144 0
128 151 0
118 144 0
125 148 0
119 140 0
117 142 0
126 145 0
129 153 0
125 149 0
113 136 0
123 145 0
124 147 0
119 142 0
122 147 0
128 152 0
130 152 0
122 146 0
109 130 0
123 145 0
117 141 0
114 136 0
116 139 0
112 135 0
123 143 0
118 143 0
124 144 0
115 136 0
101 123 0
123 144 0
125 145 0
124 146 0
127 150 0
119 143 0
103 127 0
115 139 0
122 144 0
120 143 0
112 133 0
113 134 0
115 137 0
112 135 0
122 144 0
112 134 0
113 134 0
112 133 0
115 137 0
115 135 0
114 135 0
103 123 0
99 118 0
105 125 0
113 134 0
106 126 0
96 117 0
114 135 0
108 127 0
104 122 0
103 122 0
107 126 0
110 131 0
107 125 0
104 124 0
99 118 0
110 130 0
116 135 0
99 115 0
102 120 0
101 118 0
101 119 0
97 116 0
101 119 0
103 120 0
100 118 0
103 120 0
107 125 0
101 118 0
113 129 0
104 120 0
98 116 0
94 112 0
99 116 0
95 112 0
103 120 0
97 114 0
114 132 0
102 121 0
104 118 0
95 113 0
99 116 0
105 120 0
105 120 0
95 113 0
99 116 0
106 125 0
105 123 0
105 123 0
103 120 0
101 118 0
118 135 0
102 121 0
108 125 0
114 133 0
99 118 0
103 119 0
117 133 0
115 134 0
100 119 0
112 131 0
116 131 0
113 129 0
101 119 0
99 117 0
105 123 0
107 126 0
117 136 0
112 132 0
111 129 0
114 133 0
110 127 0
117 135 0
103 121 0
114 132 0
112 130 0
112 131 0
111 131 0
111 130 0
115 135 0
113 130 0
107 124 0
111 125 0
112 132 0
113 132 0
109 130 0
108 128 0
123 143 0
112 132 0
125 144 0
121 139 0
121 140 0
122 142 0
111 134 0
114 132 0
118 138 0
122 140 0
120 141 0
113 132 0
116 135 0
121 141 0
124 143 0
122 144 0
130 150 0
124 143 0
127 145 0
132 152 0
119 139 0
126 147 0
114 132 0
113 133 0
126 142 0
126 146 0
125 143 0
123 140 0
131 148 0
131 151 0
126 144 0
127 144 0
123 141 0
129 148 0
130 147 0
133 149 0
122 137 0
123 141 0
130 146 0
126 146 0
128 148 0
129 144 0
117 135 0
125 140 0
131 146 0
125 141 0
120 133 0
130 146 0
125 143 0
128 141 0
126 140 0
140 156 0
121 134 0
135 152 0
120 133 0
124 136 0
136 151 0
126 139 0
134 143 0
133 145 0
130 140 0
128 139 0
128 143 0
130 141 0
131 142 0
139 149 0
134 144 0
131 139 0
129 141 0
129 139 0
132 141 0
143 155 0
130 140 0
134 142 0
132 142 0
133 142 0
141 150 0
135 143 0
134 140 0
145 153 0
133 140 0
142 150 0
145 153 0
136 140 0
144 149 0
134 141 0
132 138 0
135 143 0
140 148 0
137 139 0
130 135 0
139 144 0
141 146 0
137 144 0
146 152 0
144 149 0
144 148 0
144 152 0
139 142 0
150 157 0
138 144 0
145 150 0
146 151 0
144 149 0
144 150 0
147 152 0
143 149 0
140 147 0
145 150 0
151 157 0
141 148 0
152 158 0
145 150 0
146 151 0
145 149 0
143 147 0
144 148 0
149 154 0
145 148 0
149 153 0
149 158 0
155 162 0
149 154 0
147 152 0
152 161 0
152 161 0
150 155 0
150 161 0
152 162 0
150 159 0
156 167 0
147 154 0
153 163 0
151 159 0
150 159 0
150 159 0
156 164 0
155 165 0
148 158 0
151 159 0
153 165 0
157 169 0
157 171 0
153 166 0
150 162 0
153 166 0
152 165 0
155 171 0
156 171 0
151 173 0
146 170 0
153 174 0
152 174 0
147 169 0
147 168 0
149 172 0
151 173 0
149 169 0
152 172 0
151 175 0
149 169 0
152 173 0
150 170 0
149 169 0
145 166 0
151 172 0
154 176 0
151 171 0
150 171 0
147 167 0
147 167 0
148 167 0
146 166 0
145 164 0
147 166 0
144 163 0
146 167 0
149 169 0
141 160 0
144 165 0
145 164 0
141 159 0
143 161 0
139 158 0
147 167 0
150 169 0
135 154 0
145 163 0
146 165 0
136 155 0
141 159 0
147 167 0
140 158 0
140 160 0
138 157 0
149 169 0
143 162 0
139 158 0
146 165 0
142 161 0
144 162 0
138 157 0
137 155 0
138 158 0
135 154 0
144 163 0
138 158 0
146 165 0
136 156 0
144 163 0
130 149 0
132 152 0
139 160 0
138 157 0
136 155 0
139 160 0
135 154 0
133 154 0
135 154 0
134 155 0
128 149 0
137 156 0
136 154 0
135 155 0
128 149 0
135 155 0
140 159 0
133 153 0
135 157 0
141 161 0
135 157 0
142 163 0
136 158 0
131 153 0
133 155 0
143 164 0
130 151 0
134 156 0
136 158 0
127 149 0
131 152 0
131 152 0
122 144 0
139 159 0
138 159 0
130 153 0
122 146 0
127 153 0
127 148 0
125 149 0
128 151 0
130 152 0
129 151 0
124 146 0
138 162 0
124 148 0
134 158 0
123 148 0
125 147 0
130 153 0
125 149 0
124 148 0
144 168 0
125 148 0
120 145 0
123 147 0
126 149 0
132 156 0
126 149 0
130 155 0
119 142 0
124 147 0
131 156 0
118 142 0
132 155 0
126 150 0
115 140 0
110 133 0
123 146 0
115 140 0
116 138 0
128 150 0
121 145 0
125 149 0
118 140 0
128 149 0
114 137 0
116 139 0
110 131 0
118 142 0
121 143 0
117 141 0
119 140 0
122 144 0
124 146 0
112 135 0
106 128 0
119 138 0
121 142 0
120 141 0
108 129 0
116 138 0
117 140 0
121 142 0
115 136 0
115 137 0
115 138 0
119 139 0
107 128 0
112 134 0
109 128 0
114 133 0
114 136 0
114 134 0
118 137 0
104 125 0
110 131 0
122 142 0
103 123 0
112 132 0
106 126 0
113 132 0
99 118 0
100 118 0
108 128 0
116 134 0
110 129 0
100 119 0
108 126 0
107 124 0
105 125 0
116 132 0
107 124 0
101 120 0
105 124 0
109 130 0
110 130 0
102 121 0
110 129 0
107 127 0
103 120 0
99 119 0
108 124 0
104 122 0
101 119 0
103 119 0
106 125 0
117 134 0
110 127 0
101 119 0
99 114 0
101 120 0
103 120 0
111 129 0
96 114 0
112 130 0
100 116 0
111 129 0
110 129 0
108 125 0
103 120 0
92 107 0
111 126 0
101 117 0
96 114 0
102 120 0
113 131 0
106 124 0
115 132 0
95 113 0
110 127 0
105 123 0
98 113 0
109 128 0
104 121 0
99 117 0
112 128 0
115 137 0
112 132 0
106 124 0
110 128 0
110 128 0
113 133 0
103 121 0
114 129 0
110 128 0
107 126 0
118 138 0
115 134 0
114 134 0
120 138 0
117 137 0
121 138 0
115 136 0
115 134 0
114 132 0
115 134 0
122 143 0
124 141 0
121 137 0
116 135 0
124 143 0
117 136 0
127 145 0
111 130 0
127 145 0
124 141 0
119 138 0
119 140 0
117 140 0
122 141 0
124 143 0
111 134 0
125 144 0
117 135 0
122 142 0
128 145 0
127 148 0
117 135 0
130 148 0
121 142 0
122 141 0
129 147 0
121 140 0
124 141 0
124 145 0
125 141 0
120 138 0
128 148 0
137 154 0
126 144 0
123 143 0
127 147 0
127 142 0
120 138 0
127 141 0
130 148 0
136 156 0
131 147 0
133 147 0
134 152 0
131 149 0
135 152 0
127 145 0
128 144 0
128 144 0
127 142 0
125 141 0
132 150 0
132 149 0
129 145 0
131 145 0
119 137 0
128 140 0
132 148 0
140 152 0
127 143 0
129 142 0
133 148 0
123 138 0
128 141 0
129 145 0
134 147 0
138 151 0
129 143 0
125 137 0
138 150 0
134 145 0
134 146 0
137 150 0
135 144 0
127 140 0
135 146 0
136 143 0
140 152 0
131 140 0
141 153 0
141 151 0
136 145 0
135 139 0
137 146 0
132 141 0
142 149 0
139 145 0
136 143 0
137 146 0
140 145 0
139 144 0
134 138 0
141 148 0
140 147 0
146 153 0
139 148 0
148 154 0
139 146 0
142 148 0
144 149 0
148 154 0
137 142 0
144 148 0
149 158 0
140 147 0
141 144 0
140 146 0
147 153 0
144 153 0
144 150 0
141 145 0
147 155 0
148 155 0
141 147 0
140 147 0
147 153 0
145 150 0
145 149 0
148 152 0
144 150 0
145 150 0
146 152 0
149 156 0
145 150 0
149 153 0
150 157 0
146 151 0
147 154 0
152 158 0
148 155 0
145 154 0
149 156 0
150 158 0
143 150 0
155 163 0
153 162 0
156 168 0
148 157 0
155 168 0
149 160 0
153 167 0
148 160 0
151 164 0
155 164 0
152 165 0
156 170 0
151 162 0
150 165 0
155 167 0
160 174 0
151 164 0
151 165 0
159 181 0
153 178 0
156 179 0
150 173 0
151 173 0
154 177 0
150 172 0
158 179 0
149 172 0
149 169 0
150 171 0
151 172 0
156 177 0
152 172 0
152 173 0
151 171 0
152 174 0
151 171 0
150 169 0
149 170 0
145 166 0
149 168 0
146 165 0
151 171 0
143 163 0
149 167 0
150 170 0
144 163 0
149 169 0
146 166 0
149 168 0
143 164 0
149 168 0
144 164 0
147 166 0
153 172 0
148 167 0
146 164 0
148 168 0
142 162 0
147 167 0
145 164 0
144 162 0
143 162 0
147 165 0
147 167 0
144 163 0
147 164 0
142 161 0
136 155 0
136 156 0
146 166 0
139 157 0
140 159 0
139 158 0
137 158 0
141 160 0
139 159 0
143 162 0
141 160 0
140 158 0
135 156 0
135 155 0
136 155 0
137 157 0
139 159 0
132 152 0
137 157 0
139 159 0
135 156 0
133 153 0
130 150 0
135 156 0
136 156 0
140 162 0
125 146 0
133 153 0
134 154 0
129 149 0
136 156 0
122 143 0
129 148 0
134 155 0
134 155 0
125 146 0
121 142 0
132 155 0
138 158 0
133 156 0
128 152 0
127 148 0
126 149 0
132 154 0
131 153 0
131 153 0
130 154 0
134 156 0
128 152 0
130 154 0
123 147 0
131 155 0
135 159 0
128 152 0
120 144 0
118 141 0
122 146 0
126 149 0
132 156 0
127 151 0
130 155 0
128 152 0
127 149 0
132 155 0
118 141 0
128 153 0
124 148 0
129 154 0
131 157 0
122 146 0
118 140 0
132 156 0
124 145 0
132 156 0
129 151 0
121 142 0
130 153 0
112 136 0
109 133 0
111 134 0
121 140 0
127 151 0
122 148 0
111 135 0
124 146 0
120 141 0
127 149 0
125 148 0
120 143 0
116 139 0
124 146 0
127 148 0
114 139 0
127 150 0
127 151 0
125 147 0
113 135 0
125 148 0
121 144 0
120 143 0
126 150 0
114 137 0
114 136 0
110 131 0
124 148 0
112 134 0
106 128 0
115 136 0
123 145 0
114 136 0
119 141 0
100 120 0
112 132 0
117 139 0
113 132 0
110 130 0
112 135 0
115 135 0
120 141 0
113 132 0
111 133 0
121 142 0
113 134 0
105 124 0
117 137 0
117 137 0
104 123 0
111 131 0
104 125 0
112 131 0
102 121 0
113 133 0
99 118 0
105 122 0
101 120 0
107 128 0
96 114 0
106 124 0
110 128 0
109 128 0
101 119 0
105 123 0
98 115 0
113 131 0
102 120 0
101 118 0
107 127 0
102 119 0
111 129 0
108 126 0
101 119 0
115 135 0
99 115 0
113 131 0
103 120 0
113 131 0
99 116 0
101 117 0
106 124 0
107 126 0
98 119 0
110 127 0
115 132 0
97 116 0
118 137 0
88 107 0
100 120 0
106 124 0
102 120 0
114 134 0
117 136 0
111 129 0
111 129 0
114 133 0
106 126 0
108 128 0
118 138 0
111 130 0
99 116 0
104 122 0
113 131 0
110 131 0
104 123 0
116 135 0
103 123 0
117 135 0
108 126 0
107 127 0
111 131 0
107 126 0
115 134 0
113 132 0
113 132 0
116 138 0
111 131 0
118 136 0
121 141 0
125 144 0
118 136 0
117 137 0
113 133 0
120 141 0
119 135 0
116 136 0
111 129 0
121 142 0
116 137 0
122 141 0
114 135 0
124 146 0
119 134 0
113 132 0
112 133 0
117 133 0
119 139 0
123 143 0
116 137 0
127 145 0
131 151 0
122 145 0
116 136 0
126 146 0
129 150 0
121 140 0
131 148 0
135 156 0
116 134 0
124 145 0
120 137 0
121 137 0
128 145 0
126 143 0
121 139 0
130 151 0
127 145 0
130 151 0
136 155 0
124 142 0
127 142 0
122 142 0
113 133 0
130 148 0
125 140 0
132 148 0
129 144 0
133 151 0
116 134 0
121 139 0
133 148 0
129 145 0
129 145 0
134 151 0
127 146 0
131 147 0
136 149 0
132 150 0
132 150 0
134 146 0
134 151 0
132 144 0
143 156 0
137 152 0
129 143 0
130 143 0
132 144 0
129 142 0
144 157 0
131 148 0
133 146 0
137 150 0
135 146 0
141 155 0
130 139 0
134 139 0
139 149 0
130 141 0
138 147 0
138 147 0
138 149 0
139 148 0
136 145 0
139 151 0
134 141 0
134 146 0
143 151 0
135 139 0
139 149 0
141 150 0
142 151 0
137 143 0
148 156 0
136 145 0
142 150 0
139 146 0
143 150 0
141 146 0
149 158 0
139 150 0
137 142 0
141 148 0
139 144 0
142 147 0
147 156 0
145 152 0
139 142 0
146 155 0
145 153 0
145 151 0
148 153 0
137 139 0
143 151 0
143 146 0
138 146 0
148 153 0
149 154 0
146 156 0
143 154 0
147 151 0
149 159 0
144 153 0
140 146 0
149 157 0
157 166 0
146 153 0
145 151 0
145 151 0
154 164 0
147 151 0
148 159 0
147 151 0
151 159 0
148 159 0
154 165 0
148 156 0
154 164 0
148 155 0
155 166 0
156 167 0
151 163 0
156 167 0
154 164 0
160 172 0
153 167 0
155 167 0
152 163 0
154 166 0
152 168 0
153 162 0
154 165 0
154 167 0
151 160 0
151 175 0
156 178 0
150 173 0
147 170 0
151 172 0
153 176 0
150 170 0
150 173 0
153 174 0
152 173 0
150 171 0
149 171 0
153 176 0
147 169 0
146 167 0
151 173 0
149 169 0
146 167 0
155 174 0
148 169 0
145 166 0
145 165 0
142 161 0
148 170 0
149 168 0
153 174 0
146 166 0
145 165 0
150 171 0
144 163 0
145 164 0
137 157 0
140 161 0
138 156 0
143 165 0
146 166 0
144 163 0
149 168 0
145 163 0
143 164 0
143 162 0
139 158 0
142 163 0
140 160 0
142 160 0
141 160 0
130 150 0
143 162 0
146 165 0
136 155 0
139 159 0
138 156 0
134 155 0
141 164 0
135 153 0
150 169 0
143 163 0
138 159 0
138 157 0
141 160 0
145 164 0
132 152 0
135 155 0
143 162 0
135 155 0
133 153 0
130 150 0
138 158 0
138 158 0
135 155 0
128 148 0
134 157 0
132 153 0
135 159 0
139 160 0
141 161 0
130 149 0
130 152 0
128 149 0
130 151 0
136 158 0
125 145 0
131 154 0
134 155 0
129 150 0
128 150 0
134 156 0
136 158 0
129 153 0
134 156 0
136 158 0
128 150 0
143 165 0
135 157 0
131 154 0
128 150 0
132 153 0
135 159 0
137 161 0
131 154 0
134 157 0
125 150 0
136 158 0
135 158 0
136 160 0
131 154 0
132 154 0
123 149 0
121 147 0
127 150 0
121 143 0
130 152 0
123 145 0
125 150 0
127 151 0
126 151 0
124 149 0
119 141 0
117 142 0
129 154 0
129 152 0
126 149 0
123 148 0
124 148 0
137 162 0
133 158 0
124 147 0
123 145 0
124 149 0
128 153 0
126 150 0
128 154 0
125 150 0
114 137 0
116 139 0
119 144 0
111 133 0
117 145 0
119 142 0
117 140 0
116 140 0
116 138 0
109 132 0
120 143 0
115 139 0
126 149 0
128 152 0
120 142 0
107 128 0
110 132 0
128 150 0
110 134 0
124 145 0
119 141 0
120 143 0
105 127 0
114 137 0
117 140 0
115 136 0
119 141 0
121 141 0
112 135 0
111 133 0
120 140 0
121 142 0
107 128 0
120 139 0
109 131 0
115 137 0
95 116 0
107 129 0
100 121 0
116 136 0
114 136 0
110 130 0
113 132 0
112 132 0
117 137 0
114 133 0
114 135 0
115 134 0
92 109 0
116 135 0
121 143 0
104 123 0
102 123 0
105 124 0
100 119 0
115 135 0
110 129 0
114 135 0
110 126 0
108 128 0
120 139 0
120 138 0
97 116 0
98 117 0
100 119 0
101 119 0
107 124 0
97 114 0
109 125 0
109 129 0
115 133 0
106 124 0
109 125 0
115 132 0
109 127 0
111 131 0
99 117 0
114 132 0
108 126 0
111 129 0
106 127 0
107 125 0
111 128 0
120 137 0
108 125 0
108 127 0
114 133 0
112 129 0
114 131 0
106 124 0
107 125 0
102 119 0
111 131 0
116 134 0
114 132 0
115 135 0
109 127 0
113 132 0
110 129 0
109 129 0
121 138 0
127 146 0
116 135 0
118 139 0
117 136 0
115 136 0
112 132 0
114 133 0
117 137 0
114 136 0
120 136 0
109 129 0
113 131 0
119 137 0
117 139 0
118 139 0
122 140 0
115 133 0
120 139 0
112 134 0
122 140 0
121 138 0
115 134 0
122 142 0
117 138 0
124 141 0
121 141 0
116 135 0
122 142 0
122 142 0
132 150 0
119 142 0
120 141 0
109 129 0
117 137 0
123 143 0
121 141 0
127 147 0
124 144 0
135 154 0
124 142 0
121 141 0
125 144 0
115 132 0
130 152 0
121 140 0
127 148 0
128 147 0
116 136 0
130 149 0
131 148 0
129 148 0
122 140 0
126 147 0
128 149 0
130 148 0
128 146 0
122 140 0
129 149 0
128 148 0
130 149 0
134 153 0
118 137 0
136 155 0
133 149 0
133 147 0
133 153 0
127 144 0
125 142 0
122 140 0
134 149 0
131 147 0
131 147 0
137 152 0
136 151 0
134 146 0
127 144 0
136 151 0
134 148 0
141 156 0
136 150 0
129 143 0
131 146 0
126 139 0
137 150 0
134 147 0
141 152 0
138 152 0
136 144 0
133 142 0
134 147 0
127 142 0
137 147 0
127 139 0
129 141 0
141 154 0
134 142 0
139 149 0
141 152 0
135 145 0
140 146 0
136 142 0
137 147 0
140 151 0
140 149 0
135 144 0
146 158 0
136 144 0
147 155 0
135 142 0
137 145 0
137 144 0
141 149 0
137 147 0
140 147 0
141 149 0
146 154 0
141 149 0
137 147 0
146 154 0
144 154 0
142 149 0
141 150 0
142 149 0
146 153 0
139 145 0
149 155 0
148 155 0
145 154 0
142 147 0
152 159 0
140 145 0
148 156 0
147 151 0
142 149 0
152 160 0
153 161 0
148 153 0
151 163 0
150 156 0
150 158 0
144 153 0
156 169 0
145 154 0
147 158 0
153 161 0
150 158 0
154 167 0
155 165 0
148 156 0
153 160 0
150 156 0
144 150 0
146 155 0
147 157 0
155 164 0
155 169 0
155 164 0
152 162 0
153 166 0
149 159 0
153 164 0
156 170 0
157 170 0
156 170 0
151 160 0
157 169 0
152 174 0
153 175 0
155 179 0
147 170 0
155 176 0
158 179 0
154 176 0
153 175 0
148 170 0
152 173 0
153 175 0
154 175 0
150 173 0
144 165 0
146 166 0
151 172 0
149 170 0
152 173 0
148 168 0
146 167 0
146 167 0
152 171 0
144 165 0
146 166 0
150 172 0
144 165 0
143 162 0
148 169 0
147 167 0
145 164 0
148 168 0
144 163 0
149 168 0
149 169 0
138 160 0
146 166 0
148 167 0
141 161 0
140 160 0
145 166 0
146 166 0
143 163 0
147 166 0
146 166 0
140 160 0
135 154 0
145 165 0
139 160 0
143 165 0
145 164 0
140 161 0
142 163 0
142 162 0
138 158 0
146 164 0
144 163 0
136 156 0
142 162 0
141 162 0
138 157 0
140 162 0
139 161 0
130 152 0
136 156 0
136 157 0
135 155 0
138 159 0
140 161 0
135 155 0
138 157 0
139 161 0
144 164 0
132 154 0
139 159 0
132 154 0
141 164 0
129 153 0
137 158 0
143 165 0
138 159 0
136 157 0
143 165 0
136 158 0
136 158 0
129 150 0
138 161 0
132 155 0
122 144 0
132 152 0
135 156 0
138 161 0
127 150 0
137 160 0
134 156 0
132 155 0
129 151 0
136 159 0
139 161 0
133 156 0
130 156 0
129 152 0
126 149 0
136 158 0
128 151 0
123 149 0
122 147 0
127 149 0
135 160 0
117 141 0
126 151 0
138 161 0
135 160 0
132 157 0
128 153 0
135 159 0
123 146 0
139 164 0
121 147 0
122 147 0
118 140 0
132 155 0
122 147 0
121 145 0
130 154 0
129 152 0
127 152 0
115 138 0
120 144 0
117 139 0
120 142 0
116 143 0
118 143 0
119 142 0
130 152 0
123 147 0
123 147 0
118 141 0
127 150 0
118 141 0
125 146 0
112 134 0
109 136 0
114 138 0
124 144 0
114 139 0
122 147 0
121 145 0
127 148 0
115 138 0
116 139 0
119 143 0
109 133 0
122 146 0
114 137 0
119 140 0
128 150 0
113 134 0
117 140 0
114 138 0
119 141 0
115 136 0
113 135 0
106 129 0
113 136 0
128 150 0
115 137 0
109 128 0
106 126 0
105 123 0
116 137 0
104 125 0
121 141 0
125 146 0
117 140 0
110 131 0
111 130 0
105 126 0
106 126 0
115 136 0
98 120 0
111 130 0
118 139 0
109 130 0
105 124 0
110 131 0
115 136 0
109 129 0
114 133 0
106 126 0
93 111 0
116 134 0
119 140 0
109 128 0
106 124 0
116 136 0
108 127 0
104 124 0
115 135 0
105 125 0
94 113 0
102 120 0
103 121 0
104 120 0
113 132 0
105 124 0
116 135 0
94 112 0
100 120 0
100 120 0
118 137 0
122 140 0
108 125 0
100 119 0
103 123 0
103 121 0
113 132 0
100 119 0
117 135 0
112 132 0
117 136 0
107 124 0
112 131 0
105 126 0
103 120 0
103 123 0
114 134 0
104 124 0
110 128 0
113 133 0
116 135 0
108 128 0
124 144 0
114 134 0
116 136 0
119 139 0
107 125 0
115 133 0
108 125 0
117 138 0
114 134 0
124 145 0
119 138 0
123 142 0
118 139 0
118 138 0
111 132 0
105 123 0
116 136 0
114 134 0
122 144 0
122 144 0
115 134 0
117 136 0
128 150 0
126 147 0
123 143 0
119 138 0
120 140 0
118 140 0
125 144 0
122 143 0
116 135 0
124 144 0
125 145 0
122 141 0
133 154 0
119 136 0
125 147 0
129 150 0
111 133 0
119 140 0
120 139 0
129 148 0
132 150 0
131 149 0
120 139 0
124 144 0
124 143 0
133 155 0
126 145 0
130 150 0
129 148 0
133 153 0
134 154 0
130 148 0
135 153 0
129 148 0
122 140 0
122 141 0
128 143 0
131 148 0
128 148 0
132 150 0
131 152 0
127 146 0
127 145 0
128 150 0
123 143 0
128 148 0
130 145 0
132 151 0
137 154 0
127 145 0
135 149 0
126 138 0
129 148 0
131 148 0
131 144 0
128 143 0
129 147 0
136 148 0
137 153 0
132 147 0
139 154 0
130 145 0
131 147 0
132 142 0
130 144 0
143 156 0
135 148 0
125 136 0
131 141 0
139 152 0
143 159 0
133 144 0
137 150 0
139 150 0
139 151 0
131 142 0
138 149 0
138 148 0
129 140 0
141 152 0
138 150 0
135 144 0
138 148 0
139 150 0
143 153 0
135 146 0
136 146 0
127 135 0
133 141 0
146 154 0
131 135 0
140 147 0
143 155 0
141 143 0
141 150 0
144 154 0
144 152 0
144 151 0
139 150 0
139 149 0
142 150 0
146 155 0
143 149 0
138 144 0
146 155 0
143 150 0
143 148 0
146 153 0
148 153 0
143 151 0
142 150 0
145 157 0
149 156 0
145 151 0
139 146 0
149 157 0
142 152 0
148 158 0
152 158 0
150 159 0
147 156 0
150 157 0
149 160 0
149 160 0
152 162 0
148 157 0
145 150 0
148 154 0
151 161 0
156 165 0
153 165 0
156 167 0
152 163 0
152 161 0
151 164 0
154 162 0
153 163 0
149 161 0
156 167 0
144 156 0
154 169 0
152 163 0
151 164 0
151 165 0
152 166 0
148 160 0
152 168 0
157 179 0
154 177 0
153 176 0
154 176 0
150 173 0
149 171 0
149 172 0
151 172 0
147 168 0
153 174 0
154 176 0
146 168 0
155 175 0
149 170 0
151 173 0
145 166 0
151 173 0
149 171 0
145 166 0
144 165 0
147 169 0
145 166 0
139 161 0
151 173 0
153 172 0
148 169 0
143 164 0
148 168 0
150 170 0
144 166 0
145 165 0
149 168 0
145 165 0
146 164 0
145 165 0
142 163 0
148 170 0
147 168 0
145 165 0
149 169 0
139 160 0
142 160 0
136 156 0
144 164 0
141 161 0
142 162 0
145 165 0
133 153 0
140 160 0
143 163 0
140 160 0
141 161 0
145 165 0
137 158 0
140 160 0
144 164 0
137 159 0
143 163 0
136 156 0
144 164 0
136 157 0
143 165 0
138 160 0
142 162 0
133 154 0
140 161 0
138 160 0
135 154 0
140 163 0
134 156 0
128 148 0
141 162 0
136 157 0
138 160 0
136 156 0
130 151 0
136 157 0
141 162 0
134 156 0
138 160 0
129 151 0
136 159 0
135 158 0
127 147 0
129 152 0
134 159 0
136 156 0
126 148 0
131 155 0
133 156 0
127 152 0
127 148 0
131 154 0
128 152 0
136 160 0
136 160 0
134 157 0
130 155 0
143 166 0
130 154 0
136 161 0
123 146 0
119 142 0
122 147 0
133 156 0
131 155 0
129 153 0
127 153 0
126 148 0
125 149 0
130 154 0
118 145 0
125 150 0
129 151 0
125 148 0
119 144 0
130 153 0
121 147 0
128 150 0
119 143 0
128 153 0
130 157 0
119 147 0
115 140 0
121 145 0
126 154 0
131 157 0
126 150 0
121 143 0
125 149 0
135 159 0
136 159 0
124 145 0
125 150 0
124 147 0
124 149 0
126 149 0
119 145 0
114 138 0
121 144 0
122 147 0
121 146 0
125 148 0
119 145 0
128 151 0
104 127 0
117 141 0
113 137 0
119 142 0
117 142 0
120 141 0
131 154 0
123 144 0
108 131 0
123 144 0
127 147 0
116 140 0
115 139 0
118 141 0
114 134 0
123 147 0
101 123 0
112 135 0
119 141 0
109 131 0
111 134 0
116 138 0
116 138 0
110 131 0
118 137 0
111 131 0
107 129 0
112 135 0
121 142 0
115 137 0
121 143 0
116 137 0
109 127 0
114 134 0
112 132 0
108 127 0
119 139 0
107 128 0
110 128 0
107 127 0
102 122 0
116 136 0
103 122 0
106 128 0
107 126 0
114 133 0
116 134 0
114 134 0
113 133 0
116 136 0
111 130 0
110 130 0
115 134 0
108 128 0
114 133 0
108 128 0
109 128 0
103 121 0
112 131 0
111 131 0
106 125 0
109 128 0
120 139 0
104 122 0
106 125 0
108 128 0
110 129 0
102 120 0
122 142 0
106 124 0
101 121 0
108 126 0
119 140 0
115 135 0
99 120 0
114 133 0
111 131 0
100 121 0
102 123 0
112 132 0
104 123 0
116 136 0
111 128 0
118 137 0
108 127 0
113 131 0
99 119 0
114 135 0
120 141 0
105 124 0
114 135 0
104 124 0
119 138 0
120 141 0
119 139 0
125 143 0
115 134 0
115 134 0
122 142 0
100 119 0
115 138 0
116 137 0
118 139 0
127 150 0
120 143 0
114 135 0
127 145 0
117 137 0
124 143 0
120 141 0
128 149 0
124 143 0
112 129 0
125 144 0
121 143 0
123 144 0
107 126 0
125 145 0
122 142 0
121 143 0
125 147 0
119 139 0
119 139 0
128 148 0
131 154 0
116 133 0
125 146 0
120 139 0
128 149 0
116 136 0
131 151 0
121 143 0
119 139 0
131 152 0
131 152 0
126 148 0
119 140 0
124 145 0
122 142 0
123 145 0
124 144 0
124 143 0
121 140 0
126 146 0
135 155 0
130 150 0
132 150 0
132 152 0
128 147 0
131 148 0
132 150 0
129 150 0
131 148 0
130 149 0
127 148 0
134 147 0
132 152 0
129 148 0
132 147 0
130 147 0
137 156 0
137 151 0
140 157 0
132 147 0
134 150 0
132 151 0
129 144 0
137 152 0
138 153 0
140 154 0
128 145 0
136 150 0
138 152 0
133 146 0
139 149 0
133 144 0
133 148 0
141 155 0
134 150 0
134 146 0
138 152 0
137 148 0
138 147 0
131 143 0
141 153 0
143 156 0
136 147 0
137 146 0
133 145 0
140 151 0
139 152 0
141 154 0
143 149 0
137 150 0
138 147 0
141 148 0
140 148 0
138 148 0
138 145 0
141 150 0
142 149 0
140 151 0
145 155 0
140 149 0
140 148 0
138 146 0
141 149 0
143 153 0
139 147 0
144 150 0
138 143 0
136 142 0
146 156 0
144 152 0
146 153 0
145 156 0
147 156 0
151 159 0
152 162 0
146 155 0
148 157 0
141 150 0
143 149 0
147 153 0
149 158 0
149 155 0
144 151 0
149 158 0
147 156 0
148 157 0
143 150 0
150 158 0
141 149 0
152 163 0
151 161 0
149 162 0
150 160 0
151 160 0
151 160 0
150 158 0
148 158 0
150 162 0
154 165 0
151 162 0
153 162 0
150 159 0
147 160 0
152 163 0
151 162 0
149 160 0
152 166 0
154 168 0
150 161 0
150 162 0
155 167 0
153 174 0
152 174 0
149 173 0
153 176 0
149 172 0
151 173 0
152 173 0
147 170 0
147 169 0
151 173 0
147 168 0
149 170 0
148 170 0
147 167 0
152 174 0
153 173 0
146 166 0
146 168 0
151 172 0
154 174 0
148 170 0
149 170 0
144 165 0
151 172 0
150 171 0
142 161 0
151 170 0
151 173 0
146 165 0
140 162 0
144 166 0
146 167 0
150 170 0
148 169 0
145 164 0
142 163 0
145 165 0
149 170 0
143 162 0
139 159 0
146 166 0
139 159 0
142 162 0
146 166 0
147 167 0
145 165 0
142 162 0
144 165 0
143 164 0
139 161 0
141 161 0
141 161 0
143 163 0
143 163 0
137 157 0
138 159 0
146 166 0
140 163 0
138 159 0
147 167 0
142 163 0
141 161 0
136 157 0
141 164 0
137 161 0
132 156 0
136 157 0
139 161 0
135 156 0
137 159 0
142 164 0
133 156 0
141 164 0
132 154 0
136 157 0
128 151 0
138 161 0
134 156 0
137 160 0
131 154 0
145 168 0
134 155 0
135 157 0
136 157 0
124 146 0
134 156 0
136 158 0
137 161 0
139 162 0
126 150 0
128 153 0
130 154 0
131 152 0
129 154 0
125 149 0
129 155 0
131 154 0
130 151 0
139 164 0
133 158 0
137 160 0
124 146 0
126 151 0
134 157 0
138 159 0
131 157 0
128 152 0
131 157 0
135 159 0
127 149 0
121 143 0
139 165 0
134 158 0
136 162 0
123 149 0
133 158 0
125 148 0
125 150 0
126 148 0
129 153 0
122 147 0
128 153 0
127 150 0
133 158 0
126 148 0
132 157 0
134 158 0
127 151 0
116 141 0
116 144 0
117 143 0
122 145 0
130 154 0
124 148 0
129 154 0
121 146 0
126 151 0
116 142 0
129 152 0
116 139 0
119 143 0
124 146 0
117 142 0
130 154 0
135 158 0
115 137 0
123 145 0
121 144 0
113 137 0
115 137 0
111 134 0
122 145 0
122 145 0
124 149 0
116 139 0
121 146 0
115 138 0
119 140 0
112 134 0
109 131 0
103 126 0
123 146 0
113 136 0
112 135 0
115 136 0
108 129 0
119 140 0
106 127 0
118 139 0
113 135 0
117 138 0
110 130 0
120 143 0
106 129 0
107 128 0
121 144 0
103 121 0
108 128 0
116 137 0
114 134 0
110 132 0
114 136 0
114 135 0
109 131 0
113 133 0
111 132 0
113 135 0
117 137 0
114 135 0
121 139 0
102 121 0
107 127 0
109 128 0
106 127 0
111 131 0
116 136 0
109 128 0
112 130 0
109 128 0
101 118 0
112 132 0
113 131 0
100 121 0
103 122 0
116 136 0
108 127 0
106 124 0
116 136 0
110 129 0
113 132 0
109 129 0
111 129 0
107 127 0
117 136 0
109 128 0
118 138 0
115 135 0
113 133 0
110 129 0
108 129 0
105 125 0
111 131 0
111 132 0
120 141 0
117 138 0
105 123 0
114 132 0
103 120 0
115 136 0
119 140 0
123 141 0
112 130 0
123 142 0
97 117 0
105 128 0
105 126 0
112 132 0
113 133 0
110 131 0
123 142 0
123 142 0
108 128 0
121 143 0
120 140 0
119 137 0
118 139 0
122 141 0
123 144 0
122 139 0
114 133 0
118 140 0
117 134 0
120 140 0
117 136 0
123 142 0
126 146 0
124 147 0
114 131 0
126 146 0
123 143 0
127 145 0
130 150 0
125 148 0
120 141 0
128 148 0
118 138 0
128 152 0
127 149 0
125 147 0
127 151 0
135 157 0
117 138 0
123 144 0
124 144 0
123 143 0
123 147 0
124 145 0
124 145 0
119 139 0
127 145 0
116 135 0
125 149 0
140 157 0
132 151 0
121 142 0
131 152 0
123 142 0
130 149 0
128 147 0
121 142 0
128 144 0
130 149 0
132 150 0
129 148 0
134 151 0
126 146 0
132 149 0
130 150 0
133 152 0
124 142 0
130 150 0
133 148 0
138 156 0
137 153 0
134 152 0
127 140 0
130 148 0
142 158 0
134 148 0
131 144 0
134 150 0
139 157 0
130 149 0
138 157 0
130 146 0
130 147 0
135 151 0
139 153 0
130 142 0
137 152 0
139 154 0
142 156 0
137 151 0
134 149 0
135 152 0
133 147 0
136 148 0
137 148 0
136 150 0
128 145 0
136 147 0
143 155 0
139 151 0
133 142 0
135 149 0
146 159 0
144 152 0
138 150 0
136 145 0
142 155 0
142 152 0
137 147 0
141 150 0
142 151 0
141 153 0
139 147 0
136 145 0
133 143 0
136 141 0
140 151 0
136 145 0
145 153 0
144 153 0
142 154 0
145 153 0
145 157 0
141 151 0
145 156 0
150 159 0
146 158 0
143 152 0
151 163 0
145 157 0
146 153 0
145 153 0
144 156 0
145 155 0
146 155 0
147 157 0
149 159 0
152 159 0
151 160 0
147 153 0
152 163 0
147 155 0
151 162 0
151 158 0
144 153 0
146 154 0
146 155 0
146 156 0
147 155 0
151 161 0
154 165 0
148 160 0
152 162 0
152 159 0
150 162 0
149 158 0
151 159 0
150 164 0
149 163 0
148 160 0
148 158 0
156 166 0
152 167 0
151 161 0
149 160 0
152 164 0
152 165 0
151 172 0
153 175 0
151 173 0
156 179 0
148 172 0
155 177 0
152 174 0
149 171 0
150 173 0
150 172 0
147 169 0
150 170 0
148 170 0
149 172 0
150 172 0
149 171 0
145 168 0
148 168 0
151 171 0
147 169 0
148 169 0
150 171 0
147 168 0
149 172 0
150 172 0
151 172 0
147 168 0
147 168 0
151 172 0
146 168 0
146 169 0
143 164 0
152 171 0
149 169 0
145 167 0
144 164 0
144 164 0
147 168 0
142 161 0
144 165 0
140 163 0
140 160 0
146 165 0
140 162 0
142 163 0
142 163 0
147 168 0
135 157 0
147 168 0
136 156 0
141 161 0
142 163 0
136 157 0
139 160 0
141 165 0
140 161 0
139 160 0
133 154 0
143 164 0
137 159 0
134 156 0
141 162 0
137 158 0
139 159 0
143 164 0
138 159 0
135 158 0
130 153 0
140 161 0
132 153 0
129 153 0
127 150 0
128 149 0
140 163 0
132 157 0
136 157 0
143 165 0
133 156 0
134 155 0
135 157 0
132 157 0
131 156 0
131 156 0
133 156 0
135 161 0
136 161 0
127 151 0
137 161 0
133 157 0
127 148 0
134 158 0
131 154 0
130 156 0
135 160 0
128 152 0
122 145 0
132 154 0
131 158 0
129 153 0
129 153 0
135 159 0
127 151 0
131 155 0
131 154 0
128 152 0
127 152 0
140 165 0
122 147 0
129 153 0
124 149 0
123 148 0
124 151 0
130 156 0
134 160 0
134 159 0
132 156 0
127 152 0
125 149 0
127 152 0
130 154 0
117 142 0
129 154 0
122 146 0
134 160 0
127 150 0
126 153 0
126 149 0
121 145 0
129 154 0
129 152 0
123 147 0
122 147 0
130 153 0
125 151 0
123 148 0
128 154 0
120 145 0
119 145 0
126 149 0
117 140 0
124 147 0
118 142 0
124 147 0
124 148 0
120 142 0
123 145 0
108 130 0
121 145 0
117 140 0
119 142 0
115 139 0
118 143 0
107 130 0
127 150 0
119 142 0
120 143 0
118 141 0
106 127 0
116 138 0
120 142 0
107 129 0
107 128 0
111 132 0
108 128 0
113 135 0
124 147 0
117 139 0
116 138 0
118 140 0
120 141 0
119 141 0
118 139 0
119 141 0
117 139 0
113 136 0
118 140 0
116 138 0
112 135 0
122 143 0
110 134 0
114 137 0
116 136 0
127 148 0
106 125 0
112 133 0
118 139 0
110 132 0
121 143 0
117 139 0
112 133 0
103 123 0
118 140 0
113 133 0
118 138 0
110 131 0
118 138 0
112 132 0
105 125 0
114 133 0
105 124 0
112 131 0
115 135 0
110 129 0
112 132 0
112 131 0
120 139 0
101 121 0
113 135 0
114 133 0
118 138 0
104 121 0
115 135 0
119 139 0
106 126 0
111 130 0
104 124 0
117 136 0
113 132 0
106 124 0
113 134 0
113 133 0
117 138 0
115 135 0
114 134 0
114 133 0
121 140 0
120 137 0
123 144 0
115 132 0
122 144 0
118 138 0
120 139 0
119 140 0
116 136 0
121 140 0
108 129 0
128 147 0
117 136 0
111 133 0
118 139 0
112 131 0
114 133 0
130 151 0
112 135 0
111 132 0
128 146 0
119 141 0
122 144 0
115 134 0
116 138 0
121 143 0
119 140 0
125 142 0
128 148 0
121 139 0
127 149 0
121 143 0
120 144 0
121 144 0
123 144 0
113 135 0
121 141 0
127 149 0
116 137 0
128 150 0
118 138 0
118 139 0
129 149 0
125 146 0
116 137 0
121 142 0
122 142 0
116 140 0
119 141 0
119 140 0
119 137 0
121 140 0
127 146 0
134 155 0
133 153 0
129 151 0
123 144 0
128 150 0
123 146 0
119 140 0
140 158 0
131 152 0
131 152 0
126 150 0
123 141 0
130 151 0
130 147 0
129 149 0
128 147 0
132 152 0
122 144 0
131 154 0
130 153 0
138 159 0
134 152 0
131 147 0
126 144 0
124 143 0
140 155 0
131 150 0
134 151 0
131 151 0
136 151 0
135 151 0
125 142 0
130 146 0
128 141 0
131 147 0
138 155 0
136 154 0
137 153 0
135 151 0
139 153 0
130 145 0
138 154 0
136 152 0
141 156 0
134 151 0
134 151 0
132 144 0
131 147 0
136 148 0
142 152 0
140 148 0
135 148 0
134 144 0
137 152 0
134 149 0
135 150 0
140 155 0
144 153 0
139 150 0
139 154 0
139 146 0
137 145 0
137 149 0
147 158 0
146 160 0
140 151 0
139 148 0
138 148 0
138 150 0
144 156 0
137 146 0
137 144 0
146 159 0
147 159 0
142 151 0
146 154 0
141 147 0
134 141 0
135 140 0
136 145 0
141 148 0
142 152 0
138 148 0
146 155 0
149 157 0
145 157 0
148 158 0
151 160 0
151 163 0
144 154 0
153 162 0
149 158 0
151 161 0
147 157 0
150 162 0
145 153 0
147 157 0
146 157 0
150 163 0
149 161 0
148 157 0
145 156 0
152 160 0
145 153 0
151 160 0
145 153 0
154 164 0
152 164 0
154 163 0
155 167 0
147 157 0
151 163 0
149 163 0
153 164 0
151 162 0
153 166 0
147 156 0
156 167 0
152 164 0
152 166 0
147 160 0
157 171 0
149 172 0
148 171 0
151 173 0
150 171 0
151 173 0
151 173 0
151 171 0
149 172 0
151 174 0
156 177 0
149 172 0
149 172 0
156 177 0
153 174 0
147 168 0
146 166 0
154 175 0
145 163 0
146 167 0
147 167 0
147 168 0
151 171 0
154 175 0
149 170 0
141 162 0
142 163 0
148 170 0
149 168 0
148 170 0
143 164 0
144 164 0
148 168 0
144 166 0
146 166 0
146 167 0
141 163 0
146 167 0
142 163 0
144 167 0
148 166 0
149 171 0
140 160 0
139 161 0
137 158 0
147 169 0
144 165 0
140 163 0
137 158 0
149 170 0
143 163 0
140 162 0
141 162 0
138 160 0
142 164 0
137 158 0
140 161 0
138 158 0
133 154 0
140 162 0
142 164 0
141 161 0
131 153 0
132 154 0
139 161 0
137 160 0
139 162 0
137 160 0
140 163 0
141 162 0
139 160 0
141 162 0
143 167 0
133 156 0
137 158 0
133 158 0
139 160 0
138 163 0
140 164 0
131 154 0
142 165 0
136 158 0
130 153 0
142 165 0
138 161 0
130 154 0
129 153 0
135 160 0
132 155 0
134 155 0
130 153 0
138 161 0
134 157 0
125 149 0
128 151 0
130 154 0
128 154 0
130 154 0
132 159 0
124 148 0
130 154 0
130 154 0
131 154 0
134 158 0
142 167 0
123 146 0
123 148 0
137 162 0
125 151 0
136 164 0
131 158 0
135 156 0
123 150 0
129 151 0
133 156 0
132 157 0
122 146 0
118 145 0
130 154 0
120 147 0
124 150 0
133 159 0
137 159 0
131 155 0
127 151 0
125 149 0
117 144 0
131 157 0
125 151 0
129 153 0
124 150 0
116 142 0
122 148 0
134 159 0
128 152 0
125 147 0
126 151 0
125 151 0
126 149 0
114 143 0
122 146 0
129 151 0
124 149 0
135 159 0
125 149 0
124 148 0
128 150 0
121 144 0
126 149 0
115 139 0
127 152 0
121 144 0
127 147 0
123 149 0
110 132 0
114 136 0
117 140 0
124 151 0
125 148 0
122 144 0
118 142 0
122 145 0
115 141 0
121 144 0
107 130 0
115 137 0
115 135 0
116 140 0
109 131 0
110 134 0
128 151 0
116 138 0
111 132 0
111 131 0
113 134 0
129 151 0
120 142 0
117 139 0
100 121 0
118 140 0
105 125 0
116 139 0
122 144 0
118 138 0
113 133 0
115 136 0
108 129 0
109 130 0
120 141 0
126 146 0
116 136 0
108 130 0
111 132 0
113 135 0
114 133 0
112 132 0
132 153 0
108 128 0
117 136 0
110 131 0
120 138 0
119 140 0
120 142 0
108 127 0
110 130 0
119 139 0
105 125 0
110 129 0
107 129 0
112 132 0
118 138 0
119 138 0
118 137 0
109 128 0
105 126 0
114 135 0
124 144 0
110 132 0
115 136 0
119 138 0
117 140 0
113 133 0
115 135 0
111 133 0
115 136 0
111 130 0
115 133 0
123 142 0
110 132 0
118 141 0
130 151 0
107 128 0
116 138 0
121 144 0
124 142 0
113 136 0
109 129 0
120 139 0
117 136 0
116 137 0
112 130 0
116 136 0
113 133 0
123 145 0
107 129 0
116 138 0
118 137 0
127 147 0
116 136 0
120 141 0
120 141 0
123 144 0
127 146 0
117 137 0
122 144 0
109 130 0
115 137 0
124 144 0
121 139 0
135 157 0
115 134 0
127 148 0
125 146 0
127 149 0
125 148 0
120 139 0
128 151 0
123 142 0
121 144 0
128 147 0
122 143 0
116 138 0
123 146 0
121 144 0
115 135 0
127 148 0
125 143 0
119 141 0
121 143 0
123 144 0
123 144 0
121 141 0
131 149 0
129 147 0
125 145 0
134 153 0
119 142 0
127 149 0
137 156 0
124 144 0
133 152 0
130 150 0
122 143 0
137 158 0
131 149 0
136 161 0
126 145 0
138 155 0
130 151 0
139 158 0
141 159 0
131 148 0
135 154 0
128 143 0
126 142 0
131 148 0
130 149 0
133 151 0
130 147 0
136 155 0
142 156 0
133 151 0
129 146 0
129 145 0
125 143 0
138 157 0
138 151 0
131 147 0
130 147 0
132 149 0
135 152 0
134 151 0
129 145 0
137 151 0
130 147 0
135 149 0
139 149 0
129 145 0
131 144 0
137 150 0
138 149 0
139 154 0
138 150 0
130 146 0
148 166 0
138 151 0
139 151 0
138 151 0
140 151 0
139 151 0
140 152 0
132 144 0
138 151 0
133 142 0
140 153 0
142 155 0
140 153 0
145 157 0
144 155 0
141 148 0
143 153 0
146 156 0
144 156 0
142 152 0
144 154 0
140 153 0
141 155 0
151 166 0
137 150 0
142 150 0
147 160 0
138 151 0
141 151 0
150 161 0
149 157 0
143 152 0
149 160 0
151 162 0
140 147 0
145 161 0
146 155 0
150 159 0
145 154 0
149 163 0
151 165 0
146 154 0
147 155 0
150 159 0
147 157 0
144 152 0
148 157 0
154 163 0
153 165 0
151 166 0
151 162 0
149 160 0
145 155 0
148 160 0
145 158 0
146 158 0
153 162 0
152 162 0
147 156 0
155 166 0
155 166 0
152 163 0
150 164 0
151 163 0
149 160 0
149 161 0
152 163 0
146 170 0
144 167 0
145 168 0
152 173 0
150 172 0
153 174 0
155 177 0
158 180 0
152 173 0
150 171 0
146 169 0
150 172 0
152 174 0
154 175 0
147 170 0
150 170 0
148 169 0
148 169 0
149 172 0
140 163 0
146 168 0
150 172 0
152 172 0
153 173 0
147 169 0
140 161 0
153 174 0
146 166 0
144 165 0
140 161 0
140 161 0
145 166 0
149 170 0
144 165 0
145 169 0
148 169 0
146 167 0
144 167 0
145 165 0
145 166 0
153 175 0
137 158 0
142 166 0
150 170 0
145 165 0
143 164 0
141 164 0
141 163 0
137 159 0
139 160 0
143 165 0
144 165 0
140 161 0
141 163 0
140 161 0
137 161 0
133 155 0
137 161 0
140 163 0
143 165 0
136 157 0
140 160 0
134 156 0
144 167 0
135 157 0
133 155 0
136 160 0
137 160 0
133 158 0
129 152 0
140 161 0
142 162 0
135 158 0
131 156 0
129 152 0
136 161 0
132 156 0
140 162 0
136 161 0
128 151 0
128 153 0
128 151 0
126 150 0
139 163 0
133 157 0
133 156 0
131 155 0
139 164 0
132 156 0
140 165 0
142 166 0
131 156 0
136 161 0
130 154 0
127 152 0
128 151 0
133 158 0
126 150 0
125 149 0
139 163 0
135 159 0
136 160 0
126 149 0
136 163 0
128 154 0
127 151 0
124 148 0
122 148 0
122 148 0
135 158 0
134 158 0
131 155 0
125 149 0
128 154 0
126 150 0
124 148 0
129 151 0
135 159 0
123 145 0
130 154 0
123 149 0
125 149 0
130 155 0
125 150 0
120 144 0
124 149 0
123 147 0
121 145 0
129 154 0
114 139 0
129 153 0
126 151 0
124 152 0
131 153 0
118 142 0
136 159 0
122 148 0
129 152 0
120 145 0
125 149 0
119 144 0
128 153 0
122 145 0
123 147 0
125 147 0
125 147 0
125 151 0
123 146 0
122 147 0
118 144 0
125 149 0
117 140 0
124 148 0
124 147 0
119 140 0
109 132 0
112 137 0
117 141 0
121 141 0
119 144 0
121 146 0
116 138 0
125 148 0
120 142 0
123 145 0
117 138 0
109 132 0
112 135 0
127 150 0
119 141 0
108 131 0
117 140 0
119 139 0
121 141 0
115 136 0
119 141 0
122 144 0
113 136 0
106 126 0
111 133 0
111 133 0
114 135 0
113 135 0
106 130 0
106 125 0
116 136 0
105 127 0
115 137 0
109 131 0
112 133 0
116 137 0
106 127 0
119 142 0
111 130 0
103 124 0
107 128 0
111 131 0
118 140 0
106 128 0
115 136 0
111 131 0
114 136 0
110 127 0
102 122 0
126 145 0
116 138 0
116 137 0
114 133 0
120 141 0
118 138 0
116 135 0
114 136 0
120 141 0
111 133 0
110 132 0
110 129 0
112 132 0
118 136 0
108 127 0
112 131 0
116 139 0
117 137 0
114 135 0
117 140 0
122 142 0
117 137 0
117 137 0
111 129 0
123 145 0
123 144 0
117 136 0
117 137 0
129 152 0
118 139 0
118 139 0
120 144 0
129 149 0
109 129 0
115 137 0
124 145 0
121 141 0
118 138 0
128 149 0
120 140 0
122 141 0
131 153 0
124 143 0
120 139 0
122 142 0
131 154 0
124 148 0
124 144 0
123 143 0
123 144 0
127 150 0
111 130 0
115 137 0
120 143 0
123 146 0
123 143 0
113 133 0
122 144 0
124 146 0
124 144 0
124 143 0
121 141 0
119 140 0
132 154 0
127 147 0
121 144 0
126 146 0
120 141 0
142 165 0
119 140 0
126 149 0
132 154 0
121 140 0
128 147 0
126 148 0
125 143 0
127 150 0
133 157 0
127 145 0
135 158 0
134 153 0
112 132 0
119 142 0
142 164 0
120 140 0
131 154 0
128 151 0
120 140 0
128 147 0
131 150 0
134 155 0
129 147 0
133 152 0
128 150 0
124 146 0
135 155 0
128 149 0
137 158 0
130 149 0
123 144 0
131 150 0
137 154 0
128 147 0
131 149 0
132 151 0
137 156 0
131 147 0
129 147 0
125 144 0
137 154 0
129 150 0
131 148 0
134 150 0
139 158 0
138 156 0
132 148 0
129 145 0
135 150 0
133 148 0
137 150 0
142 162 0
138 155 0
129 145 0
134 147 0
131 145 0
139 153 0
142 158 0
135 152 0
140 153 0
140 157 0
137 150 0
135 148 0
139 152 0
136 151 0
139 151 0
141 154 0
141 154 0
141 151 0
141 156 0
147 160 0
139 154 0
153 168 0
137 147 0
145 158 0
145 160 0
151 165 0
139 150 0
145 154 0
139 151 0
145 157 0
151 163 0
138 151 0
135 147 0
149 162 0
141 153 0
146 158 0
143 155 0
137 146 0
146 157 0
149 161 0
143 151 0
146 156 0
151 162 0
149 157 0
145 158 0
153 163 0
147 156 0
153 166 0
145 152 0
147 161 0
151 162 0
153 165 0
151 163 0
152 165 0
148 158 0
156 169 0
146 155 0
149 158 0
149 157 0
148 158 0
146 157 0
152 162 0
148 157 0
152 164 0
150 162 0
148 162 0
152 165 0
156 169 0
149 161 0
145 155 0
151 163 0
156 169 0
148 159 0
157 170 0
151 166 0
150 162 0
150 171 0
153 175 0
157 179 0
151 173 0
151 171 0
153 175 0
148 171 0
154 175 0
151 172 0
147 170 0
154 175 0
150 172 0
151 171 0
150 171 0
148 169 0
151 172 0
145 167 0
152 172 0
151 173 0
146 167 0
148 169 0
147 168 0
149 171 0
147 170 0
148 168 0
139 160 0
147 169 0
146 168 0
148 171 0
147 169 0
143 165 0
146 168 0
141 165 0
149 171 0
139 162 0
148 170 0
142 162 0
149 171 0
136 158 0
146 167 0
142 164 0
139 162 0
147 169 0
147 167 0
146 168 0
140 161 0
141 165 0
143 163 0
133 154 0
137 158 0
143 167 0
142 162 0
141 162 0
130 152 0
144 166 0
136 159 0
143 164 0
148 170 0
147 169 0
142 163 0
133 158 0
142 164 0
130 155 0
134 158 0
140 163 0
132 155 0
136 158 0
138 163 0
132 154 0
134 156 0
133 157 0
133 156 0
140 162 0
131 154 0
137 161 0
137 162 0
137 161 0
133 157 0
133 157 0
138 163 0
134 159 0
139 162 0
128 151 0
136 160 0
123 145 0
135 159 0
131 155 0
126 151 0
129 151 0
141 166 0
142 164 0
133 159 0
126 151 0
129 155 0
129 155 0
132 156 0
132 157 0
130 153 0
132 155 0
135 159 0
130 156 0
130 156 0
130 154 0
121 148 0
125 149 0
133 159 0
121 147 0
132 158 0
133 156 0
126 152 0
139 164 0
135 160 0
128 154 0
129 156 0
130 153 0
127 153 0
125 150 0
125 150 0
129 155 0
135 160 0
124 149 0
122 147 0
128 155 0
130 152 0
123 147 0
117 142 0
127 152 0
123 149 0
126 152 0
132 155 0
128 153 0
125 151 0
133 155 0
126 151 0
129 153 0
116 141 0
122 146 0
127 149 0
123 148 0
126 151 0
120 143 0
118 143 0
124 146 0
124 150 0
124 148 0
115 141 0
120 144 0
121 143 0
125 150 0
109 132 0
119 142 0
121 145 0
127 149 0
98 121 0
128 151 0
114 137 0
128 150 0
117 142 0
114 139 0
115 139 0
132 155 0
112 135 0
122 144 0
118 141 0
121 144 0
111 133 0
119 141 0
117 140 0
113 137 0
109 130 0
112 132 0
111 134 0
111 133 0
122 144 0
107 127 0
109 129 0
108 131 0
110 130 0
114 138 0
110 130 0
114 137 0
118 139 0
113 136 0
127 150 0
102 124 0
121 144 0
123 144 0
107 129 0
117 139 0
113 134 0
120 142 0
115 137 0
125 145 0
122 141 0
118 139 0
109 129 0
120 141 0
116 137 0
112 132 0
109 131 0
107 129 0
110 130 0
114 133 0
113 132 0
115 135 0
114 135 0
110 132 0
111 130 0
111 131 0
119 138 0
118 139 0
100 121 0
105 126 0
109 129 0
103 123 0
120 140 0
107 128 0
111 134 0
114 135 0
112 132 0
118 136 0
122 144 0
122 146 0
122 143 0
114 133 0
110 131 0
117 137 0
122 141 0
111 131 0
115 135 0
118 138 0
117 138 0
115 137 0
121 142 0
126 147 0
125 145 0
118 140 0
111 135 0
122 144 0
117 138 0
122 142 0
125 146 0
121 141 0
112 133 0
123 145 0
125 147 0
114 135 0
107 129 0
120 142 0
125 147 0
121 140 0
118 138 0
118 139 0
122 144 0
120 140 0
124 148 0
116 138 0
122 148 0
123 142 0
131 154 0
128 148 0
132 154 0
130 151 0
137 156 0
129 151 0
111 134 0
124 145 0
114 133 0
129 146 0
121 143 0
121 146 0
128 146 0
129 154 0
124 146 0
127 150 0
132 152 0
125 147 0
132 154 0
125 144 0
130 151 0
127 152 0
121 143 0
125 144 0
130 152 0
130 149 0
130 150 0
131 151 0
124 147 0
128 151 0
136 155 0
124 145 0
126 146 0
130 149 0
125 147 0
132 152 0
131 151 0
135 158 0
132 150 0
128 152 0
133 154 0
137 155 0
136 154 0
131 151 0
123 146 0
136 157 0
130 148 0
129 147 0
131 147 0
127 142 0
132 150 0
140 159 0
136 153 0
138 157 0
135 153 0
138 154 0
139 157 0
135 157 0
137 157 0
132 149 0
138 157 0
134 152 0
135 153 0
132 148 0
136 153 0
141 156 0
138 156 0
134 151 0
138 155 0
137 152 0
140 155 0
139 157 0
138 151 0
140 155 0
131 146 0
137 151 0
139 152 0
144 159 0
142 154 0
139 153 0
143 159 0
135 152 0
138 149 0
148 166 0
134 147 0
140 153 0
145 161 0
139 151 0
141 153 0
149 159 0
142 155 0
147 158 0
142 154 0
143 154 0
139 149 0
140 152 0
147 162 0
143 154 0
145 156 0
148 158 0
143 153 0
144 155 0
141 150 0
145 156 0
142 156 0
146 158 0
147 159 0
147 158 0
144 155 0
143 154 0
143 150 0
141 150 0
143 153 0
145 155 0
152 160 0
149 160 0
151 160 0
145 157 0
148 157 0
143 152 0
147 160 0
154 166 0
152 167 0
147 157 0
146 158 0
154 168 0
149 163 0
153 166 0
153 164 0
155 168 0
156 171 0
153 165 0
152 164 0
150 162 0
154 166 0
151 160 0
152 164 0
153 163 0
156 165 0
153 166 0
154 168 0
150 174 0
151 172 0
149 173 0
156 179 0
153 174 0
155 178 0
148 169 0
151 172 0
151 173 0
148 172 0
150 172 0
149 170 0
152 172 0
146 168 0
145 168 0
151 172 0
143 164 0
145 166 0
146 168 0
152 174 0
147 167 0
148 170 0
148 168 0
148 170 0
146 169 0
143 164 0
151 172 0
150 172 0
145 166 0
148 170 0
141 164 0
144 164 0
137 160 0
147 170 0
145 165 0
139 160 0
149 171 0
141 163 0
140 161 0
137 161 0
145 167 0
148 170 0
139 160 0
149 171 0
146 167 0
146 168 0
140 163 0
143 164 0
146 169 0
136 158 0
143 164 0
144 168 0
140 161 0
139 163 0
141 164 0
138 159 0
140 161 0
141 165 0
138 160 0
134 158 0
136 160 0
134 156 0
146 168 0
136 157 0
143 166 0
140 163 0
140 161 0
137 161 0
141 167 0
128 150 0
138 160 0
137 161 0
136 161 0
130 153 0
134 159 0
142 165 0
136 160 0
135 160 0
129 155 0
136 162 0
128 152 0
138 164 0
129 151 0
136 158 0
140 165 0
140 165 0
137 163 0
133 157 0
135 159 0
129 153 0
130 152 0
126 150 0
137 160 0
135 158 0
133 159 0
129 156 0
132 159 0
130 154 0
130 155 0
129 154 0
123 149 0
132 156 0
133 159 0
127 154 0
133 159 0
123 149 0
122 147 0
131 155 0
122 147 0
134 159 0
134 159 0
124 152 0
124 150 0
130 155 0
121 148 0
129 155 0
130 155 0
135 158 0
128 154 0
135 161 0
133 157 0
130 155 0
129 156 0
123 148 0
128 153 0
136 162 0
135 160 0
120 144 0
113 137 0
124 149 0
118 142 0
129 152 0
117 140 0
123 150 0
126 152 0
116 142 0
127 151 0
118 144 0
125 148 0
123 147 0
115 140 0
126 149 0
118 142 0
123 149 0
120 145 0
123 147 0
127 150 0
119 140 0
128 154 0
120 145 0
127 150 0
130 154 0
116 138 0
127 150 0
120 143 0
109 134 0
122 145 0
112 134 0
117 139 0
120 144 0
122 145 0
126 151 0
127 150 0
133 157 0
125 148 0
118 141 0
114 138 0
121 143 0
103 126 0
125 150 0
117 140 0
120 141 0
119 141 0
111 135 0
110 131 0
117 138 0
119 140 0
107 126 0
118 142 0
124 147 0
120 142 0
124 147 0
117 139 0
107 129 0
122 144 0
113 134 0
115 138 0
108 130 0
117 139 0
126 148 0
112 134 0
111 133 0
116 135 0
116 137 0
125 146 0
115 137 0
122 145 0
118 137 0
108 128 0
118 138 0
117 138 0
110 130 0
120 141 0
119 141 0
118 141 0
112 132 0
118 137 0
108 130 0
116 137 0
116 137 0
119 139 0
118 142 0
120 140 0
117 139 0
116 139 0
110 131 0
115 135 0
124 146 0
100 121 0
122 142 0
109 129 0
111 132 0
127 146 0
118 140 0
121 142 0
119 142 0
120 141 0
109 127 0
112 131 0
116 138 0
118 140 0
123 146 0
118 138 0
126 147 0
124 145 0
114 136 0
126 148 0
114 136 0
123 143 0
111 135 0
118 139 0
112 132 0
118 139 0
117 137 0
119 141 0
119 141 0
119 140 0
137 157 0
124 147 0
125 144 0
118 139 0
121 142 0
130 149 0
126 147 0
124 147 0
130 153 0
133 152 0
117 138 0
120 143 0
121 145 0
120 140 0
117 140 0
119 138 0
138 161 0
125 146 0
129 149 0
130 153 0
127 150 0
127 151 0
124 146 0
129 151 0
129 148 0
128 150 0
127 148 0
130 152 0
124 143 0
130 153 0
129 150 0
134 156 0
128 148 0
125 149 0
128 152 0
131 154 0
129 151 0
129 150 0
129 150 0
134 154 0
134 158 0
128 151 0
132 155 0
128 149 0
134 157 0
142 163 0
134 155 0
134 154 0
130 150 0
135 156 0
135 156 0
133 152 0
128 148 0
131 153 0
135 155 0
123 143 0
129 148 0
134 153 0
133 151 0
128 147 0
133 152 0
132 153 0
135 154 0
130 149 0
140 159 0
137 156 0
137 155 0
137 152 0
130 148 0
137 156 0
127 147 0
133 153 0
139 161 0
143 159 0
133 147 0
138 157 0
136 156 0
141 157 0
142 161 0
138 153 0
140 156 0
137 152 0
140 155 0
136 151 0
143 160 0
143 157 0
136 151 0
137 153 0
139 155 0
135 151 0
143 158 0
142 157 0
141 154 0
129 142 0
137 148 0
141 157 0
137 152 0
135 146 0
144 160 0
143 156 0
140 153 0
144 160 0
145 158 0
145 156 0
139 153 0
145 158 0
140 149 0
143 158 0
145 156 0
140 151 0
146 162 0
144 158 0
144 152 0
136 147 0
147 160 0
148 158 0
142 154 0
141 154 0
144 151 0
145 155 0
145 156 0
144 158 0
151 162 0
146 157 0
153 165 0
147 155 0
147 157 0
152 163 0
153 164 0
146 155 0
149 163 0
147 158 0
147 156 0
155 168 0
142 152 0
147 160 0
147 162 0
149 163 0
145 157 0
153 162 0
146 158 0
149 161 0
150 162 0
152 167 0
148 158 0
150 162 0
150 163 0
147 157 0
151 162 0
151 162 0
155 169 0
154 171 0
156 170 0
146 167 0
151 173 0
144 166 0
155 178 0
154 177 0
151 173 0
150 173 0
153 176 0
148 171 0
148 169 0
146 168 0
146 169 0
139 162 0
146 169 0
147 169 0
150 172 0
144 166 0
147 170 0
143 165 0
152 173 0
150 173 0
137 161 0
147 168 0
144 167 0
146 168 0
150 169 0
147 170 0
145 168 0
144 166 0
145 169 0
143 165 0
148 172 0
147 169 0
138 161 0
142 165 0
147 169 0
144 167 0
146 167 0
147 168 0
146 168 0
142 163 0
143 167 0
136 158 0
143 167 0
139 162 0
143 167 0
140 162 0
134 159 0
140 162 0
138 159 0
140 163 0
141 165 0
141 163 0
140 162 0
139 162 0
142 164 0
139 163 0
146 168 0
135 158 0
136 159 0
131 153 0
140 163 0
148 169 0
138 162 0
136 159 0
135 160 0
137 159 0
142 165 0
131 155 0
131 155 0
131 156 0
136 158 0
139 163 0
144 168 0
126 149 0
137 161 0
126 150 0
138 162 0
135 157 0
133 159 0
136 161 0
133 158 0
137 160 0
132 156 0
135 158 0
135 157 0
130 157 0
136 162 0
136 162 0
131 155 0
134 159 0
121 147 0
135 159 0
142 168 0
134 158 0
129 154 0
133 160 0
136 161 0
122 148 0
130 157 0
133 157 0
130 157 0
138 162 0
129 154 0
118 142 0
134 159 0
133 158 0
130 154 0
129 155 0
134 157 0
134 159 0
120 145 0
129 156 0
129 155 0
130 154 0
138 165 0
129 154 0
138 163 0
123 148 0
125 149 0
135 161 0
131 158 0
132 158 0
129 154 0
135 160 0
130 156 0
131 155 0
118 144 0
126 152 0
124 153 0
129 155 0
131 155 0
129 153 0
129 154 0
120 143 0
134 157 0
137 162 0
122 148 0
123 149 0
127 149 0
126 150 0
121 146 0
118 143 0
120 145 0
126 150 0
121 145 0
124 148 0
133 156 0
115 137 0
133 157 0
127 152 0
111 134 0
116 139 0
123 146 0
125 152 0
108 130 0
108 131 0
115 139 0
126 149 0
114 139 0
120 141 0
110 134 0
119 143 0
103 124 0
126 149 0
125 148 0
113 134 0
118 141 0
108 131 0
117 140 0
118 142 0
116 138 0
122 145 0
120 143 0
120 145 0
111 133 0
112 135 0
122 147 0
108 128 0
121 141 0
120 143 0
122 144 0
121 143 0
115 138 0
121 144 0
114 138 0
115 136 0
115 137 0
121 143 0
110 129 0
121 143 0
109 131 0
121 143 0
122 143 0
121 144 0
118 141 0
121 142 0
122 146 0
125 146 0
117 140 0
124 145 0
121 140 0
124 145 0
129 151 0
113 133 0
113 136 0
117 136 0
123 143 0
121 142 0
115 136 0
120 141 0
111 133 0
115 135 0
120 142 0
110 130 0
110 132 0
120 140 0
117 135 0
122 144 0
103 124 0
126 149 0
123 145 0
125 146 0
120 147 0
129 151 0
121 141 0
118 139 0
119 139 0
128 150 0
125 147 0
124 147 0
126 148 0
111 132 0
118 139 0
115 137 0
126 149 0
125 146 0
134 157 0
123 144 0
115 136 0
126 147 0
118 138 0
111 131 0
109 130 0
126 147 0
126 146 0
122 145 0
120 140 0
122 143 0
128 147 0
117 138 0
126 147 0
120 143 0
118 138 0
115 136 0
133 152 0
123 147 0
131 152 0
119 143 0
123 143 0
124 145 0
128 150 0
131 151 0
121 144 0
128 148 0
123 148 0
125 149 0
123 144 0
123 147 0
125 147 0
128 149 0
126 149 0
125 148 0
123 144 0
125 150 0
124 146 0
136 157 0
127 148 0
119 140 0
118 140 0
132 155 0
129 149 0
132 157 0
129 154 0
130 148 0
126 148 0
135 161 0
130 150 0
135 154 0
129 153 0
140 163 0
129 150 0
127 151 0
132 155 0
124 142 0
126 144 0
133 151 0
127 147 0
139 156 0
128 145 0
124 146 0
133 155 0
131 150 0
130 152 0
132 152 0
131 152 0
139 160 0
124 142 0
130 153 0
126 145 0
131 152 0
133 153 0
132 150 0
134 151 0
136 156 0
141 160 0
137 155 0
133 153 0
122 144 0
137 154 0
138 155 0
135 149 0
128 145 0
134 150 0
141 158 0
144 166 0
137 153 0
133 151 0
142 161 0
135 153 0
141 156 0
134 149 0
142 157 0
135 151 0
136 152 0
141 154 0
142 156 0
134 148 0
147 165 0
141 157 0
138 155 0
144 160 0
140 156 0
140 157 0
137 150 0
139 153 0
142 156 0
132 144 0
143 153 0
137 151 0
149 162 0
146 159 0
137 150 0
147 159 0
139 153 0
141 152 0
145 159 0
148 161 0
144 160 0
145 157 0
148 159 0
145 157 0
147 157 0
144 156 0
144 159 0
151 163 0
142 154 0
145 157 0
144 156 0
150 159 0
150 163 0
145 157 0
148 159 0
151 165 0
146 159 0
152 165 0
152 164 0
150 161 0
147 157 0
140 149 0
148 159 0
146 156 0
152 163 0
151 161 0
147 160 0
147 161 0
153 167 0
149 160 0
148 161 0
148 160 0
145 158 0
151 163 0
151 165 0
150 161 0
153 164 0
152 165 0
150 164 0
151 164 0
155 168 0
155 167 0
149 174 0
150 172 0
150 174 0
150 173 0
150 173 0
143 167 0
147 171 0
154 175 0
153 176 0
149 171 0
151 174 0
153 174 0
150 173 0
144 165 0
146 168 0
150 175 0
150 172 0
144 165 0
143 166 0
147 170 0
146 168 0
149 172 0
147 170 0
141 164 0
147 167 0
139 163 0
145 167 0
147 170 0
138 159 0
144 168 0
141 163 0
148 170 0
142 163 0
143 166 0
140 163 0
148 171 0
144 164 0
140 163 0
151 175 0
144 166 0
143 166 0
142 165 0
150 175 0
138 163 0
145 168 0
141 163 0
140 163 0
137 161 0
133 158 0
137 160 0
137 160 0
149 173 0
139 159 0
135 161 0
147 170 0
140 162 0
146 169 0
137 161 0
135 159 0
146 170 0
138 164 0
136 160 0
144 168 0
133 156 0
143 165 0
138 163 0
137 161 0
139 164 0
136 162 0
137 161 0
147 169 0
141 166 0
136 159 0
140 165 0
119 145 0
129 152 0
137 160 0
134 159 0
132 157 0
138 162 0
139 164 0
141 166 0
129 154 0
137 163 0
137 161 0
136 161 0
131 155 0
129 155 0
136 160 0
139 166 0
135 159 0
121 146 0
134 159 0
137 163 0
134 159 0
128 153 0
127 151 0
125 151 0
141 164 0
127 151 0
131 154 0
128 153 0
127 152 0
133 158 0
125 151 0
138 164 0
126 152 0
127 153 0
131 157 0
132 159 0
125 148 0
139 165 0
126 152 0
124 150 0
130 159 0
125 151 0
124 151 0
139 162 0
126 152 0
133 158 0
126 153 0
129 155 0
135 162 0
127 154 0
123 147 0
129 154 0
122 147 0
124 147 0
120 145 0
129 154 0
124 151 0
138 162 0
127 152 0
127 154 0
121 148 0
125 151 0
123 149 0
121 147 0
124 149 0
129 155 0
135 161 0
120 145 0
118 142 0
121 148 0
121 146 0
128 152 0
130 156 0
134 157 0
120 145 0
124 147 0
123 149 0
129 154 0
121 145 0
119 142 0
114 139 0
124 148 0
123 148 0
127 151 0
123 147 0
126 150 0
123 147 0
131 154 0
118 140 0
122 146 0
119 143 0
119 142 0
124 149 0
121 144 0
125 149 0
113 136 0
127 151 0
122 144 0
118 140 0
115 137 0
117 141 0
115 138 0
124 145 0
116 139 0
127 150 0
120 142 0
119 144 0
112 132 0
126 148 0
116 136 0
124 148 0
105 127 0
120 142 0
124 148 0
117 139 0
103 125 0
124 148 0
121 142 0
122 142 0
122 145 0
115 136 0
121 144 0
125 146 0
114 137 0
120 141 0
122 144 0
103 123 0
113 134 0
119 142 0
118 138 0
115 136 0
110 134 0
119 139 0
104 124 0
111 136 0
130 149 0
115 135 0
112 135 0
124 146 0
123 146 0
127 149 0
123 144 0
118 140 0
116 139 0
122 145 0
113 134 0
115 139 0
115 135 0
122 145 0
127 148 0
117 139 0
110 132 0
118 140 0
117 139 0
119 141 0
116 139 0
125 148 0
132 153 0
123 147 0
121 143 0
112 135 0
122 143 0
126 148 0
115 137 0
124 145 0
117 138 0
121 144 0
132 151 0
120 143 0
116 139 0
113 137 0
131 153 0
117 140 0
125 149 0
132 156 0
119 143 0
127 150 0
115 135 0
124 144 0
121 143 0
126 144 0
122 145 0
121 141 0
127 149 0
118 141 0
125 148 0
128 149 0
124 147 0
130 152 0
124 146 0
119 143 0
123 145 0
128 151 0
130 150 0
127 152 0
127 149 0
131 154 0
130 154 0
129 152 0
125 149 0
126 147 0
129 152 0
129 150 0
135 156 0
121 144 0
138 161 0
130 151 0
117 139 0
131 155 0
123 143 0
122 143 0
129 149 0
129 151 0
128 148 0
136 157 0
123 146 0
134 156 0
128 151 0
125 146 0
132 154 0
128 150 0
127 147 0
136 160 0
141 163 0
131 151 0
131 152 0
123 146 0
127 145 0
139 161 0
128 145 0
133 154 0
139 160 0
126 147 0
129 149 0
135 157 0
136 156 0
127 147 0
129 148 0
135 154 0
127 143 0
135 154 0
131 152 0
140 161 0
136 153 0
143 157 0
140 157 0
134 153 0
131 151 0
143 161 0
130 150 0
130 149 0
140 159 0
132 152 0
134 153 0
142 159 0
137 153 0
134 151 0
141 158 0
142 158 0
137 153 0
137 152 0
129 144 0
137 155 0
142 157 0
141 159 0
137 159 0
131 146 0
142 159 0
142 158 0
139 150 0
141 157 0
139 153 0
138 153 0
136 147 0
145 162 0
143 157 0
136 149 0
143 159 0
144 162 0
143 157 0
141 158 0
143 160 0
147 163 0
147 161 0
141 158 0
148 162 0
145 159 0
145 157 0
143 157 0
147 161 0
149 164 0
147 160 0
144 154 0
145 160 0
149 160 0
148 162 0
150 160 0
148 162 0
144 152 0
139 152 0
147 158 0
151 164 0
143 156 0
147 160 0
144 157 0
143 155 0
150 159 0
142 156 0
144 154 0
147 159 0
148 162 0
153 165 0
152 166 0
157 170 0
149 162 0
154 168 0
147 158 0
152 166 0
147 160 0
148 158 0
152 164 0
150 163 0
150 164 0
144 160 0
152 163 0
147 162 0
149 171 0
150 174 0
151 173 0
151 174 0
147 169 0
153 175 0
145 169 0
146 169 0
151 173 0
149 172 0
149 174 0
149 171 0
151 172 0
146 168 0
142 164 0
150 171 0
146 168 0
150 172 0
146 167 0
148 171 0
145 167 0
149 172 0
148 170 0
146 169 0
150 170 0
145 168 0
149 172 0
141 165 0
144 166 0
148 171 0
143 166 0
144 166 0
135 156 0
150 172 0
144 165 0
143 166 0
140 165 0
144 168 0
147 169 0
149 170 0
142 165 0
144 167 0
137 160 0
137 159 0
138 163 0
134 157 0
137 159 0
145 169 0
144 167 0
146 170 0
138 162 0
144 166 0
138 162 0
142 165 0
135 158 0
141 164 0
142 166 0
141 167 0
141 163 0
131 156 0
143 167 0
132 155 0
144 166 0
145 168 0
143 166 0
136 161 0
132 156 0
131 154 0
127 152 0
137 161 0
141 166 0
142 166 0
140 166 0
129 153 0
132 156 0
138 162 0
141 163 0
138 164 0
137 164 0
135 160 0
142 166 0
127 155 0
135 158 0
138 162 0
137 162 0
136 162 0
138 164 0
135 163 0
133 157 0
133 158 0
125 151 0
139 166 0
135 160 0
129 155 0
126 152 0
135 161 0
131 159 0
128 152 0
130 158 0
126 151 0
137 163 0
127 153 0
137 163 0
133 156 0
128 152 0
133 159 0
128 154 0
138 161 0
135 160 0
128 152 0
130 155 0
126 149 0
124 150 0
132 154 0
132 155 0
125 149 0
136 162 0
127 152 0
129 154 0
129 157 0
121 146 0
123 150 0
125 151 0
127 151 0
126 153 0
112 138 0
122 147 0
130 156 0
128 154 0
126 153 0
125 150 0
130 154 0
134 159 0
126 151 0
129 154 0
130 154 0
120 147 0
126 151 0
122 148 0
123 148 0
126 152 0
135 160 0
117 140 0
118 143 0
116 141 0
124 148 0
112 137 0
130 156 0
122 147 0
120 146 0
130 155 0
122 147 0
127 150 0
124 149 0
123 146 0
123 146 0
127 148 0
119 145 0
131 155 0
120 147 0
116 141 0
115 138 0
120 143 0
116 139 0
122 146 0
126 150 0
121 146 0
117 140 0
119 143 0
125 148 0
125 147 0
127 150 0
116 140 0
119 140 0
124 147 0
121 146 0
118 143 0
123 143 0
119 142 0
119 140 0
113 133 0
116 139 0
120 145 0
111 133 0
120 142 0
124 147 0
113 135 0
120 143 0
120 141 0
124 147 0
119 142 0
121 144 0
107 128 0
119 139 0
130 152 0
116 140 0
133 154 0
121 142 0
129 150 0
116 136 0
112 135 0
132 155 0
106 129 0
126 149 0
122 142 0
127 150 0
119 142 0
125 148 0
109 129 0
121 142 0
119 142 0
118 138 0
124 147 0
126 146 0
108 128 0
118 138 0
124 146 0
113 134 0
123 144 0
131 150 0
129 152 0
125 150 0
118 138 0
117 139 0
120 142 0
112 134 0
130 150 0
117 141 0
120 144 0
122 144 0
120 142 0
116 137 0
115 138 0
112 133 0
108 132 0
122 141 0
125 145 0
117 139 0
128 151 0
114 137 0
131 154 0
125 147 0
124 145 0
130 151 0
128 150 0
120 140 0
122 146 0
115 136 0
124 146 0
127 149 0
121 144 0
127 150 0
115 137 0
125 149 0
122 146 0
126 150 0
125 147 0
125 148 0
129 151 0
122 145 0
128 149 0
126 149 0
122 144 0
128 150 0
127 152 0
118 141 0
132 157 0
119 139 0
126 149 0
117 140 0
126 146 0
132 156 0
122 145 0
124 143 0
121 143 0
129 151 0
132 154 0
134 159 0
126 148 0
133 154 0
124 147 0
131 155 0
120 144 0
127 151 0
125 147 0
128 151 0
124 147 0
127 147 0
144 163 0
132 154 0
122 144 0
125 147 0
142 164 0
129 151 0
131 150 0
132 155 0
133 155 0
132 153 0
127 146 0
133 154 0
139 159 0
134 154 0
140 158 0
135 154 0
137 154 0
135 156 0
137 157 0
136 157 0
132 152 0
142 160 0
138 157 0
132 151 0
130 150 0
133 156 0
126 149 0
134 151 0
134 150 0
129 146 0
134 154 0
134 154 0
131 150 0
131 150 0
138 156 0
146 167 0
136 153 0
136 154 0
136 155 0
141 157 0
137 156 0
133 150 0
144 159 0
138 159 0
142 159 0
141 159 0
143 162 0
142 155 0
139 157 0
138 154 0
145 165 0
135 153 0
146 165 0
138 152 0
147 163 0
140 157 0
145 158 0
139 155 0
139 155 0
139 154 0
142 162 0
141 156 0
138 153 0
135 149 0
141 156 0
144 159 0
143 155 0
150 167 0
134 148 0
140 152 0
139 151 0
142 158 0
146 163 0
144 160 0
137 151 0
148 160 0
142 156 0
147 160 0
151 165 0
142 158 0
142 155 0
145 158 0
149 162 0
142 153 0
151 166 0
147 159 0
141 157 0
145 158 0
145 157 0
145 159 0
153 168 0
153 164 0
150 163 0
149 163 0
153 168 0
150 166 0
143 156 0
149 163 0
151 163 0
148 160 0
153 167 0
151 164 0
147 161 0
153 165 0
149 162 0
146 160 0
150 162 0
154 166 0
145 160 0
147 160 0
147 161 0
155 168 0
150 172 0
148 171 0
150 174 0
156 178 0
145 166 0
149 173 0
148 171 0
148 171 0
150 173 0
151 173 0
149 170 0
149 172 0
147 168 0
152 174 0
152 175 0
144 165 0
151 174 0
152 175 0
144 168 0
145 168 0
152 176 0
147 169 0
142 165 0
142 165 0
145 170 0
146 171 0
139 162 0
149 172 0
147 169 0
139 162 0
143 164 0
142 166 0
152 174 0
142 165 0
141 164 0
136 161 0
143 165 0
147 171 0
143 167 0
144 169 0
142 165 0
141 165 0
145 167 0
146 170 0
145 168 0
141 165 0
139 161 0
136 161 0
135 159 0
134 158 0
142 164 0
137 162 0
141 164 0
137 162 0
140 166 0
137 160 0
134 159 0
136 161 0
141 164 0
136 160 0
139 164 0
136 161 0
142 167 0
139 163 0
141 166 0
139 164 0
140 165 0
132 157 0
140 167 0
137 162 0
143 167 0
138 164 0
133 156 0
140 164 0
134 161 0
137 161 0
138 161 0
131 156 0
132 156 0
138 162 0
128 152 0
134 157 0
130 157 0
134 159 0
137 161 0
134 160 0
135 158 0
132 156 0
135 158 0
144 171 0
126 151 0
139 164 0
131 157 0
138 164 0
134 159 0
125 150 0
134 161 0
137 165 0
137 164 0
123 149 0
143 170 0
131 159 0
131 157 0
131 159 0
134 159 0
126 153 0
133 159 0
131 155 0
126 152 0
131 156 0
133 160 0
127 153 0
129 156 0
136 162 0
138 164 0
126 152 0
131 157 0
122 152 0
128 156 0
137 162 0
125 152 0
128 153 0
129 154 0
131 157 0
133 160 0
126 153 0
124 148 0
134 159 0
126 150 0
129 154 0
126 154 0
131 154 0
124 149 0
125 149 0
119 144 0
128 152 0
134 161 0
124 151 0
118 144 0
131 155 0
125 152 0
118 141 0
116 140 0
124 149 0
120 146 0
118 141 0
123 147 0
125 149 0
128 155 0
121 145 0
127 150 0
115 139 0
125 151 0
126 148 0
131 154 0
115 137 0
125 148 0
130 152 0
121 144 0
122 147 0
134 160 0
121 148 0
114 137 0
114 139 0
129 154 0
127 151 0
117 141 0
122 147 0
129 150 0
126 148 0
116 140 0
128 151 0
120 145 0
133 156 0
123 148 0
114 137 0
116 140 0
111 135 0
124 146 0
118 140 0
115 138 0
125 148 0
116 139 0
115 140 0
116 138 0
124 146 0
134 155 0
125 148 0
113 134 0
126 148 0
112 134 0
125 147 0
120 140 0
119 142 0
117 140 0
125 147 0
116 136 0
110 130 0
116 138 0
110 132 0
119 141 0
114 139 0
125 148 0
123 146 0
101 119 0
115 136 0
126 147 0
105 129 0
116 138 0
117 138 0
118 140 0
125 149 0
119 144 0
108 131 0
125 146 0
120 143 0
116 136 0
119 142 0
122 144 0
125 147 0
133 158 0
113 136 0
114 138 0
120 142 0
107 130 0
125 149 0
120 143 0
118 141 0
121 144 0
125 148 0
118 141 0
119 139 0
120 144 0
118 141 0
119 140 0
120 142 0
121 141 0
115 139 0
125 148 0
124 146 0
125 146 0
116 140 0
120 142 0
127 148 0
119 143 0
119 141 0
128 152 0
127 148 0
126 147 0
119 144 0
130 153 0
120 141 0
127 148 0
119 142 0
128 148 0
126 149 0
126 149 0
125 151 0
127 150 0
121 147 0
133 154 0
117 141 0
122 146 0
124 144 0
129 152 0
126 148 0
130 152 0
137 156 0
132 151 0
129 153 0
131 152 0
124 148 0
128 152 0
128 152 0
131 153 0
126 149 0
133 154 0
125 146 0
133 156 0
127 146 0
135 155 0
134 157 0
130 154 0
129 149 0
126 145 0
136 156 0
131 154 0
135 158 0
122 145 0
133 157 0
132 155 0
126 150 0
127 150 0
134 157 0
130 150 0
129 149 0
130 152 0
135 157 0
135 158 0
132 154 0
127 147 0
130 153 0
132 151 0
129 151 0
127 148 0
131 153 0
142 161 0
135 157 0
134 154 0
133 158 0
140 160 0
147 165 0
134 154 0
135 159 0
140 162 0
138 158 0
132 150 0
127 147 0
142 162 0
134 154 0
142 163 0
135 154 0
137 157 0
136 154 0
143 159 0
136 156 0
137 155 0
138 152 0
141 160 0
130 148 0
136 158 0
137 156 0
137 152 0
135 152 0
140 155 0
144 159 0
144 164 0
133 148 0
137 152 0
141 159 0
133 149 0
143 160 0
139 156 0
138 155 0
140 156 0
144 160 0
137 154 0
144 159 0
135 152 0
137 151 0
143 159 0
146 160 0
136 151 0
144 159 0
145 159 0
142 157 0
141 157 0
145 160 0
145 160 0
146 163 0
147 160 0
145 155 0
143 157 0
149 162 0
145 159 0
138 153 0
147 162 0
143 157 0
152 166 0
136 147 0
147 161 0
142 156 0
144 157 0
148 164 0
148 161 0
143 157 0
146 158 0
144 158 0
148 159 0
147 162 0
148 162 0
147 162 0
145 159 0
142 154 0
147 159 0
152 166 0
148 161 0
143 159 0
150 160 0
145 158 0
150 164 0
147 157 0
153 167 0
154 167 0
152 165 0
150 162 0
147 160 0
149 164 0
148 163 0
154 167 0
152 175 0
155 176 0
154 177 0
151 172 0
150 175 0
148 170 0
154 177 0
150 173 0
152 177 0
142 165 0
145 166 0
147 170 0
147 169 0
146 170 0
144 167 0
140 164 0
151 174 0
140 163 0
147 170 0
148 169 0
142 167 0
143 165 0
149 171 0
144 167 0
146 169 0
147 171 0
147 170 0
142 166 0
142 166 0
144 169 0
138 163 0
136 160 0
149 172 0
145 168 0
148 171 0
142 166 0
148 170 0
145 168 0
142 165 0
143 165 0
139 163 0
143 167 0
141 166 0
143 165 0
142 165 0
144 167 0
143 167 0
134 157 0
135 159 0
144 169 0
151 174 0
139 164 0
133 155 0
144 168 0
142 167 0
143 167 0
137 163 0
141 165 0
128 152 0
138 162 0
137 162 0
141 166 0
141 167 0
141 167 0
146 169 0
134 158 0
135 159 0
143 168 0
139 164 0
137 160 0
137 162 0
141 165 0
137 161 0
137 163 0
137 161 0
131 159 0
142 167 0
140 165 0
136 161 0
135 157 0
134 157 0
135 158 0
136 163 0
130 156 0
128 154 0
137 161 0
136 160 0
139 163 0
132 160 0
129 153 0
142 165 0
139 164 0
130 156 0
131 157 0
135 160 0
136 160 0
136 163 0
131 156 0
130 159 0
136 161 0
132 158 0
130 157 0
132 156 0
125 149 0
134 161 0
128 154 0
133 158 0
118 143 0
132 159 0
126 153 0
131 158 0
135 162 0
129 154 0
129 154 0
130 154 0
120 144 0
126 154 0
122 148 0
133 159 0
121 144 0
121 147 0
127 152 0
131 157 0
126 152 0
124 150 0
129 152 0
130 158 0
131 156 0
121 147 0
124 149 0
132 156 0
135 160 0
113 138 0
130 156 0
126 155 0
138 165 0
131 157 0
127 154 0
127 154 0
129 153 0
129 156 0
131 154 0
126 151 0
127 151 0
128 151 0
131 157 0
131 157 0
125 150 0
128 152 0
123 149 0
109 133 0
126 151 0
122 145 0
125 151 0
118 142 0
115 141 0
116 143 0
117 141 0
119 142 0
126 150 0
131 151 0
124 147 0
123 146 0
116 141 0
121 145 0
131 155 0
119 142 0
128 150 0
127 152 0
112 134 0
126 150 0
118 141 0
129 151 0
126 149 0
130 153 0
118 142 0
116 138 0
118 138 0
121 144 0
120 145 0
120 142 0
111 133 0
124 146 0
121 144 0
126 150 0
129 152 0
101 123 0
124 148 0
115 137 0
127 149 0
124 148 0
116 141 0
121 141 0
117 140 0
115 136 0
122 145 0
123 146 0
125 148 0
116 137 0
114 138 0
125 147 0
117 140 0
126 149 0
112 135 0
129 152 0
117 139 0
113 134 0
121 142 0
113 136 0
118 140 0
118 140 0
116 138 0
110 129 0
119 141 0
130 152 0
115 138 0
124 143 0
116 138 0
124 147 0
120 142 0
128 151 0
115 139 0
118 140 0
126 147 0
124 145 0
127 149 0
109 130 0
119 138 0
126 149 0
123 144 0
121 141 0
124 147 0
124 145 0
130 151 0
117 139 0
127 149 0
117 138 0
119 143 0
122 144 0
126 148 0
127 150 0
121 142 0
127 147 0
122 145 0
131 157 0
130 149 0
130 155 0
120 143 0
122 144 0
128 151 0
126 149 0
130 153 0
134 160 0
124 145 0
131 153 0
124 144 0
121 143 0
123 147 0
119 140 0
128 150 0
131 153 0
124 147 0
129 151 0
132 155 0
127 150 0
126 148 0
126 150 0
130 152 0
134 156 0
132 154 0
137 162 0
128 151 0
133 157 0
128 148 0
128 149 0
134 158 0
135 156 0
131 155 0
129 150 0
130 153 0
128 150 0
122 146 0
124 144 0
123 146 0
116 140 0
121 145 0
132 155 0
133 157 0
132 152 0
134 156 0
131 153 0
134 156 0
137 158 0
136 157 0
143 164 0
140 164 0
130 150 0
128 152 0
128 151 0
134 155 0
137 158 0
127 150 0
137 158 0
132 154 0
132 152 0
140 163 0
129 152 0
135 156 0
129 153 0
135 156 0
133 151 0
128 149 0
140 162 0
134 156 0
141 163 0
134 155 0
133 158 0
132 149 0
135 156 0
136 157 0
143 161 0
139 159 0
137 157 0
138 154 0
140 162 0
138 156 0
136 156 0
131 148 0
136 157 0
133 153 0
136 153 0
133 153 0
138 156 0
140 155 0
139 156 0
139 158 0
143 163 0
138 155 0
135 155 0
143 161 0
141 158 0
136 153 0
144 163 0
131 149 0
138 154 0
138 154 0
138 155 0
136 148 0
138 153 0
149 166 0
144 161 0
147 160 0
142 160 0
134 149 0
147 161 0
140 156 0
148 161 0
147 162 0
140 155 0
138 152 0
147 164 0
145 161 0
143 157 0
150 162 0
143 158 0
143 158 0
145 157 0
141 153 0
147 162 0
148 164 0
152 166 0
149 166 0
147 161 0
140 154 0
154 170 0
145 157 0
145 160 0
148 161 0
149 165 0
149 161 0
145 157 0
148 163 0
145 158 0
146 159 0
150 164 0
150 162 0
142 157 0
146 163 0
145 158 0
145 156 0
147 162 0
145 154 0
151 167 0
144 156 0
148 160 0
146 158 0
155 170 0
150 163 0
150 164 0
149 166 0
150 173 0
154 176 0
144 167 0
148 172 0
146 168 0
145 169 0
148 169 0
150 172 0
156 177 0
150 173 0
140 165 0
155 177 0
144 168 0
151 173 0
137 161 0
146 171 0
151 174 0
150 173 0
147 170 0
153 175 0
146 167 0
145 168 0
141 163 0
144 170 0
147 169 0
145 167 0
145 168 0
153 176 0
144 168 0
143 166 0
148 169 0
147 171 0
148 171 0
145 169 0
148 172 0
138 161 0
148 172 0
141 164 0
148 171 0
138 162 0
142 163 0
134 160 0
146 169 0
150 172 0
145 167 0
144 167 0
141 165 0
140 164 0
136 160 0
141 166 0
134 160 0
144 168 0
136 160 0
146 170 0
146 171 0
140 164 0
141 165 0
138 163 0
140 164 0
149 173 0
137 164 0
144 169 0
133 160 0
135 158 0
139 164 0
138 163 0
141 166 0
138 159 0
140 166 0
137 165 0
145 169 0
143 166 0
131 156 0
138 163 0
128 156 0
128 152 0
138 162 0
133 158 0
134 159 0
135 160 0
136 159 0
132 154 0
140 167 0
142 168 0
138 166 0
134 161 0
137 165 0
134 159 0
135 161 0
128 153 0
132 160 0
135 161 0
135 162 0
135 162 0
126 149 0
131 156 0
135 162 0
145 169 0
133 159 0
129 153 0
132 157 0
135 161 0
143 171 0
141 167 0
124 150 0
144 169 0
124 150 0
138 164 0
128 155 0
122 150 0
131 159 0
135 162 0
129 155 0
127 151 0
127 152 0
130 155 0
127 151 0
132 158 0
127 153 0
133 159 0
129 154 0
133 159 0
124 153 0
131 155 0
130 158 0
129 154 0
124 149 0
130 159 0
120 144 0
126 150 0
127 151 0
129 153 0
119 146 0
130 156 0
125 153 0
129 153 0
124 151 0
133 159 0
127 152 0
131 155 0
127 151 0
126 149 0
128 154 0
130 157 0
126 151 0
119 145 0
131 156 0
123 148 0
122 149 0
130 153 0
111 136 0
122 149 0
126 152 0
127 150 0
126 149 0
127 152 0
119 143 0
124 148 0
121 146 0
122 145 0
125 151 0
118 142 0
123 145 0
129 153 0
130 155 0
127 151 0
119 142 0
124 149 0
116 138 0
123 146 0
120 144 0
119 142 0
117 139 0
118 143 0
123 148 0
125 149 0
120 145 0
118 141 0
126 148 0
126 150 0
121 142 0
120 144 0
117 139 0
117 140 0
113 135 0
118 142 0
130 153 0
129 154 0
122 144 0
116 138 0
116 140 0
117 141 0
120 143 0
118 143 0
111 133 0
117 141 0
126 149 0
111 133 0
128 149 0
123 146 0
128 149 0
116 138 0
114 138 0
128 151 0
129 154 0
128 150 0
121 141 0
119 144 0
132 155 0
120 145 0
111 135 0
112 133 0
117 141 0
125 146 0
113 135 0
121 145 0
128 148 0
125 148 0
124 149 0
125 148 0
113 135 0
131 156 0
123 148 0
125 150 0
118 142 0
121 143 0
123 143 0
118 140 0
121 143 0
126 151 0
127 148 0
124 147 0
119 140 0
118 141 0
132 154 0
130 154 0
122 146 0
124 143 0
125 148 0
129 150 0
120 145 0
112 136 0
126 150 0
133 154 0
125 149 0
119 142 0
131 153 0
117 144 0
127 150 0
122 144 0
120 141 0
135 159 0
120 141 0
124 146 0
119 144 0
119 144 0
125 149 0
131 154 0
124 146 0
123 149 0
126 150 0
123 147 0
133 156 0
121 144 0
131 153 0
130 150 0
122 145 0
128 151 0
126 151 0
131 155 0
129 151 0
128 149 0
130 152 0
130 154 0
130 148 0
135 160 0
135 159 0
125 151 0
132 155 0
130 156 0
124 146 0
128 150 0
131 154 0
129 152 0
129 153 0
124 147 0
132 156 0
120 142 0
127 150 0
141 163 0
130 153 0
126 146 0
136 158 0
129 149 0
123 147 0
127 147 0
135 155 0
129 152 0
136 161 0
123 144 0
129 151 0
136 157 0
130 152 0
139 158 0
132 156 0
131 152 0
125 148 0
134 157 0
147 167 0
142 163 0
129 150 0
135 157 0
129 151 0
138 159 0
125 143 0
139 158 0
142 162 0
133 154 0
133 155 0
135 155 0
134 153 0
143 163 0
139 158 0
139 159 0
139 161 0
139 157 0
138 156 0
142 160 0
133 154 0
136 154 0
146 167 0
135 152 0
140 156 0
138 155 0
138 156 0
134 154 0
140 157 0
137 156 0
135 150 0
134 151 0
146 162 0
138 154 0
133 150 0
140 156 0
142 158 0
143 159 0
138 155 0
145 160 0
142 156 0
146 166 0
145 157 0
131 146 0
141 157 0
142 157 0
137 153 0
139 157 0
137 151 0
143 161 0
140 156 0
141 159 0
141 159 0
144 160 0
144 160 0
144 157 0
145 161 0
145 158 0
143 158 0
144 159 0
139 155 0
141 156 0
144 158 0
139 152 0
141 155 0
152 168 0
148 160 0
153 173 0
148 158 0
149 163 0
149 164 0
147 166 0
148 161 0
148 162 0
144 157 0
150 167 0
151 163 0
149 163 0
149 160 0
149 163 0
149 163 0
150 162 0
149 165 0
147 161 0
151 167 0
148 161 0
147 164 0
152 162 0
147 165 0
149 164 0
152 166 0
148 162 0
155 179 0
149 172 0
151 175 0
146 170 0
148 171 0
147 170 0
149 171 0
152 175 0
152 174 0
142 166 0
145 167 0
143 168 0
150 173 0
147 169 0
151 175 0
144 167 0
141 164 0
146 171 0
144 170 0
144 167 0
147 169 0
148 172 0
138 162 0
147 170 0
146 169 0
145 169 0
145 169 0
145 169 0
142 167 0
141 165 0
140 164 0
142 166 0
139 163 0
144 169 0
147 171 0
140 164 0
149 172 0
145 168 0
145 169 0
146 169 0
138 162 0
149 172 0
144 168 0
140 165 0
139 164 0
140 164 0
140 164 0
140 163 0
142 166 0
141 166 0
133 159 0
140 164 0
139 166 0
142 165 0
142 166 0
140 164 0
145 168 0
142 165 0
141 165 0
139 164 0
141 164 0
140 165 0
137 163 0
139 163 0
133 159 0
138 163 0
143 166 0
133 159 0
137 163 0
137 164 0
139 165 0
137 164 0
134 160 0
140 165 0
141 165 0
139 164 0
135 162 0
140 166 0
133 160 0
128 156 0
143 169 0
132 157 0
137 161 0
136 163 0
133 157 0
133 161 0
131 157 0
136 161 0
134 162 0
134 160 0
142 166 0
128 155 0
117 143 0
134 157 0
135 159 0
135 163 0
133 161 0
137 165 0
131 158 0
132 158 0
130 155 0
132 158 0
129 156 0
128 155 0
123 148 0
132 159 0
132 160 0
131 158 0
136 159 0
133 159 0
136 161 0
132 158 0
140 165 0
130 155 0
132 158 0
132 155 0
131 155 0
127 156 0
131 157 0
128 156 0
134 158 0
127 153 0
129 154 0
129 157 0
127 152 0
132 159 0
130 156 0
125 148 0
130 158 0
125 150 0
124 149 0
128 153 0
130 154 0
115 143 0
125 150 0
125 151 0
130 156 0
117 143 0
127 153 0
129 154 0
125 151 0
120 146 0
120 147 0
134 159 0
131 157 0
131 156 0
127 151 0
127 151 0
128 152 0
122 149 0
126 152 0
119 144 0
124 147 0
135 158 0
127 152 0
116 142 0
121 147 0
137 161 0
121 143 0
114 139 0
122 146 0
125 149 0
123 146 0
124 149 0
123 148 0
129 153 0
132 157 0
137 158 0
113 138 0
118 141 0
121 146 0
128 152 0
129 153 0
125 151 0
112 135 0
122 145 0
120 144 0
118 141 0
116 141 0
129 153 0
130 153 0
128 151 0
115 140 0
125 146 0
125 148 0
128 151 0
115 138 0
130 154 0
116 138 0
117 141 0
114 139 0
125 146 0
117 140 0
124 146 0
129 152 0
120 142 0
130 154 0
111 135 0
115 140 0
122 144 0
120 143 0
118 143 0
115 140 0
119 142 0
111 137 0
119 143 0
125 148 0
129 154 0
121 146 0
123 150 0
111 134 0
117 141 0
121 144 0
124 149 0
124 145 0
129 151 0
128 151 0
125 148 0
117 141 0
121 145 0
115 138 0
119 141 0
117 136 0
111 133 0
126 146 0
125 148 0
122 145 0
132 154 0
123 144 0
130 153 0
127 150 0
127 151 0
126 150 0
124 150 0
120 143 0
126 150 0
119 142 0
135 155 0
118 141 0
130 153 0
126 148 0
120 146 0
120 144 0
130 154 0
133 157 0
122 144 0
120 144 0
126 145 0
120 143 0
120 143 0
131 153 0
127 150 0
129 153 0
119 144 0
124 147 0
123 148 0
128 147 0
123 146 0
125 148 0
134 155 0
121 143 0
126 150 0
129 155 0
123 144 0
127 150 0
138 159 0
128 150 0
127 149 0
131 154 0
131 155 0
129 153 0
132 153 0
130 154 0
134 155 0
121 142 0
138 161 0
128 149 0
127 149 0
126 148 0
129 155 0
135 156 0
127 152 0
133 156 0
132 155 0
128 153 0
129 154 0
135 150 0
129 156 0
131 152 0
135 157 0
132 154 0
129 151 0
132 155 0
124 146 0
132 155 0
141 162 0
129 152 0
134 157 0
127 151 0
131 153 0
131 153 0
138 161 0
130 155 0
138 160 0
124 147 0
138 161 0
139 161 0
127 148 0
128 147 0
135 157 0
138 159 0
130 152 0
135 158 0
140 157 0
132 156 0
148 167 0
128 150 0
133 153 0
137 156 0
135 156 0
131 149 0
135 155 0
140 161 0
137 158 0
136 158 0
142 163 0
135 155 0
131 148 0
138 158 0
136 155 0
133 151 0
137 156 0
137 156 0
137 153 0
139 160 0
141 160 0
137 156 0
135 153 0
143 164 0
139 155 0
141 160 0
141 162 0
139 157 0
137 155 0
145 159 0
143 160 0
140 155 0
144 161 0
145 162 0
138 157 0
144 158 0
145 160 0
142 157 0
140 159 0
141 159 0
143 160 0
144 158 0
139 152 0
147 164 0
142 155 0
147 160 0
144 161 0
143 156 0
139 155 0
150 166 0
145 161 0
149 165 0
140 158 0
149 166 0
149 164 0
147 162 0
155 170 0
140 156 0
142 153 0
141 151 0
150 166 0
148 161 0
146 162 0
150 168 0
150 166 0
151 164 0
142 157 0
148 161 0
150 164 0
151 167 0
153 169 0
142 155 0
150 165 0
150 166 0
150 162 0
152 165 0
149 163 0
145 161 0
146 161 0
150 164 0
146 160 0
146 161 0
150 164 0
153 166 0
152 163 0
153 176 0
145 168 0
152 175 0
150 173 0
150 174 0
146 171 0
148 171 0
150 173 0
146 170 0
145 170 0
141 164 0
151 175 0
151 175 0
150 174 0
147 169 0
145 165 0
146 171 0
145 168 0
146 170 0
147 169 0
146 170 0
151 174 0
149 174 0
142 167 0
138 163 0
148 172 0
145 169 0
143 165 0
141 166 0
144 167 0
149 173 0
143 165 0
149 173 0
152 175 0
141 163 0
147 170 0
140 165 0
143 166 0
143 167 0
147 171 0
143 168 0
145 171 0
143 168 0
132 155 0
138 162 0
142 165 0
141 166 0
149 173 0
141 167 0
141 166 0
137 162 0
139 162 0
136 160 0
141 166 0
134 157 0
138 161 0
141 166 0
141 166 0
127 154 0
132 155 0
134 161 0
137 162 0
141 166 0
144 168 0
135 159 0
137 162 0
135 163 0
141 168 0
131 159 0
140 166 0
130 156 0
135 160 0
139 166 0
143 168 0
124 153 0
137 160 0
141 167 0
138 163 0
137 164 0
139 163 0
136 163 0
134 159 0
134 162 0
138 165 0
131 157 0
134 160 0
124 150 0
134 158 0
130 155 0
136 163 0
138 165 0
136 160 0
120 146 0
131 156 0
131 157 0
135 160 0
128 157 0
128 154 0
133 160 0
129 157 0
132 158 0
137 164 0
129 155 0
135 162 0
133 159 0
130 155 0
142 165 0
135 162 0
132 160 0
128 155 0
127 157 0
127 155 0
131 157 0
134 161 0
128 154 0
127 156 0
129 154 0
130 156 0
136 159 0
133 159 0
132 160 0
137 160 0
124 149 0
130 155 0
125 152 0
127 154 0
125 152 0
129 155 0
128 153 0
137 163 0
125 153 0
128 153 0
121 148 0
127 153 0
127 154 0
123 149 0
121 148 0
130 158 0
134 159 0
123 150 0
121 146 0
129 155 0
114 139 0
122 145 0
131 155 0
129 153 0
129 158 0
128 152 0
125 149 0
125 151 0
119 142 0
127 155 0
126 151 0
115 139 0
125 150 0
125 148 0
128 151 0
129 154 0
119 145 0
126 150 0
113 137 0
124 149 0
125 148 0
121 145 0
131 155 0
119 144 0
129 152 0
132 156 0
126 150 0
109 134 0
120 141 0
122 146 0
125 149 0
110 132 0
112 137 0
129 154 0
113 137 0
128 152 0
119 143 0
119 144 0
115 139 0
121 143 0
116 139 0
127 149 0
125 150 0
122 145 0
116 138 0
130 155 0
119 143 0
121 144 0
131 156 0
120 143 0
125 147 0
130 151 0
122 144 0
125 149 0
124 146 0
119 142 0
126 151 0
119 143 0
126 149 0
123 148 0
119 142 0
115 137 0
122 145 0
117 142 0
121 144 0
130 152 0
122 147 0
121 143 0
131 155 0
126 149 0
126 148 0
123 147 0
124 147 0
119 140 0
125 148 0
116 140 0
122 146 0
126 150 0
121 145 0
122 145 0
127 148 0
130 151 0
122 145 0
121 144 0
124 147 0
123 145 0
127 151 0
106 129 0
126 149 0
118 139 0
111 134 0
125 145 0
123 146 0
123 145 0
128 148 0
120 146 0
117 141 0
127 149 0
118 139 0
118 137 0
133 155 0
121 145 0
121 144 0
125 149 0
124 147 0
123 146 0
124 147 0
124 147 0
125 148 0
128 151 0
122 146 0
123 143 0
133 156 0
117 139 0
136 157 0
128 149 0
132 154 0
123 147 0
130 151 0
128 150 0
130 155 0
137 161 0
128 149 0
132 158 0
129 151 0
136 158 0
126 149 0
139 163 0
129 152 0
123 150 0
131 154 0
128 150 0
127 151 0
125 149 0
133 155 0
138 160 0
133 155 0
138 159 0
133 155 0
131 152 0
132 155 0
127 151 0
140 163 0
132 152 0
124 148 0
126 145 0
141 162 0
132 155 0
128 151 0
135 156 0
133 157 0
123 147 0
129 152 0
132 154 0
140 162 0
123 145 0
135 160 0
131 150 0
131 152 0
142 162 0
131 155 0
127 149 0
137 161 0
135 160 0
135 158 0
136 158 0
143 164 0
138 156 0
131 154 0
136 160 0
138 160 0
136 155 0
135 155 0
141 163 0
141 160 0
134 154 0
134 154 0
139 158 0
138 158 0
140 161 0
141 161 0
138 160 0
140 159 0
138 159 0
135 157 0
138 158 0
133 154 0
138 159 0
135 156 0
139 158 0
137 155 0
136 156 0
136 155 0
141 159 0
135 156 0
140 154 0
141 161 0
138 156 0
132 149 0
137 158 0
143 163 0
138 157 0
133 155 0
140 159 0
141 156 0
148 165 0
134 154 0
138 153 0
138 156 0
139 156 0
146 166 0
137 154 0
143 161 0
144 160 0
144 162 0
142 158 0
142 157 0
146 159 0
141 157 0
141 158 0
146 159 0
149 164 0
141 158 0
147 165 0
142 158 0
141 155 0
147 163 0
143 160 0
140 160 0
154 171 0
149 162 0
147 161 0
149 162 0
143 158 0
146 158 0
147 162 0
139 155 0
142 158 0
150 164 0
144 162 0
144 160 0
144 160 0
149 162 0
144 158 0
146 162 0
146 162 0
142 154 0
151 167 0
149 165 0
146 161 0
150 163 0
151 166 0
153 167 0
149 165 0
145 157 0
153 167 0
150 163 0
146 161 0
141 166 0
150 173 0
147 172 0
143 166 0
147 170 0
150 172 0
149 172 0
147 171 0
152 174 0
147 170 0
147 170 0
149 173 0
147 172 0
153 177 0
144 170 0
152 175 0
149 173 0
151 175 0
150 173 0
149 173 0
148 170 0
148 170 0
147 170 0
141 163 0
141 166 0
141 164 0
147 172 0
150 172 0
140 163 0
141 163 0
141 166 0
144 168 0
139 164 0
148 171 0
151 174 0
145 168 0
141 166 0
139 163 0
141 164 0
141 166 0
142 169 0
142 167 0
137 164 0
144 166 0
138 163 0
143 169 0
140 165 0
129 153 0
145 170 0
143 168 0
136 161 0
141 166 0
141 167 0
147 169 0
143 168 0
141 167 0
144 168 0
143 167 0
135 162 0
145 169 0
137 164 0
137 162 0
138 165 0
138 163 0
139 165 0
145 168 0
136 161 0
146 170 0
137 164 0
139 165 0
142 166 0
139 165 0
140 165 0
126 154 0
139 166 0
138 164 0
137 162 0
135 160 0
138 165 0
137 164 0
134 161 0
135 162 0
126 153 0
139 164 0
131 159 0
133 159 0
134 159 0
135 161 0
141 166 0
131 158 0
133 159 0
131 157 0
138 165 0
128 155 0
131 156 0
128 156 0
131 155 0
127 154 0
130 155 0
138 167 0
139 167 0
133 159 0
133 159 0
133 159 0
133 159 0
133 159 0
128 152 0
131 157 0
135 162 0
130 156 0
136 160 0
127 155 0
131 157 0
125 152 0
138 164 0
140 166 0
140 166 0
136 161 0
123 150 0
130 154 0
133 159 0
128 156 0
132 159 0
131 157 0
129 155 0
131 156 0
129 155 0
125 149 0
124 148 0
133 159 0
130 157 0
138 164 0
136 161 0
123 150 0
130 156 0
123 151 0
132 158 0
123 149 0
128 153 0
128 153 0
126 151 0
126 151 0
123 148 0
132 157 0
132 159 0
125 151 0
128 156 0
132 158 0
137 162 0
129 154 0
121 144 0
133 156 0
129 154 0
125 148 0
127 152 0
126 151 0
121 148 0
118 141 0
129 156 0
119 144 0
116 140 0
133 156 0
122 147 0
119 141 0
118 141 0
124 148 0
121 143 0
120 144 0
121 143 0
129 150 0
119 143 0
135 159 0
128 154 0
122 147 0
124 147 0
118 142 0
123 144 0
124 147 0
120 143 0
126 150 0
120 144 0
117 141 0
112 139 0
122 143 0
122 146 0
107 132 0
116 140 0
117 140 0
130 155 0
115 137 0
121 144 0
116 142 0
128 152 0
118 143 0
125 148 0
122 145 0
126 150 0
116 138 0
120 143 0
124 146 0
115 137 0
132 156 0
120 144 0
121 142 0
125 147 0
132 156 0
123 145 0
122 143 0
128 153 0
115 138 0
124 146 0
124 147 0
121 145 0
131 155 0
121 143 0
124 147 0
128 152 0
125 148 0
120 144 0
123 145 0
121 142 0
128 151 0
127 149 0
128 152 0
126 148 0
115 136 0
121 145 0
125 150 0
116 140 0
129 153 0
113 135 0
125 149 0
119 143 0
124 146 0
124 146 0
125 146 0
124 147 0
124 148 0
135 157 0
125 149 0
125 148 0
135 161 0
127 152 0
121 142 0
125 149 0
127 149 0
131 154 0
124 144 0
121 144 0
118 142 0
125 146 0
134 154 0
132 157 0
133 158 0
129 155 0
124 147 0
129 151 0
131 152 0
131 153 0
134 158 0
136 160 0
130 151 0
131 152 0
117 146 0
116 136 0
130 154 0
125 145 0
126 150 0
130 155 0
124 144 0
132 155 0
127 152 0
129 152 0
130 153 0
126 150 0
129 153 0
129 153 0
124 147 0
142 164 0
130 154 0
135 157 0
125 153 0
131 152 0
135 160 0
141 164 0
131 154 0
128 154 0
131 155 0
134 157 0
139 159 0
137 159 0
132 156 0
132 157 0
137 157 0
137 160 0
128 152 0
132 153 0
134 158 0
132 157 0
125 149 0
138 159 0
140 159 0
136 158 0
140 162 0
131 155 0
135 157 0
131 152 0
133 157 0
134 156 0
137 159 0
134 155 0
133 153 0
131 152 0
135 155 0
132 151 0
138 157 0
128 153 0
138 156 0
137 157 0
136 156 0
142 166 0
138 163 0
145 164 0
131 150 0
142 164 0
143 160 0
131 148 0
143 162 0
139 162 0
138 160 0
137 156 0
137 156 0
139 155 0
143 164 0
139 156 0
142 161 0
145 166 0
146 163 0
137 155 0
143 161 0
145 160 0
140 158 0
138 154 0
142 161 0
138 157 0
139 158 0
142 160 0
137 154 0
139 156 0
136 155 0
141 159 0
143 157 0
147 164 0
145 158 0
134 149 0
141 160 0
141 160 0
136 152 0
137 154 0
146 164 0
147 166 0
141 157 0
142 158 0
149 166 0
145 162 0
142 161 0
142 162 0
145 162 0
145 159 0
141 159 0
146 159 0
152 166 0
141 158 0
146 162 0
141 156 0
145 162 0
147 161 0
145 161 0
139 157 0
150 165 0
149 161 0
144 158 0
153 169 0
150 166 0
149 160 0
144 159 0
151 169 0
149 163 0
145 159 0
143 158 0
148 163 0
149 163 0
150 163 0
150 164 0
145 162 0
148 164 0
151 167 0
155 173 0
152 167 0
150 165 0
147 171 0
145 172 0
152 176 0
149 175 0
145 169 0
149 173 0
147 169 0
144 170 0
146 172 0
149 175 0
152 176 0
153 177 0
140 164 0
147 170 0
145 170 0
144 168 0
147 171 0
145 170 0
140 165 0
149 173 0
146 172 0
147 170 0
146 170 0
147 169 0
144 169 0
141 167 0
144 169 0
145 168 0
147 172 0
142 164 0
138 163 0
145 169 0
142 167 0
148 174 0
145 170 0
147 171 0
143 166 0
142 168 0
137 162 0
146 172 0
149 172 0
141 167 0
132 159 0
142 165 0
142 167 0
143 169 0
141 164 0
138 162 0
147 171 0
145 170 0
140 166 0
138 163 0
140 166 0
136 161 0
134 159 0
142 168 0
137 161 0
146 169 0
138 163 0
139 165 0
140 164 0
134 159 0
139 165 0
137 162 0
136 161 0
135 162 0
140 164 0
140 165 0
144 169 0
132 158 0
144 170 0
140 167 0
140 166 0
131 155 0
136 163 0
142 166 0
136 161 0
126 154 0
142 168 0
137 163 0
135 162 0
126 153 0
133 159 0
135 159 0
140 168 0
139 164 0
135 160 0
140 165 0
136 163 0
135 162 0
132 159 0
129 157 0
137 164 0
140 164 0
135 162 0
136 163 0
133 160 0
140 168 0
132 158 0
133 161 0
129 155 0
132 159 0
121 147 0
138 162 0
131 159 0
126 150 0
129 155 0
122 145 0
143 170 0
117 143 0
135 160 0
132 160 0
126 153 0
136 162 0
127 153 0
130 155 0
131 155 0
130 156 0
128 156 0
132 156 0
131 156 0
136 161 0
125 151 0
125 150 0
136 162 0
133 158 0
131 159 0
132 157 0
127 153 0
130 154 0
133 161 0
131 157 0
128 152 0
120 148 0
126 152 0
138 165 0
125 149 0
121 151 0
134 159 0
124 151 0
138 162 0
122 149 0
121 147 0
131 159 0
130 158 0
128 154 0
128 154 0
132 159 0
123 148 0
135 164 0
131 154 0
124 151 0
117 145 0
133 159 0
126 149 0
115 142 0
128 153 0
121 146 0
126 152 0
119 144 0
124 149 0
128 153 0
124 148 0
128 152 0
127 151 0
114 138 0
132 156 0
127 151 0
116 139 0
125 147 0
121 144 0
129 155 0
113 137 0
124 147 0
135 161 0
120 146 0
121 144 0
122 144 0
128 151 0
122 144 0
133 156 0
132 158 0
125 150 0
125 149 0
117 138 0
118 140 0
127 150 0
127 151 0
125 149 0
115 137 0
118 142 0
129 152 0
130 154 0
124 149 0
133 157 0
117 143 0
124 149 0
122 146 0
126 153 0
115 138 0
128 151 0
125 146 0
128 154 0
118 144 0
119 142 0
116 141 0
114 138 0
129 152 0
114 137 0
128 152 0
126 151 0
117 142 0
130 154 0
128 149 0
118 141 0
121 144 0
118 142 0
116 141 0
124 147 0
129 156 0
132 157 0
126 152 0
115 136 0
117 141 0
132 155 0
124 147 0
120 141 0
117 140 0
120 142 0
128 153 0
127 149 0
118 141 0
122 145 0
118 139 0
119 139 0
124 149 0
124 146 0
126 151 0
124 147 0
122 145 0
116 140 0
124 147 0
127 151 0
131 154 0
127 151 0
126 148 0
133 161 0
131 155 0
125 149 0
137 159 0
131 153 0
133 155 0
128 152 0
135 156 0
131 157 0
134 157 0
123 147 0
133 157 0
126 150 0
132 157 0
126 151 0
119 143 0
134 158 0
125 147 0
130 155 0
128 151 0
122 145 0
133 157 0
133 158 0
125 151 0
133 158 0
133 155 0
130 152 0
135 155 0
132 156 0
130 153 0
128 151 0
130 154 0
131 153 0
138 161 0
129 152 0
138 164 0
131 155 0
135 159 0
130 155 0
134 157 0
133 155 0
131 153 0
136 158 0
136 160 0
138 158 0
133 155 0
130 152 0
135 159 0
123 148 0
137 159 0
134 155 0
127 150 0
142 164 0
132 155 0
136 159 0
136 158 0
135 157 0
140 163 0
133 157 0
135 159 0
126 148 0
136 158 0
132 152 0
139 161 0
134 154 0
130 152 0
139 160 0
130 152 0
126 148 0
136 158 0
136 158 0
137 160 0
133 157 0
135 159 0
138 160 0
134 156 0
132 152 0
133 158 0
144 168 0
138 160 0
140 160 0
121 140 0
136 157 0
142 161 0
135 155 0
138 158 0
134 152 0
140 162 0
144 165 0
147 168 0
138 155 0
138 157 0
136 154 0
141 160 0
136 156 0
140 159 0
142 161 0
142 160 0
141 162 0
133 152 0
137 156 0
139 158 0
138 154 0
141 156 0
147 168 0
140 160 0
142 163 0
142 159 0
140 159 0
145 167 0
145 160 0
144 160 0
144 160 0
147 163 0
143 159 0
137 159 0
140 162 0
142 157 0
144 160 0
141 156 0
142 163 0
143 159 0
144 160 0
150 167 0
145 165 0
140 155 0
147 161 0
142 160 0
141 157 0
144 156 0
147 164 0
150 167 0
142 159 0
149 167 0
147 162 0
147 164 0
143 157 0
150 165 0
148 163 0
146 159 0
147 164 0
144 158 0
143 156 0
145 162 0
143 158 0
142 157 0
146 160 0
149 163 0
149 161 0
149 163 0
145 163 0
150 165 0
150 165 0
153 172 0
147 170 0
149 173 0
147 170 0
149 173 0
150 173 0
151 175 0
153 177 0
150 172 0
149 174 0
146 172 0
145 170 0
145 170 0
142 168 0
145 169 0
142 166 0
148 172 0
152 175 0
140 165 0
148 172 0
141 166 0
150 175 0
147 171 0
140 167 0
140 165 0
140 166 0
136 160 0
148 173 0
144 168 0
141 166 0
145 167 0
144 168 0
149 172 0
144 168 0
142 168 0
141 165 0
141 168 0
141 164 0
140 167 0
136 160 0
145 172 0
141 166 0
141 165 0
136 161 0
135 160 0
141 165 0
139 165 0
135 159 0
138 165 0
133 161 0
141 166 0
143 170 0
139 165 0
136 163 0
145 171 0
148 173 0
135 160 0
144 169 0
139 165 0
133 159 0
141 166 0
137 162 0
139 166 0
134 161 0
136 161 0
148 174 0
123 150 0
130 155 0
135 160 0
144 168 0
137 162 0
139 163 0
129 156 0
140 165 0
141 166 0
136 166 0
135 161 0
144 169 0
140 168 0
133 160 0
132 158 0
133 160 0
137 164 0
135 162 0
130 156 0
134 160 0
135 163 0
132 159 0
129 153 0
139 164 0
134 161 0
139 166 0
133 160 0
137 164 0
126 153 0
135 163 0
128 155 0
137 165 0
134 160 0
129 155 0
132 159 0
129 156 0
135 162 0
129 153 0
133 161 0
133 160 0
136 163 0
130 156 0
132 158 0
129 156 0
135 160 0
131 158 0
135 160 0
125 153 0
134 160 0
131 160 0
132 160 0
131 156 0
130 156 0
127 153 0
126 154 0
127 153 0
133 162 0
132 160 0
132 159 0
133 160 0
130 155 0
143 170 0
134 160 0
124 151 0
135 159 0
122 149 0
128 157 0
125 151 0
127 152 0
127 155 0
133 158 0
129 156 0
127 155 0
129 156 0
134 156 0
141 166 0
121 148 0
120 147 0
130 155 0
131 159 0
121 145 0
129 153 0
124 150 0
125 150 0
134 158 0
125 149 0
129 153 0
126 151 0
120 144 0
128 153 0
126 153 0
125 150 0
120 145 0
123 147 0
122 146 0
125 148 0
124 150 0
126 151 0
119 142 0
120 145 0
116 141 0
121 144 0
127 151 0
121 144 0
128 153 0
120 145 0
132 156 0
126 150 0
121 148 0
116 140 0
121 145 0
115 142 0
120 146 0
126 149 0
142 166 0
125 150 0
115 138 0
123 145 0
120 144 0
128 154 0
132 157 0
127 155 0
123 147 0
128 153 0
121 143 0
106 133 0
126 148 0
134 158 0
119 142 0
121 145 0
126 152 0
119 141 0
123 148 0
124 148 0
118 141 0
118 141 0
121 146 0
123 146 0
127 150 0
111 133 0
120 143 0
123 145 0
116 139 0
124 148 0
129 152 0
118 141 0
118 141 0
127 151 0
139 161 0
124 147 0
125 148 0
130 151 0
128 153 0
125 149 0
120 144 0
119 143 0
125 149 0
126 148 0
122 144 0
127 151 0
120 143 0
118 140 0
129 151 0
130 155 0
121 145 0
122 143 0
134 157 0
122 147 0
131 154 0
132 156 0
131 154 0
130 153 0
131 153 0
119 145 0
122 144 0
129 153 0
129 149 0
127 150 0
122 146 0
119 144 0
129 151 0
129 153 0
125 148 0
126 150 0
128 153 0
131 154 0
133 156 0
138 160 0
132 155 0
127 151 0
125 149 0
132 158 0
127 151 0
127 152 0
133 158 0
126 151 0
123 144 0
114 137 0
127 153 0
127 153 0
120 142 0
119 145 0
108 133 0
131 155 0
132 157 0
122 146 0
130 151 0
128 153 0
125 149 0
133 155 0
124 148 0
128 151 0
137 164 0
138 160 0
134 158 0
133 159 0
137 157 0
125 147 0
135 157 0
135 159 0
129 154 0
121 148 0
135 151 0
124 150 0
132 157 0
132 152 0
136 159 0
133 156 0
138 160 0
133 157 0
136 157 0
134 158 0
139 159 0
137 160 0
135 158 0
138 162 0
137 159 0
132 154 0
131 156 0
137 160 0
132 155 0
131 157 0
135 160 0
133 153 0
126 149 0
133 152 0
140 160 0
126 147 0
142 163 0
134 152 0
131 152 0
141 163 0
132 155 0
145 165 0
138 159 0
137 160 0
141 161 0
137 160 0
134 153 0
138 157 0
135 156 0
138 159 0
143 164 0
125 147 0
138 158 0
137 160 0
139 158 0
142 165 0
140 162 0
132 151 0
140 156 0
142 162 0
144 163 0
144 162 0
140 158 0
142 160 0
141 162 0
135 153 0
140 159 0
143 161 0
137 152 0
135 152 0
146 166 0
143 161 0
136 153 0
143 160 0
136 157 0
137 157 0
138 155 0
142 159 0
143 160 0
144 164 0
145 167 0
146 165 0
145 161 0
140 157 0
145 162 0
145 161 0
142 161 0
147 161 0
138 151 0
142 161 0
138 156 0
141 160 0
145 162 0
149 168 0
151 169 0
146 160 0
150 167 0
144 163 0
148 164 0
144 161 0
146 163 0
152 171 0
150 164 0
150 165 0
147 163 0
149 164 0
143 159 0
153 171 0
151 166 0
148 165 0
147 158 0
143 156 0
150 166 0
143 154 0
153 170 0
146 161 0
148 164 0
150 162 0
146 163 0
152 167 0
151 168 0
148 161 0
145 159 0
149 174 0
147 172 0
143 167 0
144 168 0
148 173 0
147 171 0
146 170 0
149 170 0
151 177 0
145 170 0
143 167 0
151 175 0
149 174 0
148 174 0
148 170 0
141 163 0
144 168 0
141 167 0
145 172 0
149 174 0
146 170 0
145 168 0
149 174 0
149 172 0
148 172 0
147 173 0
148 172 0
147 174 0
146 168 0
142 167 0
142 169 0
140 166 0
145 169 0
139 165 0
140 165 0
141 166 0
143 168 0
147 170 0
137 163 0
143 167 0
138 162 0
137 162 0
148 170 0
143 169 0
140 165 0
138 167 0
135 161 0
144 168 0
140 164 0
132 158 0
139 163 0
142 166 0
130 154 0
146 170 0
143 169 0
144 168 0
141 166 0
144 169 0
138 163 0
142 168 0
142 165 0
137 161 0
141 168 0
138 164 0
141 164 0
137 164 0
131 157 0
130 157 0
143 170 0
139 165 0
140 166 0
135 160 0
130 156 0
137 163 0
143 169 0
130 157 0
141 168 0
127 153 0
141 167 0
138 165 0
137 164 0
135 161 0
140 164 0
137 165 0
135 163 0
130 157 0
128 153 0
133 160 0
139 167 0
134 163 0
143 169 0
134 161 0
128 152 0
129 155 0
139 166 0
128 155 0
129 156 0
143 169 0
131 157 0
140 167 0
125 152 0
134 161 0
124 153 0
137 165 0
131 158 0
127 155 0
132 160 0
138 165 0
143 169 0
132 157 0
140 165 0
134 163 0
134 162 0
126 154 0
127 152 0
123 150 0
132 159 0
128 155 0
131 159 0
127 151 0
134 160 0
123 150 0
131 159 0
128 155 0
125 154 0
133 162 0
134 160 0
128 156 0
137 162 0
126 153 0
122 148 0
136 161 0
133 159 0
136 161 0
126 151 0
134 157 0
133 162 0
132 157 0
123 148 0
128 154 0
133 161 0
132 156 0
126 152 0
127 153 0
122 146 0
137 159 0
131 159 0
135 162 0
140 166 0
120 146 0
110 135 0
131 156 0
127 152 0
129 156 0
120 145 0
127 150 0
122 150 0
133 158 0
127 151 0
124 150 0
121 147 0
132 155 0
129 152 0
118 144 0
119 141 0
117 144 0
128 152 0
114 141 0
127 150 0
117 142 0
120 144 0
122 147 0
126 152 0
118 143 0
131 152 0
122 147 0
125 148 0
124 149 0
121 145 0
132 156 0
135 158 0
127 153 0
122 146 0
129 152 0
118 142 0
123 147 0
130 155 0
125 148 0
123 148 0
115 138 0
120 142 0
121 145 0
134 157 0
123 147 0
124 150 0
122 146 0
125 150 0
124 145 0
128 150 0
122 145 0
118 144 0
118 141 0
127 153 0
129 154 0
129 155 0
132 155 0
117 142 0
127 150 0
136 159 0
126 149 0
130 154 0
117 141 0
125 151 0
131 158 0
132 157 0
135 157 0
123 148 0
129 151 0
118 139 0
124 144 0
122 143 0
135 158 0
132 155 0
133 157 0
127 153 0
128 151 0
123 145 0
128 150 0
132 155 0
126 148 0
120 141 0
116 140 0
129 149 0
126 148 0
114 139 0
128 152 0
129 151 0
123 146 0
125 150 0
127 149 0
130 154 0
124 148 0
121 144 0
124 147 0
122 144 0
121 147 0
130 153 0
121 145 0
123 146 0
129 152 0
128 153 0
127 152 0
134 157 0
127 151 0
137 159 0
127 153 0
124 145 0
132 158 0
127 148 0
132 156 0
136 156 0
131 155 0
126 149 0
123 148 0
127 154 0
126 148 0
133 154 0
124 149 0
129 151 0
126 150 0
125 150 0
133 157 0
127 149 0
141 163 0
126 148 0
129 151 0
132 152 0
131 154 0
126 154 0
134 158 0
127 150 0
129 154 0
128 150 0
134 155 0
136 162 0
130 154 0
145 166 0
132 157 0
137 160 0
132 154 0
132 154 0
130 153 0
134 159 0
133 157 0
137 159 0
134 155 0
133 159 0
133 157 0
141 165 0
133 158 0
134 157 0
137 157 0
138 160 0
130 156 0
137 162 0
131 155 0
142 164 0
134 158 0
133 155 0
131 155 0
135 155 0
136 158 0
136 160 0
146 168 0
130 153 0
146 166 0
136 154 0
136 157 0
136 159 0
128 148 0
139 157 0
130 149 0
138 162 0
145 166 0
141 161 0
137 157 0
142 163 0
134 156 0
147 170 0
135 159 0
144 162 0
135 156 0
130 152 0
129 149 0
137 161 0
133 151 0
135 155 0
143 163 0
131 151 0
137 154 0
131 149 0
144 163 0
141 160 0
138 155 0
144 163 0
136 151 0
135 153 0
139 155 0
140 159 0
138 159 0
141 161 0
138 158 0
140 160 0
135 154 0
140 158 0
144 164 0
137 154 0
135 153 0
136 152 0
138 156 0
144 160 0
140 155 0
142 159 0
149 166 0
140 157 0
144 162 0
147 162 0
149 169 0
141 159 0
150 167 0
141 160 0
144 162 0
138 154 0
139 157 0
146 165 0
148 165 0
145 161 0
148 164 0
142 161 0
146 164 0
143 157 0
141 161 0
146 163 0
146 164 0
149 165 0
148 163 0
153 169 0
151 166 0
149 166 0
150 166 0
143 158 0
151 169 0
151 167 0
151 166 0
147 163 0
152 168 0
152 167 0
152 166 0
151 170 0
148 166 0
148 173 0
144 167 0
147 172 0
148 173 0
147 171 0
141 167 0
142 170 0
151 175 0
151 174 0
147 169 0
145 173 0
145 170 0
147 172 0
146 170 0
151 176 0
137 163 0
146 172 0
150 172 0
153 177 0
138 164 0
147 171 0
142 167 0
149 175 0
144 170 0
137 163 0
147 172 0
139 166 0
145 170 0
145 172 0
143 169 0
149 174 0
133 160 0
147 170 0
149 174 0
147 171 0
141 168 0
143 166 0
135 159 0
134 161 0
144 167 0
141 165 0
138 164 0
134 160 0
139 163 0
144 168 0
141 167 0
131 158 0
142 168 0
142 167 0
134 160 0
145 170 0
145 170 0
141 167 0
131 156 0
133 159 0
137 161 0
137 163 0
139 164 0
139 162 0
141 164 0
145 169 0
138 164 0
137 163 0
140 165 0
136 163 0
142 167 0
137 162 0
144 172 0
145 170 0
140 168 0
144 170 0
139 163 0
134 160 0
146 170 0
137 163 0
138 163 0
138 163 0
134 163 0
136 162 0
131 158 0
132 159 0
130 156 0
137 163 0
139 166 0
138 166 0
137 161 0
142 167 0
127 157 0
140 166 0
128 155 0
130 158 0
138 164 0
133 159 0
139 164 0
132 161 0
140 167 0
137 164 0
135 162 0
128 155 0
140 168 0
136 161 0
132 160 0
130 159 0
128 156 0
129 156 0
131 158 0
136 162 0
136 162 0
138 165 0
133 160 0
123 150 0
134 160 0
136 162 0
139 166 0
133 161 0
134 159 0
126 153 0
125 151 0
130 158 0
125 152 0
137 163 0
133 157 0
131 155 0
131 159 0
129 157 0
138 164 0
136 160 0
136 164 0
136 163 0
129 156 0
119 147 0
125 150 0
122 149 0
130 156 0
135 161 0
132 158 0
124 150 0
125 152 0
124 148 0
129 153 0
128 152 0
125 151 0
131 156 0
125 153 0
133 161 0
124 151 0
127 151 0
132 158 0
131 156 0
120 145 0
130 156 0
121 149 0
122 148 0
125 152 0
133 158 0
129 153 0
125 149 0
124 151 0
124 149 0
126 153 0
125 151 0
130 155 0
129 153 0
125 147 0
119 145 0
136 159 0
130 157 0
137 163 0
123 148 0
123 147 0
127 150 0
119 147 0
117 143 0
123 150 0
124 150 0
123 147 0
122 148 0
121 142 0
123 147 0
125 148 0
118 144 0
122 146 0
120 144 0
128 151 0
124 149 0
123 144 0
132 157 0
124 147 0
120 145 0
130 154 0
123 147 0
122 144 0
119 144 0
128 151 0
124 144 0
122 147 0
118 143 0
125 149 0
123 145 0
129 152 0
112 134 0
115 140 0
126 152 0
122 144 0
120 143 0
118 143 0
126 148 0
125 149 0
130 154 0
127 151 0
121 146 0
118 141 0
125 150 0
120 143 0
128 155 0
132 156 0
112 136 0
123 147 0
125 151 0
124 147 0
125 149 0
126 149 0
119 142 0
120 145 0
126 150 0
115 139 0
127 149 0
133 157 0
130 152 0
129 152 0
124 150 0
117 139 0
116 138 0
125 147 0
130 151 0
125 147 0
133 158 0
121 147 0
119 141 0
134 157 0
121 146 0
125 148 0
126 149 0
126 152 0
130 153 0
120 145 0
124 147 0
126 150 0
134 155 0
122 143 0
129 152 0
138 163 0
123 147 0
131 156 0
128 152 0
134 158 0
125 150 0
134 158 0
125 149 0
122 146 0
119 142 0
129 152 0
129 149 0
128 153 0
123 148 0
118 143 0
129 155 0
123 144 0
125 150 0
134 158 0
130 155 0
126 151 0
128 151 0
138 160 0
134 157 0
125 148 0
124 150 0
130 152 0
123 147 0
130 153 0
134 159 0
129 153 0
135 160 0
133 158 0
133 154 0
136 157 0
140 163 0
136 160 0
122 147 0
134 158 0
133 160 0
132 156 0
140 161 0
131 153 0
132 156 0
133 157 0
133 155 0
139 165 0
133 155 0
129 149 0
132 154 0
133 158 0
144 166 0
125 147 0
135 156 0
137 161 0
132 155 0
139 163 0
125 151 0
137 160 0
137 158 0
131 151 0
130 153 0
133 153 0
139 159 0
133 155 0
142 165 0
140 162 0
143 165 0
138 159 0
142 166 0
142 163 0
134 155 0
133 154 0
137 155 0
140 162 0
145 165 0
137 157 0
139 163 0
136 157 0
145 169 0
128 150 0
141 163 0
145 165 0
139 160 0
131 151 0
143 165 0
146 167 0
138 157 0
140 162 0
131 151 0
134 155 0
142 164 0
132 151 0
135 158 0
140 159 0
142 161 0
141 160 0
133 152 0
134 152 0
136 157 0
141 160 0
137 153 0
139 158 0
144 164 0
150 166 0
143 160 0
146 163 0
147 166 0
137 155 0
147 165 0
146 164 0
147 167 0
143 160 0
138 153 0
146 166 0
138 156 0
138 156 0
146 163 0
145 161 0
141 159 0
146 161 0
144 160 0
144 162 0
145 164 0
149 166 0
146 163 0
145 165 0
147 162 0
140 157 0
150 166 0
144 163 0
144 160 0
145 161 0
146 162 0
151 169 0
146 165 0
150 164 0
143 161 0
151 166 0
151 168 0
151 169 0
149 169 0
145 165 0
149 163 0
146 159 0
146 161 0
152 170 0
152 169 0
145 161 0
144 169 0
150 173 0
145 169 0
148 172 0
145 170 0
144 170 0
146 169 0
148 174 0
149 173 0
148 174 0
148 173 0
149 174 0
147 171 0
145 170 0
145 170 0
153 177 0
144 168 0
146 170 0
149 173 0
148 171 0
143 168 0
142 168 0
146 172 0
145 170 0
139 163 0
144 169 0
144 168 0
141 167 0
140 165 0
148 174 0
144 169 0
142 167 0
145 169 0
146 169 0
140 165 0
141 165 0
141 167 0
139 165 0
142 168 0
144 167 0
144 167 0
138 166 0
147 171 0
135 162 0
146 171 0
140 167 0
143 171 0
146 173 0
147 171 0
140 168 0
138 163 0
141 166 0
137 164 0
141 167 0
141 164 0
143 167 0
140 168 0
136 161 0
132 157 0
141 166 0
139 165 0
144 170 0
139 164 0
135 160 0
139 164 0
141 166 0
141 167 0
136 163 0
143 169 0
136 163 0
133 159 0
139 163 0
142 166 0
137 164 0
137 162 0
136 161 0
142 168 0
134 163 0
148 173 0
139 166 0
131 158 0
145 169 0
136 159 0
138 166 0
136 161 0
138 164 0
128 154 0
127 154 0
130 156 0
140 165 0
138 165 0
124 150 0
132 159 0
131 160 0
132 159 0
131 158 0
127 153 0
139 165 0
133 159 0
128 156 0
130 157 0
135 161 0
138 165 0
139 165 0
130 156 0
128 156 0
140 165 0
137 166 0
143 167 0
135 161 0
125 152 0
128 157 0
133 158 0
130 156 0
130 157 0
138 165 0
129 156 0
132 158 0
142 170 0
126 153 0
133 158 0
134 160 0
138 164 0
127 154 0
134 161 0
135 162 0
133 161 0
134 159 0
119 144 0
129 154 0
130 157 0
132 157 0
133 161 0
128 155 0
125 153 0
126 152 0
128 155 0
115 140 0
122 151 0
125 153 0
128 152 0
122 147 0
133 159 0
126 153 0
125 151 0
121 145 0
123 146 0
130 157 0
123 151 0
138 163 0
127 153 0
131 155 0
124 151 0
122 150 0
124 150 0
127 152 0
129 155 0
125 149 0
134 160 0
127 153 0
124 150 0
122 148 0
133 158 0
123 147 0
128 152 0
129 154 0
123 148 0
126 150 0
123 147 0
126 151 0
122 149 0
111 136 0
128 153 0
120 144 0
126 149 0
126 148 0
134 158 0
123 148 0
133 159 0
115 141 0
126 150 0
121 148 0
118 144 0
118 146 0
124 148 0
134 157 0
120 145 0
131 156 0
133 157 0
128 151 0
124 147 0
129 152 0
128 151 0
131 153 0
133 160 0
123 146 0
126 146 0
124 145 0
122 145 0
119 141 0
128 153 0
119 142 0
124 148 0
134 157 0
125 148 0
136 161 0
130 154 0
130 154 0
121 143 0
115 139 0
124 148 0
111 133 0
132 157 0
125 150 0
120 142 0
124 149 0
116 138 0
131 155 0
113 137 0
125 147 0
125 152 0
126 150 0
134 159 0
125 149 0
122 145 0
132 156 0
119 143 0
132 156 0
122 148 0
127 152 0
130 153 0
127 153 0
131 154 0
129 149 0
126 150 0
130 154 0
120 143 0
129 155 0
125 149 0
127 148 0
115 138 0
134 156 0
129 154 0
131 156 0
122 147 0
124 147 0
135 158 0
123 146 0
136 161 0
123 150 0
118 144 0
136 163 0
121 146 0
135 159 0
134 157 0
124 150 0
130 155 0
130 152 0
120 145 0
130 153 0
121 146 0
127 151 0
117 140 0
123 147 0
133 159 0
130 155 0
123 147 0
130 153 0
133 159 0
133 158 0
130 153 0
129 153 0
128 153 0
133 155 0
130 153 0
122 147 0
132 156 0
138 163 0
132 157 0
125 150 0
129 152 0
133 157 0
140 163 0
125 150 0
126 152 0
133 156 0
133 159 0
134 157 0
133 157 0
132 157 0
124 146 0
140 164 0
132 156 0
139 165 0
127 154 0
130 154 0
136 159 0
126 150 0
131 154 0
131 154 0
126 148 0
140 162 0
137 160 0
133 157 0
136 158 0
140 160 0
137 159 0
139 158 0
131 155 0
143 164 0
137 159 0
137 160 0
141 166 0
140 161 0
135 159 0
134 158 0
138 161 0
134 152 0
127 149 0
141 163 0
138 164 0
127 154 0
135 158 0
129 153 0
132 153 0
136 154 0
141 162 0
141 164 0
136 161 0
132 155 0
138 160 0
141 166 0
139 162 0
144 166 0
135 153 0
143 165 0
148 169 0
144 166 0
134 153 0
133 154 0
137 156 0
137 159 0
137 155 0
137 156 0
138 161 0
139 160 0
144 163 0
140 156 0
139 156 0
138 160 0
146 165 0
137 156 0
146 166 0
146 163 0
147 166 0
138 157 0
136 157 0
153 170 0
142 163 0
142 162 0
154 172 0
149 167 0
146 161 0
142 161 0
147 163 0
150 168 0
140 158 0
138 155 0
143 158 0
142 161 0
142 163 0
146 165 0
145 165 0
143 162 0
141 160 0
139 156 0
142 162 0
151 167 0
147 164 0
154 172 0
136 153 0
146 164 0
136 153 0
141 155 0
142 158 0
149 166 0
146 163 0
150 168 0
147 163 0
146 162 0
148 162 0
146 161 0
142 160 0
147 160 0
141 159 0
144 162 0
151 168 0
148 165 0
151 166 0
158 177 0
155 180 0
150 175 0
142 167 0
141 165 0
148 173 0
140 163 0
146 171 0
147 171 0
151 176 0
146 169 0
138 163 0
146 169 0
148 171 0
142 168 0
147 172 0
145 171 0
145 169 0
146 172 0
148 174 0
148 173 0
147 174 0
143 170 0
143 167 0
139 165 0
142 168 0
141 167 0
137 163 0
145 170 0
143 170 0
136 161 0
145 171 0
143 168 0
143 168 0
139 164 0
140 166 0
152 177 0
141 169 0
138 164 0
145 169 0
144 170 0
140 164 0
138 162 0
144 171 0
138 164 0
137 164 0
135 160 0
143 170 0
144 169 0
142 166 0
142 167 0
135 160 0
135 163 0
140 165 0
139 168 0
143 169 0
144 172 0
136 161 0
132 159 0
142 167 0
143 166 0
141 167 0
149 174 0
141 165 0
137 161 0
135 161 0
132 157 0
131 160 0
133 159 0
143 170 0
138 165 0
131 157 0
144 169 0
132 160 0
137 164 0
138 165 0
134 160 0
136 164 0
137 163 0
143 170 0
137 161 0
133 158 0
137 168 0
142 166 0
133 158 0
138 167 0
138 164 0
129 157 0
128 157 0
136 162 0
138 163 0
135 163 0
133 161 0
142 169 0
133 159 0
130 158 0
135 162 0
143 168 0
137 164 0
139 164 0
133 160 0
123 150 0
136 163 0
125 156 0
138 165 0
131 158 0
141 165 0
137 166 0
134 159 0
126 153 0
126 152 0
136 161 0
128 152 0
132 161 0
136 163 0
122 147 0
127 153 0
139 163 0
138 165 0
131 157 0
135 162 0
133 159 0
129 157 0
135 161 0
137 164 0
129 157 0
128 155 0
136 161 0
130 158 0
124 149 0
131 158 0
134 160 0
121 147 0
132 158 0
130 156 0
132 159 0
130 156 0
130 155 0
124 153 0
124 150 0
124 151 0
126 151 0
131 155 0
126 154 0
127 151 0
128 154 0
131 158 0
137 161 0
129 156 0
128 154 0
125 150 0
130 158 0
125 149 0
123 149 0
121 146 0
133 159 0
119 146 0
127 152 0
119 145 0
127 153 0
114 139 0
128 153 0
134 157 0
130 156 0
137 161 0
129 155 0
134 158 0
125 151 0
126 150 0
124 149 0
135 159 0
122 149 0
137 161 0
132 155 0
123 147 0
127 153 0
122 147 0
133 158 0
129 151 0
121 146 0
124 147 0
132 155 0
124 146 0
122 146 0
128 152 0
129 153 0
125 149 0
126 150 0
119 144 0
131 154 0
126 152 0
126 150 0
120 145 0
131 154 0
126 149 0
130 155 0
121 146 0
121 144 0
120 145 0
129 152 0
115 140 0
119 146 0
123 147 0
130 155 0
125 149 0
128 153 0
125 150 0
117 141 0
118 145 0
132 155 0
128 153 0
128 153 0
123 144 0
122 146 0
129 153 0
126 151 0
123 148 0
118 143 0
126 148 0
125 149 0
123 147 0
124 149 0
131 152 0
121 144 0
127 150 0
127 152 0
115 139 0
123 147 0
131 153 0
132 157 0
114 139 0
129 154 0
123 147 0
127 151 0
130 150 0
126 151 0
133 156 0
123 149 0
125 146 0
129 154 0
125 149 0
120 145 0
127 152 0
125 151 0
136 161 0
129 151 0
119 143 0
129 153 0
116 139 0
132 155 0
127 151 0
127 151 0
126 150 0
123 146 0
125 146 0
128 151 0
135 160 0
132 159 0
136 160 0
126 151 0
128 154 0
129 152 0
136 160 0
130 153 0
123 146 0
117 142 0
137 162 0
126 151 0
136 162 0
122 148 0
130 155 0
128 150 0
137 161 0
131 154 0
130 156 0
121 148 0
133 155 0
134 159 0
133 155 0
139 161 0
133 155 0
137 158 0
125 149 0
128 151 0
144 165 0
134 156 0
129 154 0
129 154 0
128 154 0
127 151 0
130 155 0
133 157 0
132 153 0
137 163 0
135 161 0
128 153 0
140 162 0
130 154 0
134 156 0
130 153 0
137 159 0
135 161 0
133 157 0
132 157 0
129 152 0
137 158 0
139 159 0
136 159 0
138 161 0
137 163 0
131 155 0
138 162 0
133 159 0
140 164 0
134 155 0
136 159 0
136 157 0
138 162 0
136 160 0
138 159 0
134 158 0
134 156 0
132 155 0
137 158 0
141 163 0
142 166 0
139 163 0
137 160 0
141 163 0
143 166 0
140 163 0
132 156 0
138 159 0
140 161 0
138 159 0
137 156 0
137 161 0
136 157 0
136 157 0
138 157 0
138 158 0
134 155 0
139 159 0
133 150 0
142 163 0
136 156 0
141 158 0
141 163 0
134 152 0
140 160 0
142 163 0
138 161 0
143 161 0
143 162 0
144 161 0
143 161 0
143 164 0
144 163 0
141 164 0
149 166 0
145 164 0
146 164 0
142 160 0
138 156 0
147 165 0
137 159 0
142 160 0
137 153 0
139 158 0
144 160 0
140 161 0
142 160 0
146 163 0
142 162 0
139 158 0
146 165 0
141 159 0
143 163 0
145 162 0
141 160 0
138 155 0
142 160 0
146 164 0
150 168 0
141 159 0
139 155 0
145 163 0
139 155 0
147 164 0
149 166 0
148 164 0
151 170 0
147 166 0
145 161 0
153 167 0
149 168 0
148 167 0
145 164 0
150 166 0
150 165 0
146 162 0
142 166 0
152 176 0
151 177 0
146 170 0
145 170 0
147 173 0
147 170 0
141 165 0
148 170 0
150 174 0
143 170 0
141 165 0
153 177 0
147 171 0
144 170 0
146 172 0
147 172 0
139 164 0
146 171 0
141 168 0
148 174 0
145 172 0
140 164 0
143 168 0
144 168 0
146 170 0
145 172 0
139 163 0
149 175 0
143 169 0
143 169 0
145 171 0
145 171 0
145 168 0
142 167 0
150 173 0
140 164 0
143 168 0
140 166 0
149 174 0
140 165 0
140 166 0
144 169 0
142 167 0
144 170 0
146 172 0
141 169 0
140 163 0
132 158 0
144 171 0
142 168 0
148 174 0
143 168 0
132 161 0
137 162 0
131 154 0
143 170 0
139 166 0
137 165 0
142 168 0
139 164 0
135 163 0
130 156 0
143 168 0
141 169 0
144 171 0
140 168 0
131 159 0
145 170 0
130 156 0
138 165 0
133 162 0
130 161 0
143 170 0
128 156 0
137 163 0
141 168 0
136 162 0
142 167 0
126 153 0
138 162 0
128 154 0
146 173 0
139 164 0
152 177 0
135 158 0
142 170 0
133 160 0
136 163 0
128 155 0
139 163 0
134 161 0
133 159 0
133 161 0
140 168 0
125 153 0
141 167 0
128 153 0
132 161 0
131 157 0
146 172 0
136 164 0
139 165 0
131 159 0
132 159 0
133 158 0
135 161 0
134 161 0
131 157 0
134 159 0
140 167 0
128 154 0
127 153 0
128 155 0
135 160 0
136 161 0
136 160 0
137 162 0
145 168 0
130 158 0
131 156 0
142 170 0
134 160 0
124 153 0
132 159 0
139 164 0
140 167 0
121 151 0
141 166 0
129 156 0
132 158 0
126 151 0
137 164 0
127 154 0
129 157 0
122 147 0
130 154 0
122 149 0
132 157 0
133 158 0
129 155 0
134 159 0
132 158 0
128 153 0
129 154 0
134 160 0
124 151 0
130 154 0
124 151 0
125 151 0
126 149 0
132 157 0
124 151 0
130 156 0
126 153 0
124 152 0
136 161 0
130 154 0
131 156 0
125 149 0
123 148 0
129 156 0
129 157 0
135 161 0
127 153 0
125 151 0
127 151 0
127 152 0
130 155 0
119 147 0
128 153 0
118 143 0
127 152 0
130 154 0
126 153 0
128 153 0
122 147 0
120 145 0
129 152 0
132 156 0
128 152 0
121 148 0
121 146 0
127 152 0
131 156 0
125 150 0
115 138 0
128 151 0
127 152 0
131 154 0
125 151 0
125 149 0
122 147 0
129 156 0
126 151 0
122 146 0
125 149 0
117 142 0
130 153 0
131 154 0
123 148 0
114 139 0
123 147 0
122 145 0
129 154 0
131 153 0
133 158 0
121 146 0
124 148 0
123 145 0
125 150 0
125 149 0
129 153 0
126 150 0
134 156 0
117 144 0
127 151 0
131 155 0
129 153 0
121 146 0
131 157 0
122 145 0
125 149 0
127 150 0
134 154 0
124 148 0
130 155 0
126 149 0
114 137 0
126 151 0
129 153 0
127 152 0
121 146 0
123 148 0
131 154 0
127 148 0
134 159 0
129 153 0
124 149 0
124 148 0
135 158 0
127 150 0
121 147 0
140 164 0
119 145 0
128 151 0
132 156 0
127 148 0
129 152 0
128 154 0
126 148 0
136 159 0
124 144 0
129 154 0
137 162 0
132 155 0
124 148 0
130 153 0
135 158 0
127 148 0
136 161 0
136 159 0
132 153 0
129 155 0
127 150 0
128 153 0
134 158 0
135 156 0
129 153 0
128 152 0
138 163 0
137 161 0
134 159 0
126 151 0
129 153 0
134 158 0
135 157 0
129 150 0
127 152 0
136 160 0
135 159 0
128 151 0
136 159 0
129 152 0
133 154 0
130 151 0
133 160 0
138 161 0
136 162 0
132 156 0
123 146 0
143 167 0
133 155 0
141 163 0
135 160 0
127 151 0
135 158 0
140 166 0
131 153 0
130 154 0
132 154 0
130 153 0
136 160 0
130 153 0
138 160 0
135 158 0
141 165 0
136 161 0
136 158 0
134 162 0
123 145 0
129 150 0
131 152 0
142 164 0
139 164 0
138 160 0
137 158 0
134 154 0
146 166 0
130 153 0
141 165 0
141 163 0
135 158 0
138 163 0
141 163 0
130 152 0
139 161 0
139 160 0
140 164 0
141 162 0
133 156 0
141 164 0
142 160 0
138 158 0
135 156 0
133 151 0
137 158 0
141 164 0
136 156 0
133 155 0
135 156 0
140 160 0
141 163 0
139 159 0
134 153 0
139 157 0
139 161 0
140 158 0
135 156 0
141 164 0
145 167 0
142 161 0
145 167 0
142 163 0
134 153 0
145 162 0
140 162 0
138 157 0
139 160 0
144 162 0
139 157 0
142 163 0
144 160 0
135 156 0
142 162 0
144 166 0
145 165 0
138 158 0
140 161 0
144 161 0
144 163 0
144 161 0
146 165 0
144 165 0
145 160 0
143 160 0
146 164 0
143 163 0
148 167 0
141 161 0
146 163 0
139 157 0
141 158 0
143 161 0
146 166 0
147 163 0
145 163 0
146 165 0
143 161 0
143 161 0
147 165 0
147 165 0
144 160 0
147 163 0
147 167 0
146 163 0
146 161 0
145 161 0
146 164 0
151 167 0
146 172 0
147 173 0
144 169 0
145 172 0
147 173 0
143 167 0
144 171 0
151 174 0
145 170 0
153 177 0
144 169 0
143 168 0
141 166 0
143 167 0
145 170 0
146 171 0
146 172 0
142 167 0
143 167 0
147 172 0
147 171 0
143 168 0
141 166 0
150 176 0
142 168 0
139 164 0
140 166 0
150 175 0
141 166 0
143 169 0
135 158 0
139 167 0
143 168 0
138 164 0
134 161 0
147 173 0
138 164 0
145 172 0
142 167 0
143 168 0
144 168 0
137 165 0
142 166 0
135 163 0
138 162 0
136 164 0
139 167 0
135 161 0
137 162 0
131 157 0
137 163 0
135 162 0
140 166 0
137 166 0
138 165 0
144 170 0
137 162 0
140 164 0
130 156 0
139 165 0
140 166 0
131 159 0
127 156 0
141 165 0
138 166 0
132 159 0
141 167 0
141 167 0
138 164 0
137 166 0
141 166 0
135 164 0
139 166 0
142 167 0
136 159 0
142 170 0
134 162 0
127 153 0
136 161 0
129 154 0
143 170 0
136 163 0
132 158 0
137 166 0
142 169 0
131 160 0
136 164 0
135 164 0
129 156 0
137 164 0
143 169 0
132 158 0
144 167 0
135 162 0
134 160 0
142 171 0
133 160 0
136 164 0
136 161 0
132 157 0
139 166 0
128 156 0
137 166 0
136 163 0
129 156 0
134 161 0
137 164 0
134 161 0
130 159 0
138 162 0
130 156 0
129 156 0
139 164 0
133 162 0
131 159 0
135 163 0
128 153 0
130 157 0
133 156 0
132 157 0
131 158 0
139 167 0
137 159 0
140 167 0
142 166 0
135 164 0
131 158 0
135 162 0
128 154 0
126 153 0
128 153 0
129 154 0
130 157 0
132 158 0
128 153 0
133 160 0
129 156 0
132 158 0
125 152 0
126 150 0
127 150 0
128 155 0
125 151 0
140 164 0
132 156 0
122 148 0
131 158 0
125 150 0
131 157 0
132 158 0
126 152 0
111 136 0
134 159 0
130 154 0
131 158 0
135 160 0
136 160 0
128 154 0
131 156 0
124 149 0
128 156 0
124 151 0
118 143 0
127 152 0
122 149 0
135 160 0
125 150 0
136 161 0
137 161 0
126 149 0
130 155 0
124 148 0
133 159 0
132 156 0
129 154 0
125 149 0
128 155 0
135 159 0
132 156 0
126 151 0
133 158 0
124 147 0
118 141 0
125 150 0
122 145 0
131 156 0
133 156 0
122 147 0
132 155 0
124 150 0
133 156 0
132 155 0
116 142 0
129 153 0
130 155 0
128 154 0
131 155 0
119 143 0
127 152 0
127 150 0
124 148 0
128 153 0
122 147 0
130 155 0
118 141 0
129 152 0
130 154 0
131 154 0
121 146 0
129 153 0
130 154 0
129 156 0
123 150 0
121 141 0
133 159 0
123 147 0
128 152 0
124 147 0
123 146 0
121 146 0
134 160 0
118 144 0
128 153 0
128 152 0
127 152 0
128 151 0
133 157 0
127 153 0
132 157 0
122 149 0
129 154 0
130 154 0
135 159 0
126 151 0
130 156 0
133 158 0
138 161 0
120 145 0
125 152 0
119 146 0
142 163 0
138 162 0
129 154 0
126 150 0
125 152 0
134 157 0
121 146 0
132 156 0
130 155 0
127 151 0
126 151 0
126 151 0
136 159 0
129 154 0
140 163 0
132 154 0
136 162 0
120 150 0
125 150 0
125 148 0
124 148 0
129 152 0
131 155 0
132 158 0
131 155 0
132 157 0
131 156 0
128 153 0
133 157 0
132 156 0
118 143 0
130 153 0
137 163 0
136 161 0
135 160 0
129 154 0
117 139 0
136 161 0
136 159 0
128 152 0
131 154 0
131 157 0
132 153 0
127 150 0
133 157 0
135 161 0
134 161 0
139 163 0
133 158 0
128 153 0
133 155 0
136 158 0
125 148 0
136 160 0
132 157 0
131 157 0
133 156 0
131 153 0
131 155 0
137 161 0
138 162 0
129 150 0
133 158 0
134 159 0
130 154 0
136 158 0
139 162 0
139 163 0
134 158 0
138 164 0
137 165 0
136 159 0
139 163 0
135 157 0
139 164 0
142 160 0
136 159 0
137 158 0
140 164 0
141 165 0
136 161 0
133 155 0
140 161 0
144 166 0
146 167 0
140 164 0
137 162 0
135 156 0
128 150 0
139 162 0
142 162 0
143 166 0
143 163 0
143 166 0
139 157 0
137 156 0
143 166 0
145 167 0
144 165 0
131 151 0
137 162 0
141 161 0
136 158 0
142 163 0
136 157 0
134 158 0
149 170 0
135 155 0
137 156 0
138 161 0
141 161 0
141 163 0
139 159 0
136 158 0
139 163 0
143 164 0
140 158 0
142 164 0
140 161 0
138 157 0
143 163 0
140 160 0
140 157 0
145 164 0
142 160 0
145 164 0
142 160 0
143 162 0
143 160 0
143 162 0
138 156 0
142 158 0
147 166 0
140 159 0
143 163 0
147 161 0
149 166 0
138 157 0
137 156 0
140 159 0
143 162 0
147 163 0
150 166 0
143 159 0
148 165 0
146 167 0
142 160 0
148 169 0
146 163 0
143 161 0
140 156 0
146 162 0
147 164 0
148 166 0
149 166 0
148 167 0
148 166 0
144 163 0
148 167 0
151 167 0
151 176 0
149 172 0
153 177 0
149 174 0
151 177 0
144 168 0
147 171 0
149 173 0
142 167 0
147 173 0
146 172 0
149 173 0
149 174 0
135 163 0
142 167 0
152 176 0
144 167 0
143 172 0
148 175 0
144 169 0
137 165 0
151 178 0
142 168 0
143 167 0
142 167 0
149 175 0
146 173 0
144 169 0
143 168 0
144 170 0
152 177 0
137 163 0
145 170 0
137 165 0
143 170 0
140 165 0
135 162 0
140 167 0
141 168 0
140 166 0
146 172 0
137 164 0
142 168 0
137 162 0
145 172 0
147 174 0
130 156 0
143 169 0
137 162 0
140 165 0
140 165 0
143 166 0
138 164 0
145 169 0
139 167 0
139 166 0
136 164 0
136 163 0
142 166 0
141 169 0
144 170 0
132 159 0
142 170 0
135 161 0
139 165 0
137 163 0
142 170 0
144 171 0
141 170 0
131 159 0
143 169 0
136 164 0
141 166 0
140 167 0
141 168 0
141 168 0
129 155 0
139 165 0
126 153 0
136 165 0
130 157 0
138 165 0
130 154 0
126 153 0
131 156 0
139 166 0
133 161 0
139 166 0
138 165 0
128 154 0
138 164 0
129 158 0
132 160 0
132 157 0
136 164 0
133 161 0
135 162 0
130 157 0
132 159 0
136 163 0
129 156 0
132 158 0
140 168 0
139 167 0
131 157 0
133 161 0
134 162 0
132 160 0
134 160 0
126 154 0
134 160 0
136 165 0
140 166 0
127 154 0
135 163 0
140 167 0
130 160 0
137 165 0
132 156 0
123 149 0
128 153 0
124 151 0
133 161 0
136 161 0
132 160 0
135 163 0
140 166 0
126 154 0
133 159 0
128 153 0
132 159 0
128 155 0
136 162 0
138 166 0
134 159 0
126 155 0
134 159 0
125 152 0
136 161 0
141 167 0
126 153 0
126 152 0
130 158 0
141 168 0
129 155 0
127 155 0
125 152 0
127 152 0
125 151 0
128 153 0
129 155 0
129 157 0
136 162 0
127 151 0
129 153 0
127 153 0
128 154 0
132 159 0
131 156 0
136 161 0
124 148 0
125 149 0
130 156 0
115 142 0
122 148 0
117 141 0
130 158 0
128 153 0
123 150 0
115 141 0
128 158 0
127 153 0
134 159 0
125 150 0
125 149 0
128 154 0
116 143 0
131 156 0
129 155 0
129 155 0
127 153 0
132 157 0
124 150 0
122 148 0
130 155 0
128 152 0
134 158 0
122 146 0
135 161 0
124 149 0
121 145 0
127 151 0
124 151 0
131 157 0
122 148 0
127 151 0
122 148 0
130 152 0
132 157 0
129 153 0
115 140 0
129 153 0
137 160 0
119 144 0
128 151 0
116 142 0
126 149 0
126 153 0
125 147 0
122 147 0
127 154 0
130 154 0
116 138 0
120 146 0
131 154 0
124 148 0
128 154 0
126 150 0
121 146 0
129 154 0
126 151 0
123 145 0
128 153 0
127 151 0
127 148 0
129 151 0
126 150 0
128 153 0
134 156 0
125 149 0
126 148 0
124 147 0
123 148 0
125 149 0
133 156 0
128 150 0
126 148 0
136 159 0
125 150 0
135 159 0
134 158 0
130 158 0
130 155 0
125 150 0
124 152 0
133 158 0
125 150 0
124 149 0
137 162 0
135 160 0
129 154 0
131 156 0
127 151 0
133 155 0
122 145 0
133 157 0
126 149 0
125 150 0
130 152 0
128 154 0
131 155 0
128 154 0
138 161 0
134 159 0
130 155 0
136 161 0
137 162 0
137 160 0
127 151 0
133 158 0
123 147 0
131 159 0
123 147 0
126 149 0
122 146 0
127 151 0
134 158 0
127 154 0
127 154 0
134 157 0
124 146 0
126 150 0
129 153 0
132 159 0
131 157 0
135 160 0
121 146 0
134 157 0
133 157 0
137 163 0
131 158 0
133 156 0
134 156 0
139 162 0
127 151 0
121 144 0
130 153 0
137 161 0
133 159 0
140 168 0
137 162 0
141 164 0
139 164 0
133 158 0
137 160 0
136 162 0
133 154 0
140 164 0
136 160 0
132 155 0
136 160 0
133 160 0
145 172 0
132 158 0
139 160 0
132 155 0
141 161 0
134 157 0
132 152 0
136 158 0
142 166 0
134 156 0
142 165 0
132 155 0
131 154 0
140 163 0
138 162 0
138 161 0
141 164 0
139 163 0
133 156 0
139 164 0
137 159 0
137 158 0
136 159 0
139 158 0
141 163 0
140 159 0
140 163 0
144 167 0
139 161 0
133 154 0
145 166 0
142 162 0
135 156 0
136 157 0
140 161 0
144 166 0
142 164 0
142 167 0
137 157 0
137 158 0
140 163 0
144 162 0
142 162 0
145 167 0
142 163 0
142 162 0
147 169 0
137 157 0
145 169 0
147 170 0
144 163 0
136 156 0
142 160 0
143 160 0
141 159 0
141 164 0
149 170 0
148 165 0
144 162 0
150 166 0
140 157 0
142 160 0
137 153 0
148 168 0
139 158 0
143 162 0
142 161 0
149 173 0
144 164 0
153 173 0
150 168 0
151 168 0
149 168 0
149 164 0
145 163 0
147 166 0
148 165 0
146 164 0
138 156 0
146 166 0
151 171 0
149 169 0
149 166 0
146 160 0
144 164 0
151 165 0
154 175 0
139 155 0
145 171 0
146 171 0
140 166 0
149 174 0
144 171 0
149 174 0
144 169 0
153 176 0
144 170 0
144 170 0
147 173 0
146 171 0
149 175 0
143 167 0
146 170 0
151 176 0
148 175 0
141 164 0
138 163 0
148 175 0
140 167 0
144 171 0
149 175 0
146 172 0
140 166 0
142 167 0
141 169 0
143 169 0
137 163 0
147 172 0
143 169 0
142 168 0
141 169 0
139 166 0
135 158 0
142 166 0
138 165 0
145 170 0
144 169 0
138 168 0
141 168 0
139 163 0
143 168 0
141 168 0
144 170 0
138 166 0
137 163 0
139 166 0
144 169 0
141 165 0
139 165 0
144 170 0
139 163 0
143 171 0
143 170 0
137 164 0
147 172 0
142 168 0
140 165 0
137 163 0
132 159 0
138 169 0
140 167 0
131 158 0
149 177 0
140 166 0
137 164 0
143 169 0
134 161 0
139 164 0
142 171 0
134 162 0
135 162 0
142 169 0
136 163 0
137 165 0
138 167 0
143 169 0
135 162 0
142 166 0
134 164 0
128 156 0
134 159 0
145 171 0
132 158 0
134 161 0
133 160 0
131 160 0
132 159 0
129 156 0
134 159 0
138 165 0
137 163 0
139 167 0
133 160 0
127 154 0
128 154 0
136 161 0
136 164 0
138 166 0
141 165 0
133 162 0
128 154 0
145 173 0
134 160 0
136 163 0
138 166 0
125 153 0
135 163 0
138 165 0
139 164 0
134 160 0
132 159 0
134 163 0
134 160 0
131 158 0
124 151 0
134 160 0
131 158 0
133 160 0
132 161 0
131 156 0
125 149 0
133 160 0
131 158 0
135 161 0
137 161 0
128 151 0
128 151 0
127 154 0
135 163 0
138 165 0
131 157 0
130 155 0
124 149 0
132 158 0
136 161 0
136 163 0
129 152 0
130 158 0
134 160 0
135 160 0
124 153 0
126 150 0
129 155 0
136 161 0
127 152 0
138 163 0
126 154 0
129 157 0
133 160 0
131 156 0
132 158 0
135 159 0
133 158 0
130 157 0
126 153 0
117 142 0
127 154 0
124 151 0
132 159 0
125 151 0
130 153 0
134 160 0
121 146 0
128 155 0
129 153 0
140 166 0
137 163 0
127 153 0
128 154 0
126 152 0
123 149 0
124 149 0
132 155 0
134 158 0
123 150 0
122 147 0
132 157 0
133 157 0
124 149 0
123 149 0
135 158 0
126 150 0
127 153 0
124 147 0
121 145 0
128 154 0
126 150 0
122 148 0
123 146 0
126 150 0
130 153 0
111 137 0
131 157 0
128 152 0
126 153 0
124 148 0
127 153 0
126 150 0
130 153 0
128 153 0
121 145 0
128 154 0
132 156 0
131 156 0
116 141 0
123 147 0
121 146 0
134 159 0
128 152 0
126 152 0
128 153 0
132 158 0
121 145 0
126 149 0
127 153 0
112 140 0
127 152 0
130 154 0
125 149 0
124 149 0
127 151 0
122 148 0
138 162 0
133 156 0
128 153 0
132 156 0
132 155 0
123 147 0
130 153 0
124 149 0
134 158 0
132 158 0
132 159 0
130 155 0
115 141 0
123 148 0
130 154 0
131 155 0
130 155 0
129 151 0
129 155 0
134 156 0
120 147 0
123 146 0
133 155 0
122 147 0
122 147 0
132 157 0
137 163 0
129 155 0
127 152 0
123 149 0
131 156 0
128 152 0
131 153 0
126 152 0
139 162 0
131 155 0
133 156 0
133 160 0
129 153 0
123 147 0
132 153 0
135 160 0
119 143 0
126 152 0
129 151 0
132 155 0
132 156 0
135 157 0
129 150 0
134 158 0
133 160 0
135 160 0
131 154 0
128 153 0
136 162 0
133 157 0
135 160 0
135 160 0
145 170 0
127 152 0
127 151 0
132 156 0
125 151 0
133 155 0
133 157 0
140 166 0
134 159 0
136 158 0
132 154 0
137 161 0
134 158 0
129 151 0
136 161 0
131 155 0
136 158 0
134 160 0
140 165 0
135 159 0
139 162 0
142 165 0
132 157 0
139 164 0
126 155 0
136 158 0
140 165 0
128 148 0
138 159 0
135 157 0
133 155 0
139 163 0
135 158 0
136 161 0
130 152 0
139 160 0
130 154 0
145 167 0
141 164 0
134 153 0
128 153 0
139 162 0
134 157 0
135 158 0
139 160 0
140 166 0
132 155 0
138 159 0
128 154 0
130 153 0
141 163 0
145 169 0
145 164 0
139 161 0
135 158 0
133 154 0
143 167 0
147 169 0
144 165 0
135 156 0
134 155 0
145 166 0
140 162 0
138 159 0
142 162 0
141 159 0
140 164 0
143 165 0
136 156 0
138 160 0
139 163 0
138 161 0
144 168 0
147 171 0
141 159 0
143 165 0
141 162 0
139 158 0
141 161 0
141 160 0
142 161 0
149 164 0
142 168 0
136 157 0
144 162 0
143 161 0
143 164 0
145 162 0
144 166 0
145 166 0
139 159 0
140 162 0
144 162 0
141 163 0
142 161 0
138 157 0
145 164 0
148 169 0
143 161 0
145 164 0
151 171 0
149 168 0
145 164 0
150 167 0
146 163 0
148 167 0
148 168 0
142 160 0
141 160 0
144 161 0
151 171 0
146 165 0
140 159 0
146 164 0
149 170 0
147 168 0
147 165 0
149 170 0
149 177 0
149 174 0
154 178 0
147 172 0
150 175 0
149 174 0
148 172 0
147 173 0
148 171 0
145 171 0
147 172 0
144 170 0
143 169 0
145 171 0
149 177 0
143 168 0
147 173 0
140 164 0
137 165 0
148 175 0
147 171 0
145 169 0
146 172 0
147 173 0
145 170 0
147 172 0
143 168 0
144 170 0
138 166 0
144 170 0
147 173 0
138 165 0
146 172 0
140 167 0
139 169 0
137 166 0
143 169 0
139 166 0
140 166 0
148 174 0
142 169 0
143 166 0
142 167 0
146 170 0
143 169 0
137 164 0
148 174 0
134 160 0
142 169 0
133 161 0
141 168 0
136 162 0
148 177 0
139 167 0
133 159 0
133 160 0
146 174 0
132 162 0
135 161 0
140 165 0
135 161 0
138 164 0
131 158 0
135 163 0
132 157 0
132 160 0
142 169 0
139 167 0
146 172 0
138 163 0
139 165 0
138 167 0
138 166 0
138 165 0
141 167 0
134 163 0
141 168 0
133 158 0
134 162 0
135 161 0
137 163 0
135 163 0
133 159 0
136 165 0
138 164 0
126 154 0
137 162 0
132 158 0
130 157 0
132 160 0
134 164 0
133 160 0
135 160 0
135 161 0
132 161 0
133 160 0
134 162 0
132 158 0
135 162 0
142 169 0
131 157 0
133 162 0
138 166 0
140 167 0
130 158 0
136 162 0
138 164 0
131 160 0
127 154 0
146 174 0
134 159 0
139 166 0
136 163 0
127 155 0
130 157 0
125 153 0
129 155 0
134 160 0
131 157 0
129 155 0
127 153 0
136 161 0
131 157 0
134 162 0
132 158 0
136 163 0
133 160 0
133 160 0
135 160 0
125 150 0
135 163 0
137 163 0
131 160 0
125 152 0
122 151 0
130 156 0
130 159 0
127 154 0
132 159 0
122 143 0
119 146 0
136 163 0
117 144 0
127 155 0
128 153 0
130 158 0
136 162 0
128 152 0
128 153 0
127 154 0
126 154 0
134 158 0
122 149 0
126 151 0
123 147 0
123 150 0
137 166 0
133 160 0
124 150 0
135 161 0
138 164 0
127 152 0
130 156 0
129 155 0
128 153 0
126 152 0
123 150 0
127 152 0
133 157 0
133 158 0
131 158 0
117 141 0
136 162 0
133 157 0
136 161 0
124 148 0
128 155 0
132 155 0
130 157 0
117 143 0
127 152 0
120 144 0
132 158 0
125 150 0
127 154 0
127 149 0
118 143 0
119 145 0
121 148 0
129 152 0
134 158 0
134 160 0
129 153 0
126 148 0
129 153 0
128 153 0
123 146 0
124 149 0
129 153 0
121 143 0
133 157 0
125 150 0
132 156 0
123 147 0
125 150 0
121 145 0
132 156 0
129 153 0
122 146 0
127 151 0
131 160 0
121 146 0
123 150 0
127 153 0
130 157 0
129 154 0
129 155 0
130 155 0
123 149 0
133 158 0
124 151 0
131 156 0
133 157 0
136 160 0
122 148 0
130 153 0
135 161 0
134 159 0
125 151 0
125 152 0
128 154 0
134 159 0
131 154 0
133 158 0
132 156 0
125 150 0
129 155 0
127 153 0
124 150 0
132 156 0
130 156 0
124 149 0
126 150 0
140 164 0
131 157 0
138 164 0
125 148 0
126 151 0
128 155 0
120 145 0
132 157 0
128 153 0
123 149 0
124 145 0
129 152 0
133 158 0
135 159 0
132 157 0
129 152 0
129 153 0
128 152 0
124 149 0
135 161 0
134 161 0
134 156 0
115 138 0
131 158 0
134 158 0
134 159 0
130 154 0
126 151 0
131 157 0
130 155 0
124 145 0
132 154 0
133 157 0
136 161 0
137 161 0
131 156 0
138 163 0
132 157 0
134 156 0
132 157 0
132 157 0
131 157 0
134 158 0
130 154 0
135 164 0
134 157 0
129 152 0
125 150 0
135 158 0
128 153 0
130 156 0
135 157 0
131 157 0
134 158 0
127 150 0
129 155 0
136 159 0
133 158 0
141 165 0
128 151 0
140 165 0
140 163 0
131 153 0
139 164 0
132 154 0
139 162 0
138 163 0
134 158 0
128 151 0
134 156 0
139 162 0
133 156 0
134 161 0
135 161 0
134 159 0
131 150 0
134 157 0
130 153 0
131 153 0
135 161 0
136 159 0
136 160 0
139 161 0
139 161 0
138 162 0
127 149 0
134 158 0
136 160 0
135 164 0
139 161 0
141 164 0
137 160 0
140 163 0
134 156 0
144 165 0
140 162 0
143 165 0
130 150 0
138 156 0
132 154 0
142 163 0
143 168 0
135 156 0
137 158 0
136 155 0
135 156 0
140 161 0
146 168 0
140 157 0
143 162 0
149 169 0
145 165 0
140 159 0
145 164 0
143 162 0
140 161 0
136 157 0
146 168 0
137 159 0
138 158 0
146 166 0
136 156 0
141 163 0
143 161 0
140 162 0
144 166 0
149 170 0
144 163 0
146 165 0
142 164 0
146 166 0
141 162 0
142 160 0
145 164 0
145 164 0
146 162 0
144 161 0
143 164 0
138 158 0
142 159 0
148 168 0
148 169 0
147 164 0
147 164 0
147 167 0
141 161 0
148 165 0
149 168 0
144 161 0
141 161 0
146 164 0
144 161 0
140 157 0
149 168 0
150 168 0
149 168 0
152 172 0
152 178 0
148 174 0
148 173 0
147 173 0
137 163 0
142 168 0
144 172 0
151 176 0
149 174 0
145 170 0
153 178 0
146 172 0
141 169 0
146 173 0
148 172 0
150 176 0
147 173 0
144 170 0
146 170 0
143 169 0
150 174 0
140 165 0
142 166 0
139 165 0
147 172 0
143 168 0
146 172 0
153 177 0
140 167 0
146 171 0
142 168 0
144 170 0
143 169 0
138 164 0
138 165 0
144 170 0
142 166 0
138 164 0
146 173 0
138 162 0
149 176 0
141 169 0
138 166 0
148 175 0
150 177 0
145 172 0
137 165 0
141 167 0
136 162 0
138 166 0
136 163 0
134 161 0
149 174 0
145 171 0
148 175 0
140 166 0
142 169 0
133 158 0
142 168 0
136 166 0
140 168 0
137 162 0
136 161 0
138 165 0
137 164 0
140 167 0
137 164 0
139 166 0
136 162 0
136 165 0
139 165 0
127 156 0
135 161 0
140 166 0
139 168 0
139 168 0
132 161 0
139 164 0
135 163 0
143 169 0
138 166 0
133 161 0
134 160 0
132 159 0
132 159 0
132 159 0
148 173 0
136 167 0
137 162 0
135 163 0
123 152 0
131 157 0
141 168 0
135 163 0
130 157 0
128 156 0
132 159 0
137 164 0
133 161 0
137 164 0
129 158 0
127 156 0
131 157 0
130 155 0
131 160 0
135 160 0
136 163 0
139 165 0
131 157 0
134 163 0
131 158 0
133 160 0
131 157 0
132 161 0
130 157 0
134 159 0
137 162 0
135 161 0
136 163 0
132 158 0
129 158 0
133 161 0
136 161 0
128 154 0
134 162 0
133 161 0
137 161 0
131 156 0
129 157 0
132 160 0
136 162 0
135 163 0
133 157 0
134 160 0
130 155 0
124 152 0
132 158 0
124 151 0
127 151 0
140 166 0
135 161 0
135 161 0
125 155 0
128 156 0
131 158 0
128 157 0
141 165 0
131 158 0
134 158 0
124 151 0
133 159 0
127 153 0
130 156 0
126 152 0
133 159 0
132 159 0
126 151 0
129 155 0
120 149 0
127 151 0
128 152 0
131 158 0
133 159 0
128 154 0
134 156 0
134 159 0
121 147 0
121 146 0
127 152 0
129 153 0
130 153 0
129 156 0
130 159 0
142 167 0
132 156 0
136 160 0
123 148 0
132 158 0
134 161 0
129 152 0
117 142 0
138 164 0
124 151 0
124 148 0
133 158 0
121 148 0
130 156 0
130 156 0
134 158 0
130 157 0
137 164 0
126 153 0
132 157 0
124 148 0
125 149 0
126 153 0
130 154 0
125 149 0
134 161 0
119 143 0
131 156 0
125 153 0
123 150 0
122 146 0
124 151 0
126 150 0
120 143 0
120 144 0
133 159 0
134 159 0
128 151 0
138 163 0
130 154 0
136 161 0
134 161 0
126 151 0
127 151 0
132 158 0
129 154 0
138 163 0
126 152 0
124 148 0
133 159 0
122 146 0
128 153 0
128 150 0
120 146 0
123 147 0
125 151 0
136 162 0
129 152 0
130 156 0
128 157 0
127 151 0
122 149 0
126 153 0
125 149 0
133 158 0
127 151 0
130 152 0
121 144 0
133 156 0
128 155 0
132 156 0
126 152 0
133 159 0
132 158 0
126 151 0
134 161 0
134 158 0
129 153 0
132 159 0
137 161 0
131 154 0
127 152 0
133 155 0
134 161 0
134 157 0
136 160 0
130 157 0
129 154 0
130 153 0
136 159 0
133 156 0
127 152 0
141 163 0
133 156 0
134 159 0
130 156 0
136 161 0
138 162 0
129 155 0
135 158 0
137 161 0
132 158 0
140 163 0
136 162 0
138 162 0
133 156 0
137 163 0
136 161 0
128 154 0
128 154 0
135 159 0
132 156 0
135 163 0
130 156 0
137 162 0
139 167 0
134 155 0
123 152 0
138 161 0
131 157 0
137 160 0
132 158 0
133 160 0
145 169 0
140 164 0
141 166 0
140 162 0
145 170 0
140 160 0
139 165 0
134 160 0
131 157 0
135 159 0
135 157 0
131 154 0
132 158 0
135 160 0
139 166 0
133 157 0
141 166 0
131 156 0
136 160 0
134 156 0
138 162 0
141 163 0
135 158 0
133 160 0
140 162 0
142 166 0
142 165 0
140 161 0
138 162 0
141 167 0
140 163 0
136 161 0
137 162 0
131 153 0
142 163 0
132 154 0
138 160 0
145 167 0
140 162 0
140 161 0
137 161 0
134 160 0
140 161 0
142 167 0
140 163 0
141 161 0
131 154 0
142 162 0
135 158 0
138 161 0
142 163 0
134 158 0
141 167 0
132 154 0
136 156 0
136 159 0
145 164 0
135 157 0
140 158 0
141 160 0
141 162 0
132 155 0
149 170 0
132 155 0
144 166 0
136 157 0
147 170 0
137 159 0
140 162 0
148 167 0
142 164 0
143 163 0
139 162 0
140 162 0
146 167 0
130 152 0
139 160 0
146 165 0
145 164 0
146 168 0
148 168 0
145 163 0
143 164 0
146 165 0
148 172 0
147 169 0
149 168 0
144 167 0
147 165 0
145 163 0
147 164 0
148 166 0
148 166 0
147 166 0
151 169 0
145 164 0
146 167 0
145 162 0
146 166 0
144 163 0
144 163 0
149 165 0
153 173 0
144 163 0
145 172 0
137 164 0
146 172 0
148 174 0
150 176 0
140 167 0
147 172 0
149 176 0
145 171 0
145 171 0
142 170 0
155 180 0
147 173 0
145 171 0
142 167 0
143 166 0
144 167 0
144 170 0
143 169 0
144 169 0
150 176 0
146 172 0
139 163 0
149 178 0
138 163 0
142 168 0
147 171 0
150 174 0
142 170 0
142 168 0
145 170 0
152 177 0
136 164 0
138 167 0
151 177 0
144 171 0
145 171 0
146 174 0
143 167 0
138 163 0
146 173 0
141 166 0
145 171 0
138 164 0
148 172 0
140 167 0
143 167 0
138 163 0
147 174 0
134 162 0
134 160 0
143 169 0
139 165 0
147 173 0
146 172 0
143 169 0
145 174 0
134 160 0
137 162 0
138 166 0
140 166 0
140 168 0
144 171 0
136 164 0
142 167 0
139 166 0
141 167 0
141 171 0
137 165 0
134 160 0
138 165 0
138 168 0
131 158 0
143 170 0
146 171 0
143 169 0
136 163 0
140 166 0
132 161 0
130 159 0
134 161 0
143 171 0
131 159 0
140 168 0
132 162 0
140 165 0
144 169 0
138 165 0
138 164 0
143 170 0
144 170 0
133 162 0
138 165 0
139 167 0
134 161 0
134 161 0
127 153 0
132 159 0
130 157 0
137 165 0
134 162 0
134 161 0
132 160 0
131 157 0
140 166 0
134 163 0
130 156 0
131 158 0
136 164 0
130 159 0
135 163 0
139 168 0
129 158 0
129 157 0
139 169 0
134 160 0
134 162 0
135 159 0
133 159 0
136 163 0
128 156 0
140 167 0
135 162 0
135 162 0
139 165 0
130 154 0
130 156 0
127 154 0
142 169 0
144 172 0
134 161 0
128 154 0
134 161 0
134 161 0
131 157 0
129 156 0
132 159 0
129 152 0
130 159 0
130 159 0
133 158 0
131 154 0
134 158 0
130 156 0
134 161 0
128 154 0
132 157 0
129 154 0
129 154 0
132 158 0
138 163 0
129 157 0
136 160 0
125 152 0
128 155 0
127 152 0
121 148 0
125 150 0
133 160 0
124 152 0
129 151 0
133 157 0
123 149 0
133 159 0
129 157 0
129 153 0
132 159 0
131 157 0
136 161 0
120 143 0
130 155 0
135 161 0
126 155 0
128 155 0
134 160 0
125 152 0
124 148 0
131 158 0
128 153 0
132 160 0
115 140 0
135 161 0
126 153 0
133 160 0
128 153 0
132 159 0
124 150 0
123 147 0
122 150 0
117 142 0
119 143 0
114 139 0
128 154 0
133 158 0
132 154 0
128 153 0
126 152 0
134 158 0
127 150 0
128 153 0
127 153 0
128 154 0
132 158 0
137 160 0
132 157 0
114 139 0
125 152 0
127 152 0
128 154 0
122 147 0
130 159 0
132 159 0
129 155 0
128 152 0
137 160 0
128 153 0
126 151 0
133 158 0
130 154 0
120 145 0
116 142 0
137 161 0
129 154 0
127 153 0
130 154 0
125 148 0
128 153 0
139 162 0
125 149 0
124 149 0
126 151 0
132 156 0
130 157 0
132 158 0
128 154 0
126 150 0
130 156 0
129 156 0
128 152 0
132 157 0
132 155 0
127 151 0
133 156 0
133 157 0
123 152 0
123 147 0
131 158 0
132 158 0
123 150 0
131 156 0
119 144 0
129 154 0
133 157 0
125 152 0
132 154 0
135 161 0
139 161 0
137 162 0
126 150 0
136 160 0
128 154 0
132 159 0
125 153 0
137 162 0
126 154 0
133 157 0
128 151 0
129 152 0
136 161 0
133 158 0
133 158 0
128 154 0
131 154 0
127 151 0
131 156 0
133 157 0
137 160 0
132 155 0
136 159 0
136 161 0
129 152 0
132 160 0
126 155 0
135 161 0
138 161 0
132 154 0
133 155 0
134 159 0
136 160 0
140 165 0
131 156 0
131 156 0
132 158 0
138 161 0
134 156 0
129 155 0
137 162 0
129 153 0
137 162 0
137 162 0
131 156 0
137 160 0
130 156 0
140 166 0
133 154 0
125 152 0
139 163 0
134 157 0
139 164 0
130 156 0
135 162 0
135 162 0
137 164 0
138 163 0
135 160 0
133 157 0
142 165 0
135 161 0
139 162 0
136 158 0
132 158 0
130 154 0
132 156 0
132 160 0
135 159 0
134 160 0
143 166 0
139 162 0
137 161 0
141 161 0
139 162 0
137 160 0
145 168 0
138 160 0
138 161 0
144 164 0
141 164 0
140 166 0
134 157 0
135 157 0
143 169 0
142 164 0
141 163 0
141 164 0
142 160 0
137 160 0
136 157 0
144 165 0
135 159 0
130 152 0
129 154 0
134 156 0
142 165 0
131 154 0
144 168 0
143 162 0
144 166 0
141 160 0
143 164 0
144 168 0
138 160 0
143 163 0
150 170 0
137 160 0
147 168 0
147 166 0
149 169 0
137 162 0
145 166 0
142 160 0
142 164 0
144 161 0
148 168 0
152 169 0
140 159 0
138 156 0
143 163 0
148 169 0
143 165 0
145 163 0
145 167 0
146 167 0
144 165 0
144 165 0
143 166 0
146 165 0
151 169 0
142 162 0
146 165 0
148 170 0
139 158 0
142 163 0
147 166 0
150 170 0
143 162 0
145 160 0
142 158 0
149 168 0
142 160 0
154 174 0
152 179 0
140 167 0
148 173 0
150 174 0
143 170 0
142 167 0
143 167 0
148 172 0
145 171 0
147 171 0
146 174 0
141 166 0
147 171 0
145 169 0
141 167 0
139 166 0
151 175 0
141 168 0
137 162 0
145 170 0
139 164 0
139 166 0
141 166 0
143 168 0
148 174 0
141 166 0
138 162 0
149 174 0
144 169 0
148 174 0
150 173 0
142 168 0
140 166 0
140 169 0
146 172 0
144 171 0
143 167 0
137 166 0
140 166 0
140 165 0
146 172 0
141 167 0
142 168 0
140 166 0
144 172 0
140 169 0
146 174 0
139 167 0
140 169 0
142 169 0
140 167 0
144 171 0
140 165 0
143 169 0
143 169 0
141 169 0
142 167 0
141 168 0
139 167 0
140 168 0
131 160 0
143 166 0
149 175 0
140 166 0
138 164 0
136 164 0
136 163 0
148 177 0
139 168 0
138 164 0
137 164 0
135 160 0
140 169 0
131 158 0
137 164 0
147 174 0
138 165 0
140 169 0
137 163 0
133 159 0
135 161 0
134 163 0
143 172 0
131 159 0
141 169 0
135 166 0
141 170 0
133 161 0
141 167 0
140 168 0
138 164 0
131 158 0
133 162 0
144 173 0
138 165 0
137 164 0
141 169 0
145 170 0
134 159 0
133 159 0
131 161 0
133 161 0
132 160 0
138 162 0
135 163 0
128 155 0
141 167 0
133 161 0
136 163 0
133 159 0
130 157 0
136 161 0
128 155 0
142 169 0
133 160 0
135 164 0
125 153 0
139 167 0
132 158 0
136 165 0
129 155 0
134 159 0
120 149 0
129 157 0
134 163 0
130 157 0
129 157 0
131 158 0
129 156 0
123 148 0
127 154 0
129 157 0
136 161 0
128 156 0
135 161 0
137 162 0
131 156 0
131 155 0
131 160 0
134 162 0
131 156 0
135 162 0
129 156 0
132 157 0
128 153 0
124 151 0
130 158 0
128 156 0
129 157 0
131 158 0
131 158 0
131 156 0
133 161 0
123 149 0
118 146 0
129 155 0
121 147 0
134 160 0
129 154 0
129 156 0
131 157 0
123 150 0
136 164 0
130 154 0
127 150 0
131 156 0
130 155 0
127 152 0
134 161 0
132 161 0
129 156 0
134 159 0
133 159 0
130 155 0
123 151 0
127 155 0
121 147 0
131 156 0
132 160 0
131 154 0
124 150 0
125 151 0
125 151 0
128 151 0
126 152 0
131 154 0
130 155 0
129 155 0
129 155 0
129 153 0
135 160 0
138 165 0
138 162 0
129 154 0
130 153 0
124 148 0
124 149 0
135 158 0
127 151 0
121 149 0
139 163 0
127 151 0
125 149 0
137 163 0
111 136 0
131 156 0
130 154 0
129 154 0
132 158 0
123 149 0
132 157 0
126 151 0
127 151 0
124 150 0
129 154 0
130 157 0
130 154 0
127 150 0
134 160 0
132 155 0
133 158 0
134 159 0
129 152 0
126 151 0
127 152 0
130 152 0
126 149 0
126 151 0
140 164 0
134 161 0
129 155 0
134 160 0
126 150 0
130 154 0
124 148 0
134 158 0
129 153 0
133 160 0
130 155 0
121 144 0
137 163 0
120 143 0
129 152 0
131 156 0
133 159 0
137 162 0
139 165 0
136 162 0
124 152 0
129 152 0
124 149 0
128 155 0
127 152 0
130 154 0
131 156 0
139 164 0
135 160 0
133 155 0
133 157 0
130 154 0
129 153 0
134 155 0
132 159 0
143 167 0
144 167 0
128 152 0
121 146 0
136 161 0
132 158 0
132 157 0
118 143 0
135 159 0
126 150 0
133 155 0
134 159 0
131 158 0
135 162 0
133 159 0
136 162 0
129 154 0
143 169 0
138 162 0
130 157 0
136 160 0
124 151 0
134 156 0
135 156 0
134 157 0
131 158 0
136 159 0
133 156 0
134 160 0
139 158 0
131 156 0
131 154 0
140 165 0
135 160 0
132 156 0
138 164 0
129 154 0
138 163 0
137 160 0
135 160 0
128 153 0
135 159 0
134 161 0
128 154 0
125 148 0
136 160 0
135 164 0
141 165 0
144 168 0
139 164 0
140 162 0
134 157 0
133 161 0
140 164 0
135 157 0
140 165 0
128 152 0
141 166 0
139 160 0
140 165 0
144 168 0
137 162 0
135 158 0
136 160 0
137 159 0
135 156 0
147 169 0
140 161 0
134 159 0
135 157 0
133 157 0
138 162 0
143 166 0
146 168 0
144 167 0
140 165 0
138 162 0
135 156 0
142 164 0
147 167 0
138 163 0
139 160 0
145 167 0
145 170 0
138 160 0
142 167 0
138 161 0
144 162 0
143 163 0
139 161 0
134 158 0
136 156 0
138 158 0
141 164 0
141 165 0
143 164 0
144 167 0
142 164 0
139 163 0
141 163 0
147 170 0
143 164 0
138 159 0
143 165 0
145 164 0
141 161 0
141 160 0
145 165 0
143 165 0
145 168 0
141 163 0
139 162 0
143 163 0
149 167 0
149 169 0
138 158 0
144 164 0
145 164 0
146 166 0
143 166 0
143 164 0
146 169 0
141 163 0
144 165 0
142 161 0
141 158 0
150 171 0
145 166 0
142 164 0
145 165 0
138 159 0
147 167 0
146 166 0
144 162 0
147 166 0
151 171 0
142 160 0
